(/home/mst/.eagle/ulp/pcb-gcode.ulp)
(Copyright 2005 - 2012 by John Johnson)
(See readme.txt for licensing terms.)
(This file generated from the board:)
(.../attiny45-microcontrol-v4.2-small-bts409l.brd)
(Current profile is .../mst/.eagle/ulp/profiles/emc.pp  )
(This file generated 04.06.16 00:42)
(Settings from pcb-machine.h)
(spindle on time = 1.0000)
(  Tool Size)
(0.5000 )
(spindle speed = 30000.0000)
(tool change at 0.0000 0.0000 25.4000 )
(feed rate xy = F508.00 )
(feed rate z  = F254.00 )
(Z Axis Settings)
(  High     Up        Down     Drill)
(1.0000 	1.0000 	-0.1500 	-0.2000 )
(Settings from pcb-defaults.h)
(isolate min = 0.0600)
(isolate max = 0.0600)
(isolate step = 0.0600)
(Generated bottom outlines, )
(Unit of measure: mm)
(Metric Mode)
G21
(Absolute Coordinates)
G90
S30000
G00 Z1.0000 
G00 X0.0000 Y0.0000 
M03
G04 P1.000000
G00 X-0.3555 Y0.4889 
G01 Z-0.1500 F254.00 
G01 X-0.2445 Y0.6416 F508.00 
G01 X-0.1588 Y0.8097 
X-0.1005 Y0.9892 
X-0.0710 Y1.1756 
Y30.5744 
X-0.1005 Y30.7608 
X-0.1588 Y30.9403 
X-0.2445 Y31.1084 
X-0.3555 Y31.2611 
X-0.4889 Y31.3945 
X-0.6416 Y31.5055 
X-0.8097 Y31.5912 
X-0.9892 Y31.6495 
X-1.1756 Y31.6790 
X-19.1444 
X-19.3308 Y31.6495 
X-19.5103 Y31.5912 
X-19.6784 Y31.5055 
X-19.8311 Y31.3945 
X-19.9645 Y31.2611 
X-20.0755 Y31.1084 
X-20.1612 Y30.9403 
X-20.2195 Y30.7608 
X-20.2490 Y30.5744 
Y26.5756 
X-20.2195 Y26.3892 
X-20.1612 Y26.2097 
X-20.0755 Y26.0416 
X-19.9645 Y25.8889 
X-19.8311 Y25.7555 
X-19.6784 Y25.6445 
X-19.5103 Y25.5588 
X-19.3308 Y25.5005 
X-19.1444 Y25.4710 
X-14.9150 
Y25.3592 
X-14.8939 Y25.2803 
X-14.8531 Y25.2097 
X-14.7953 Y25.1519 
X-14.7247 Y25.1111 
X-14.6458 Y25.0900 
X-13.2942 
X-13.2153 Y25.1111 
X-13.1447 Y25.1519 
X-13.0869 Y25.2097 
X-13.0461 Y25.2803 
X-13.0250 Y25.3592 
Y25.4710 
X-8.7956 
X-8.6092 Y25.5005 
X-8.4297 Y25.5588 
X-8.2616 Y25.6445 
X-8.1089 Y25.7555 
X-7.9755 Y25.8889 
X-7.8645 Y26.0416 
X-7.7788 Y26.2097 
X-7.7205 Y26.3892 
X-7.6910 Y26.5756 
Y29.2810 
X-2.4690 
Y7.5490 
X-8.9844 
X-9.1708 Y7.5195 
X-9.3503 Y7.4612 
X-9.5184 Y7.3755 
X-9.6711 Y7.2645 
X-9.8045 Y7.1311 
X-11.0745 Y5.8611 
X-11.1855 Y5.7084 
X-11.2712 Y5.5403 
X-11.3295 Y5.3608 
X-11.3590 Y5.1744 
Y3.7156 
X-11.3295 Y3.5292 
X-11.2712 Y3.3497 
X-11.1855 Y3.1816 
X-11.0745 Y3.0289 
X-10.9411 Y2.8955 
X-10.7884 Y2.7845 
X-10.6203 Y2.6988 
X-10.4408 Y2.6405 
X-10.2544 Y2.6110 
X-10.0656 
X-9.8792 Y2.6405 
X-9.6997 Y2.6988 
X-9.5316 Y2.7845 
X-9.3789 Y2.8955 
X-9.2455 Y3.0289 
X-9.1345 Y3.1816 
X-9.0488 Y3.3497 
X-8.9905 Y3.5292 
X-8.9610 Y3.7156 
Y4.5834 
X-8.3934 Y5.1510 
X-2.4690 
Y2.4690 
X-3.9044 
X-4.0908 Y2.4395 
X-4.2703 Y2.3812 
X-4.4384 Y2.2955 
X-4.5911 Y2.1845 
X-4.7245 Y2.0511 
X-4.8355 Y1.8984 
X-4.9212 Y1.7303 
X-4.9795 Y1.5508 
X-5.0090 Y1.3644 
Y1.1756 
X-4.9795 Y0.9892 
X-4.9212 Y0.8097 
X-4.8355 Y0.6416 
X-4.7245 Y0.4889 
X-4.5911 Y0.3555 
X-4.4384 Y0.2445 
X-4.2703 Y0.1588 
X-4.0908 Y0.1005 
X-3.9044 Y0.0710 
X-1.1756 
X-0.9892 Y0.1005 
X-0.8097 Y0.1588 
X-0.6416 Y0.2445 
X-0.4889 Y0.3555 
X-0.3555 Y0.4889 
G00 Z1.0000 
G00 X-2.8955 Y3.0289 
G01 Z-0.1500 F254.00 
G01 X-2.7845 Y3.1816 F508.00 
G01 X-2.6988 Y3.3497 
X-2.6405 Y3.5292 
X-2.6110 Y3.7156 
Y3.9044 
X-2.6405 Y4.0908 
X-2.6988 Y4.2703 
X-2.7845 Y4.4384 
X-2.8955 Y4.5911 
X-3.0289 Y4.7245 
X-3.1816 Y4.8355 
X-3.3497 Y4.9212 
X-3.5292 Y4.9795 
X-3.7156 Y5.0090 
X-7.7144 
X-7.9008 Y4.9795 
X-8.0803 Y4.9212 
X-8.2484 Y4.8355 
X-8.4011 Y4.7245 
X-8.5345 Y4.5911 
X-8.6455 Y4.4384 
X-8.7312 Y4.2703 
X-8.7895 Y4.0908 
X-8.8190 Y3.9044 
Y3.0366 
X-9.3866 Y2.4690 
X-10.5787 
X-10.6368 Y2.5560 
X-10.7790 Y2.6982 
X-10.9463 Y2.8100 
X-11.1321 Y2.8870 
X-11.3294 Y2.9262 
X-11.5306 
X-11.7279 Y2.8870 
X-11.9137 Y2.8100 
X-12.0810 Y2.6982 
X-12.2232 Y2.5560 
X-12.2813 Y2.4690 
X-20.3910 
Y15.3110 
X-12.6290 
Y11.3356 
X-12.5995 Y11.1492 
X-12.5412 Y10.9697 
X-12.4555 Y10.8016 
X-12.3445 Y10.6489 
X-12.2111 Y10.5155 
X-12.0584 Y10.4045 
X-11.8903 Y10.3188 
X-11.7108 Y10.2605 
X-11.5244 Y10.2310 
X-8.7956 
X-8.6092 Y10.2605 
X-8.4297 Y10.3188 
X-8.2616 Y10.4045 
X-8.1089 Y10.5155 
X-7.9755 Y10.6489 
X-7.8645 Y10.8016 
X-7.7788 Y10.9697 
X-7.7205 Y11.1492 
X-7.6910 Y11.3356 
Y14.0644 
X-7.7205 Y14.2508 
X-7.7788 Y14.4303 
X-7.8645 Y14.5984 
X-7.9755 Y14.7511 
X-8.1089 Y14.8845 
X-8.2616 Y14.9955 
X-8.4297 Y15.0812 
X-8.6092 Y15.1395 
X-8.7956 Y15.1690 
X-8.9610 
Y19.1444 
X-8.9905 Y19.3308 
X-9.0488 Y19.5103 
X-9.1345 Y19.6784 
X-9.2455 Y19.8311 
X-9.3789 Y19.9645 
X-9.5316 Y20.0755 
X-9.6997 Y20.1612 
X-9.8792 Y20.2195 
X-10.0656 Y20.2490 
X-10.2544 
X-10.4408 Y20.2195 
X-10.6203 Y20.1612 
X-10.7884 Y20.0755 
X-10.9411 Y19.9645 
X-11.0745 Y19.8311 
X-11.1855 Y19.6784 
X-11.2712 Y19.5103 
X-11.3295 Y19.3308 
X-11.3590 Y19.1444 
Y17.7090 
X-20.3910 
Y20.3910 
X-17.6856 
X-17.4992 Y20.4205 
X-17.3197 Y20.4788 
X-17.1516 Y20.5645 
X-16.9989 Y20.6755 
X-16.8655 Y20.8089 
X-16.7545 Y20.9616 
X-16.6688 Y21.1297 
X-16.6105 Y21.3092 
X-16.5810 Y21.4956 
Y22.9544 
X-16.6105 Y23.1408 
X-16.6688 Y23.3203 
X-16.7545 Y23.4884 
X-16.8350 Y23.5992 
Y24.1708 
X-16.8561 Y24.2497 
X-16.8969 Y24.3203 
X-16.9547 Y24.3781 
X-17.0253 Y24.4189 
X-17.1042 Y24.4400 
X-18.4558 
X-18.5347 Y24.4189 
X-18.6053 Y24.3781 
X-18.6631 Y24.3203 
X-18.7039 Y24.2497 
X-18.7250 Y24.1708 
Y24.0590 
X-20.3910 
Y30.5744 
X-20.4205 Y30.7608 
X-20.4788 Y30.9403 
X-20.5645 Y31.1084 
X-20.6755 Y31.2611 
X-20.8089 Y31.3945 
X-20.9616 Y31.5055 
X-21.1297 Y31.5912 
X-21.3092 Y31.6495 
X-21.4956 Y31.6790 
X-21.6844 
X-21.8708 Y31.6495 
X-22.0503 Y31.5912 
X-22.2184 Y31.5055 
X-22.3711 Y31.3945 
X-22.5045 Y31.2611 
X-22.6155 Y31.1084 
X-22.7012 Y30.9403 
X-22.7595 Y30.7608 
X-22.7890 Y30.5744 
Y1.1756 
X-22.7595 Y0.9892 
X-22.7012 Y0.8097 
X-22.6155 Y0.6416 
X-22.5045 Y0.4889 
X-22.3711 Y0.3555 
X-22.2184 Y0.2445 
X-22.0503 Y0.1588 
X-21.8708 Y0.1005 
X-21.6844 Y0.0710 
X-6.2556 
X-6.0692 Y0.1005 
X-5.8897 Y0.1588 
X-5.7216 Y0.2445 
X-5.5689 Y0.3555 
X-5.4355 Y0.4889 
X-5.3245 Y0.6416 
X-5.2388 Y0.8097 
X-5.1805 Y0.9892 
X-5.1510 Y1.1756 
Y2.6110 
X-3.7156 
X-3.5292 Y2.6405 
X-3.3497 Y2.6988 
X-3.1816 Y2.7845 
X-3.0289 Y2.8955 
X-2.8955 Y3.0289 
G00 Z1.0000 
G00 X-2.8955 Y8.1089 
G01 Z-0.1500 F254.00 
G01 X-2.7845 Y8.2616 F508.00 
G01 X-2.6988 Y8.4297 
X-2.6405 Y8.6092 
X-2.6110 Y8.7956 
Y8.9844 
X-2.6405 Y9.1708 
X-2.6988 Y9.3503 
X-2.7845 Y9.5184 
X-2.8955 Y9.6711 
X-3.0289 Y9.8045 
X-3.1816 Y9.9155 
X-3.3497 Y10.0012 
X-3.5292 Y10.0595 
X-3.7156 Y10.0890 
X-10.2544 
X-10.4408 Y10.0595 
X-10.6203 Y10.0012 
X-10.7884 Y9.9155 
X-10.9411 Y9.8045 
X-11.0745 Y9.6711 
X-13.4811 Y7.2645 
X-14.4666 Y6.2790 
X-17.7085 
X-17.7312 Y6.2817 
X-17.8028 Y6.2790 
X-17.8510 
Y14.0644 
X-17.8805 Y14.2508 
X-17.9388 Y14.4303 
X-18.0245 Y14.5984 
X-18.1355 Y14.7511 
X-18.2689 Y14.8845 
X-18.4216 Y14.9955 
X-18.5897 Y15.0812 
X-18.7692 Y15.1395 
X-18.9556 Y15.1690 
X-19.1444 
X-19.3308 Y15.1395 
X-19.5103 Y15.0812 
X-19.6784 Y14.9955 
X-19.8311 Y14.8845 
X-19.9645 Y14.7511 
X-20.0755 Y14.5984 
X-20.1612 Y14.4303 
X-20.2195 Y14.2508 
X-20.2490 Y14.0644 
Y3.7156 
X-20.2195 Y3.5292 
X-20.1612 Y3.3497 
X-20.0755 Y3.1816 
X-19.9645 Y3.0289 
X-19.8311 Y2.8955 
X-19.6784 Y2.7845 
X-19.5103 Y2.6988 
X-19.3308 Y2.6405 
X-19.1444 Y2.6110 
X-18.9556 
X-16.6044 
X-12.6056 
X-12.4192 Y2.6405 
X-12.2397 Y2.6988 
X-12.0716 Y2.7845 
X-11.9189 Y2.8955 
X-11.7855 Y3.0289 
X-11.6745 Y3.1816 
X-11.5888 Y3.3497 
X-11.5305 Y3.5292 
X-11.5010 Y3.7156 
Y5.8534 
X-9.6634 Y7.6910 
X-3.7156 
X-3.5292 Y7.7205 
X-3.3497 Y7.7788 
X-3.1816 Y7.8645 
X-3.0289 Y7.9755 
X-2.8955 Y8.1089 
G00 Z1.0000 
G00 X-2.8955 Y10.6489 
G01 Z-0.1500 F254.00 
G01 X-2.7845 Y10.8016 F508.00 
G01 X-2.6988 Y10.9697 
X-2.6405 Y11.1492 
X-2.6110 Y11.3356 
Y11.5244 
X-2.6405 Y11.7108 
X-2.6988 Y11.8903 
X-2.7845 Y12.0584 
X-2.8955 Y12.2111 
X-3.0289 Y12.3445 
X-3.1816 Y12.4555 
X-3.3497 Y12.5412 
X-3.5292 Y12.5995 
X-3.7156 Y12.6290 
X-6.4444 
X-6.6308 Y12.5995 
X-6.8103 Y12.5412 
X-6.9784 Y12.4555 
X-7.1311 Y12.3445 
X-7.2645 Y12.2111 
X-7.3755 Y12.0584 
X-7.4612 Y11.8903 
X-7.5195 Y11.7108 
X-7.5490 Y11.5244 
Y11.3356 
X-7.5195 Y11.1492 
X-7.4612 Y10.9697 
X-7.3755 Y10.8016 
X-7.2645 Y10.6489 
X-7.1311 Y10.5155 
X-6.9784 Y10.4045 
X-6.8103 Y10.3188 
X-6.6308 Y10.2605 
X-6.4444 Y10.2310 
X-3.7156 
X-3.5292 Y10.2605 
X-3.3497 Y10.3188 
X-3.1816 Y10.4045 
X-3.0289 Y10.5155 
X-2.8955 Y10.6489 
G00 Z1.0000 
G00 X-2.8955 Y13.1889 
G01 Z-0.1500 F254.00 
G01 X-2.7845 Y13.3416 F508.00 
G01 X-2.6988 Y13.5097 
X-2.6405 Y13.6892 
X-2.6110 Y13.8756 
Y14.0644 
X-2.6405 Y14.2508 
X-2.6988 Y14.4303 
X-2.7845 Y14.5984 
X-2.8955 Y14.7511 
X-3.0289 Y14.8845 
X-3.1816 Y14.9955 
X-3.3497 Y15.0812 
X-3.5292 Y15.1395 
X-3.7156 Y15.1690 
X-6.4444 
X-6.6308 Y15.1395 
X-6.8103 Y15.0812 
X-6.9784 Y14.9955 
X-7.1311 Y14.8845 
X-7.2645 Y14.7511 
X-7.3755 Y14.5984 
X-7.4612 Y14.4303 
X-7.5195 Y14.2508 
X-7.5490 Y14.0644 
Y13.8756 
X-7.5195 Y13.6892 
X-7.4612 Y13.5097 
X-7.3755 Y13.3416 
X-7.2645 Y13.1889 
X-7.1311 Y13.0555 
X-6.9784 Y12.9445 
X-6.8103 Y12.8588 
X-6.6308 Y12.8005 
X-6.4444 Y12.7710 
X-3.7156 
X-3.5292 Y12.8005 
X-3.3497 Y12.8588 
X-3.1816 Y12.9445 
X-3.0289 Y13.0555 
X-2.8955 Y13.1889 
G00 Z1.0000 
G00 X-2.8955 Y15.7289 
G01 Z-0.1500 F254.00 
G01 X-2.7845 Y15.8816 F508.00 
G01 X-2.6988 Y16.0497 
X-2.6405 Y16.2292 
X-2.6110 Y16.4156 
Y18.9556 
Y21.6844 
X-2.6405 Y21.8708 
X-2.6988 Y22.0503 
X-2.7845 Y22.2184 
X-2.8955 Y22.3711 
X-3.0289 Y22.5045 
X-3.1816 Y22.6155 
X-3.3497 Y22.7012 
X-3.5292 Y22.7595 
X-3.7156 Y22.7890 
X-5.1744 
X-5.3608 Y22.7595 
X-5.5403 Y22.7012 
X-5.7084 Y22.6155 
X-5.8611 Y22.5045 
X-5.9945 Y22.3711 
X-6.1055 Y22.2184 
X-6.1912 Y22.0503 
X-6.2495 Y21.8708 
X-6.2790 Y21.6844 
Y18.9556 
X-6.2495 Y18.7692 
X-6.1912 Y18.5897 
X-6.1055 Y18.4216 
X-5.9945 Y18.2689 
X-5.8611 Y18.1355 
X-5.7084 Y18.0245 
X-5.5403 Y17.9388 
X-5.3608 Y17.8805 
X-5.1744 Y17.8510 
X-5.0090 
Y16.4156 
X-4.9795 Y16.2292 
X-4.9212 Y16.0497 
X-4.8355 Y15.8816 
X-4.7245 Y15.7289 
X-4.5911 Y15.5955 
X-4.4384 Y15.4845 
X-4.2703 Y15.3988 
X-4.0908 Y15.3405 
X-3.9044 Y15.3110 
X-3.7156 
X-3.5292 Y15.3405 
X-3.3497 Y15.3988 
X-3.1816 Y15.4845 
X-3.0289 Y15.5955 
X-2.8955 Y15.7289 
G00 Z1.0000 
G00 X-5.4355 Y15.7289 
G01 Z-0.1500 F254.00 
G01 X-5.3245 Y15.8816 F508.00 
G01 X-5.2388 Y16.0497 
X-5.1805 Y16.2292 
X-5.1510 Y16.4156 
Y16.6044 
X-5.1805 Y16.7908 
X-5.2388 Y16.9703 
X-5.3245 Y17.1384 
X-5.4355 Y17.2911 
X-5.5689 Y17.4245 
X-5.7216 Y17.5355 
X-5.8897 Y17.6212 
X-6.0692 Y17.6795 
X-6.2556 Y17.7090 
X-6.4210 
Y21.6844 
X-6.4505 Y21.8708 
X-6.5088 Y22.0503 
X-6.5945 Y22.2184 
X-6.7055 Y22.3711 
X-6.8389 Y22.5045 
X-6.9916 Y22.6155 
X-7.1597 Y22.7012 
X-7.3392 Y22.7595 
X-7.5256 Y22.7890 
X-7.7144 
X-7.9008 Y22.7595 
X-8.0803 Y22.7012 
X-8.2484 Y22.6155 
X-8.4011 Y22.5045 
X-8.5345 Y22.3711 
X-8.6455 Y22.2184 
X-8.7312 Y22.0503 
X-8.7895 Y21.8708 
X-8.8190 Y21.6844 
Y16.4156 
X-8.7895 Y16.2292 
X-8.7312 Y16.0497 
X-8.6455 Y15.8816 
X-8.5345 Y15.7289 
X-8.4011 Y15.5955 
X-8.2484 Y15.4845 
X-8.0803 Y15.3988 
X-7.9008 Y15.3405 
X-7.7144 Y15.3110 
X-6.2556 
X-6.0692 Y15.3405 
X-5.8897 Y15.3988 
X-5.7216 Y15.4845 
X-5.5689 Y15.5955 
X-5.4355 Y15.7289 
G00 Z1.0000 
G00 X-13.1889 Y14.8845 
G01 Z-0.1500 F254.00 
G01 X-13.3416 Y14.9955 F508.00 
G01 X-13.5097 Y15.0812 
X-13.6892 Y15.1395 
X-13.8756 Y15.1690 
X-16.6044 
X-16.7908 Y15.1395 
X-16.9703 Y15.0812 
X-17.1384 Y14.9955 
X-17.2911 Y14.8845 
X-17.4245 Y14.7511 
X-17.5355 Y14.5984 
X-17.6212 Y14.4303 
X-17.6795 Y14.2508 
X-17.7090 Y14.0644 
Y13.8756 
X-17.6795 Y13.6892 
X-17.6212 Y13.5097 
X-17.5355 Y13.3416 
X-17.4245 Y13.1889 
X-17.2911 Y13.0555 
X-17.1384 Y12.9445 
X-16.9703 Y12.8588 
X-16.7908 Y12.8005 
X-16.6044 Y12.7710 
X-13.8756 
X-13.6892 Y12.8005 
X-13.5097 Y12.8588 
X-13.3416 Y12.9445 
X-13.1889 Y13.0555 
X-13.0555 Y13.1889 
X-12.9445 Y13.3416 
X-12.8588 Y13.5097 
X-12.8005 Y13.6892 
X-12.7710 Y13.8756 
Y14.0644 
X-12.8005 Y14.2508 
X-12.8588 Y14.4303 
X-12.9445 Y14.5984 
X-13.0555 Y14.7511 
X-13.1889 Y14.8845 
G00 Z1.0000 
G00 X-13.1889 Y12.3445 
G01 Z-0.1500 F254.00 
G01 X-13.3416 Y12.4555 F508.00 
G01 X-13.5097 Y12.5412 
X-13.6892 Y12.5995 
X-13.8756 Y12.6290 
X-16.6044 
X-16.7908 Y12.5995 
X-16.9703 Y12.5412 
X-17.1384 Y12.4555 
X-17.2911 Y12.3445 
X-17.4245 Y12.2111 
X-17.5355 Y12.0584 
X-17.6212 Y11.8903 
X-17.6795 Y11.7108 
X-17.7090 Y11.5244 
Y11.3356 
X-17.6795 Y11.1492 
X-17.6212 Y10.9697 
X-17.5355 Y10.8016 
X-17.4245 Y10.6489 
X-17.2911 Y10.5155 
X-17.1384 Y10.4045 
X-16.9703 Y10.3188 
X-16.7908 Y10.2605 
X-16.6044 Y10.2310 
X-13.8756 
X-13.6892 Y10.2605 
X-13.5097 Y10.3188 
X-13.3416 Y10.4045 
X-13.1889 Y10.5155 
X-13.0555 Y10.6489 
X-12.9445 Y10.8016 
X-12.8588 Y10.9697 
X-12.8005 Y11.1492 
X-12.7710 Y11.3356 
Y11.5244 
X-12.8005 Y11.7108 
X-12.8588 Y11.8903 
X-12.9445 Y12.0584 
X-13.0555 Y12.2111 
X-13.1889 Y12.3445 
G00 Z1.0000 
G00 X-13.1889 Y9.8045 
G01 Z-0.1500 F254.00 
G01 X-13.2378 Y9.8401 F508.00 
G01 X-13.2846 Y9.8783 
X-13.3140 Y9.8954 
X-13.3416 Y9.9155 
X-13.3955 Y9.9429 
X-13.4476 Y9.9733 
X-13.4794 Y9.9857 
X-13.5097 Y10.0012 
X-13.5672 Y10.0198 
X-13.6235 Y10.0417 
X-13.6568 Y10.0489 
X-13.6892 Y10.0595 
X-13.7489 Y10.0689 
X-13.8080 Y10.0817 
X-13.8420 
X-13.8756 Y10.0890 
X-13.9361 
X-13.9964 Y10.0924 
X-14.0303 Y10.0890 
X-16.6044 
X-16.7908 Y10.0595 
X-16.9703 Y10.0012 
X-17.1384 Y9.9155 
X-17.2911 Y9.8045 
X-17.4245 Y9.6711 
X-17.5355 Y9.5184 
X-17.6212 Y9.3503 
X-17.6795 Y9.1708 
X-17.7090 Y8.9844 
Y8.6595 
X-17.7215 Y8.6128 
Y6.9312 
X-17.7004 Y6.8523 
X-17.6596 Y6.7817 
X-17.6018 Y6.7239 
X-17.5312 Y6.6831 
X-17.4523 Y6.6620 
X-17.2313 
X-17.1384 Y6.5945 
X-16.9703 Y6.5088 
X-16.7908 Y6.4505 
X-16.6044 Y6.4210 
X-16.4156 
X-16.2292 Y6.4505 
X-16.0497 Y6.5088 
X-15.8816 Y6.5945 
X-15.7887 Y6.6620 
X-15.5677 
X-15.4888 Y6.6831 
X-15.4182 Y6.7239 
X-15.3604 Y6.7817 
X-15.3196 Y6.8523 
X-15.2985 Y6.9312 
Y6.9952 
X-13.5421 Y7.7683 
X-13.5097 Y7.7788 
X-13.4559 Y7.8063 
X-13.4006 Y7.8306 
X-13.3720 Y7.8490 
X-13.3416 Y7.8645 
X-13.2927 Y7.9001 
X-13.2419 Y7.9327 
X-13.2165 Y7.9554 
X-13.1889 Y7.9755 
X-13.1462 Y8.0182 
X-13.1011 Y8.0584 
X-13.0795 Y8.0848 
X-13.0555 Y8.1089 
X-13.0199 Y8.1578 
X-12.9817 Y8.2046 
X-12.9646 Y8.2340 
X-12.9445 Y8.2616 
X-12.9171 Y8.3155 
X-12.8867 Y8.3676 
X-12.8743 Y8.3994 
X-12.8588 Y8.4297 
X-12.8402 Y8.4872 
X-12.8183 Y8.5435 
X-12.8111 Y8.5768 
X-12.8005 Y8.6092 
X-12.7911 Y8.6689 
X-12.7783 Y8.7280 
Y8.7620 
X-12.7710 Y8.7956 
Y8.8561 
X-12.7676 Y8.9164 
X-12.7710 Y8.9503 
Y8.9844 
X-12.7805 Y9.0440 
X-12.7865 Y9.1042 
X-12.7952 Y9.1371 
X-12.8005 Y9.1708 
X-12.8192 Y9.2282 
X-12.8346 Y9.2867 
X-12.8483 Y9.3179 
X-12.8588 Y9.3503 
X-12.8863 Y9.4041 
X-12.9106 Y9.4594 
X-12.9290 Y9.4880 
X-12.9445 Y9.5184 
X-12.9801 Y9.5673 
X-13.0127 Y9.6181 
X-13.0354 Y9.6435 
X-13.0555 Y9.6711 
X-13.0982 Y9.7138 
X-13.1384 Y9.7589 
X-13.1648 Y9.7805 
X-13.1889 Y9.8045 
G00 Z1.0000 
G00 X-12.6056 Y17.8510 
G01 Z-0.1500 F254.00 
G01 X-12.4192 Y17.8805 F508.00 
G01 X-12.2397 Y17.9388 
X-12.0716 Y18.0245 
X-11.9189 Y18.1355 
X-11.7855 Y18.2689 
X-11.6745 Y18.4216 
X-11.5888 Y18.5897 
X-11.5305 Y18.7692 
X-11.5010 Y18.9556 
Y22.9544 
X-11.5305 Y23.1408 
X-11.5888 Y23.3203 
X-11.6745 Y23.4884 
X-11.7550 Y23.5992 
Y24.1708 
X-11.7761 Y24.2497 
X-11.8169 Y24.3203 
X-11.8747 Y24.3781 
X-11.9453 Y24.4189 
X-12.0242 Y24.4400 
X-13.3758 
X-13.4547 Y24.4189 
X-13.5253 Y24.3781 
X-13.5831 Y24.3203 
X-13.6239 Y24.2497 
X-13.6450 Y24.1708 
Y23.5992 
X-13.7255 Y23.4884 
X-13.8112 Y23.3203 
X-13.8695 Y23.1408 
X-13.8990 Y22.9544 
Y20.2490 
X-14.0644 
X-14.2508 Y20.2195 
X-14.4303 Y20.1612 
X-14.5984 Y20.0755 
X-14.7511 Y19.9645 
X-14.8845 Y19.8311 
X-14.9955 Y19.6784 
X-15.0812 Y19.5103 
X-15.1395 Y19.3308 
X-15.1690 Y19.1444 
Y18.9556 
X-15.1395 Y18.7692 
X-15.0812 Y18.5897 
X-14.9955 Y18.4216 
X-14.8845 Y18.2689 
X-14.7511 Y18.1355 
X-14.5984 Y18.0245 
X-14.4303 Y17.9388 
X-14.2508 Y17.8805 
X-14.0644 Y17.8510 
X-12.6056 
G00 Z1.0000 
G00 X-15.5955 Y18.2689 
G01 Z-0.1500 F254.00 
G01 X-15.4845 Y18.4216 F508.00 
G01 X-15.3988 Y18.5897 
X-15.3405 Y18.7692 
X-15.3110 Y18.9556 
Y19.1444 
X-15.3405 Y19.3308 
X-15.3988 Y19.5103 
X-15.4845 Y19.6784 
X-15.5955 Y19.8311 
X-15.7289 Y19.9645 
X-15.8816 Y20.0755 
X-16.0497 Y20.1612 
X-16.2292 Y20.2195 
X-16.4156 Y20.2490 
X-19.1444 
X-19.3308 Y20.2195 
X-19.5103 Y20.1612 
X-19.6784 Y20.0755 
X-19.8311 Y19.9645 
X-19.9645 Y19.8311 
X-20.0755 Y19.6784 
X-20.1612 Y19.5103 
X-20.2195 Y19.3308 
X-20.2490 Y19.1444 
Y18.9556 
X-20.2195 Y18.7692 
X-20.1612 Y18.5897 
X-20.0755 Y18.4216 
X-19.9645 Y18.2689 
X-19.8311 Y18.1355 
X-19.6784 Y18.0245 
X-19.5103 Y17.9388 
X-19.3308 Y17.8805 
X-19.1444 Y17.8510 
X-16.4156 
X-16.2292 Y17.8805 
X-16.0497 Y17.9388 
X-15.8816 Y18.0245 
X-15.7289 Y18.1355 
X-15.5955 Y18.2689 
G00 Z1.0000 
G00 X-15.5208 Y20.4205 
G01 Z-0.1500 F254.00 
G01 X-15.3344 Y20.3910 F508.00 
G01 X-15.1456 Y20.3910 
X-14.9592 Y20.4205 
X-14.7797 Y20.4788 
X-14.6116 Y20.5645 
X-14.4589 Y20.6755 
X-14.3255 Y20.8089 
X-14.2145 Y20.9616 
X-14.1288 Y21.1297 
X-14.0705 Y21.3092 
X-14.0410 Y21.4956 
Y22.9544 
X-14.0705 Y23.1408 
X-14.1288 Y23.3203 
X-14.2145 Y23.4884 
X-14.2950 Y23.5992 
Y24.1708 
X-14.3161 Y24.2497 
X-14.3569 Y24.3203 
X-14.4147 Y24.3781 
X-14.4853 Y24.4189 
X-14.5642 Y24.4400 
X-15.9158 
X-15.9947 Y24.4189 
X-16.0653 Y24.3781 
X-16.1231 Y24.3203 
X-16.1639 Y24.2497 
X-16.1850 Y24.1708 
Y23.5992 
X-16.2655 Y23.4884 
X-16.3512 Y23.3203 
X-16.4095 Y23.1408 
X-16.4390 Y22.9544 
Y21.4956 
X-16.4095 Y21.3092 
X-16.3512 Y21.1297 
X-16.2655 Y20.9616 
X-16.1545 Y20.8089 
X-16.0211 Y20.6755 
X-15.8684 Y20.5645 
X-15.7003 Y20.4788 
X-15.5208 Y20.4205 
G00 Z1.0000 
G00 X-10.9853 Y21.3419 
G01 Z-0.1500 F254.00 
G01 X-10.9147 Y21.3011 F508.00 
G01 X-10.8358 Y21.2800 
X-9.4842 
X-9.4053 Y21.3011 
X-9.3347 Y21.3419 
X-9.2769 Y21.3997 
X-9.2361 Y21.4703 
X-9.2150 Y21.5492 
Y22.1208 
X-9.1345 Y22.2316 
X-9.0488 Y22.3997 
X-8.9905 Y22.5792 
X-8.9610 Y22.7656 
Y22.9310 
X-3.7156 
X-3.5292 Y22.9605 
X-3.3497 Y23.0188 
X-3.1816 Y23.1045 
X-3.0289 Y23.2155 
X-2.8955 Y23.3489 
X-2.7845 Y23.5016 
X-2.6988 Y23.6697 
X-2.6405 Y23.8492 
X-2.6110 Y24.0356 
Y24.2244 
Y27.8456 
Y28.0344 
X-2.6405 Y28.2208 
X-2.6988 Y28.4003 
X-2.7845 Y28.5684 
X-2.8955 Y28.7211 
X-3.0289 Y28.8545 
X-3.1816 Y28.9655 
X-3.3497 Y29.0512 
X-3.5292 Y29.1095 
X-3.7156 Y29.1390 
X-6.4444 
X-6.6308 Y29.1095 
X-6.8103 Y29.0512 
X-6.9784 Y28.9655 
X-7.1311 Y28.8545 
X-7.2645 Y28.7211 
X-7.3755 Y28.5684 
X-7.4612 Y28.4003 
X-7.5195 Y28.2208 
X-7.5490 Y28.0344 
Y25.3290 
X-10.2544 
X-10.4408 Y25.2995 
X-10.6203 Y25.2412 
X-10.7884 Y25.1555 
X-10.9411 Y25.0445 
X-11.0745 Y24.9111 
X-11.1855 Y24.7584 
X-11.2712 Y24.5903 
X-11.3295 Y24.4108 
X-11.3590 Y24.2244 
Y22.7656 
X-11.3295 Y22.5792 
X-11.2712 Y22.3997 
X-11.1855 Y22.2316 
X-11.1050 Y22.1208 
Y21.5492 
X-11.0839 Y21.4703 
X-11.0431 Y21.3997 
X-10.9853 Y21.3419 
G00 Z1.0000 
G82 X-3.8100 Y8.8900 Z-0.2500 F508.00 R1.0000 P0.000000
G82 X-6.3500 Y6.3500 
G82 X-6.3500 Y1.2700 
G82 X-16.5100 Y3.8100 
G82 X-16.5100 Y1.2700 
G82 X-21.5900 Y1.2700 
G82 X-3.8100 Y3.8100 
G82 X-21.5900 Y30.4800 
G82 X-13.9700 Y8.8900 
G82 X-13.9700 Y11.4300 
G82 X-13.9700 Y13.9700 
G82 X-13.9700 Y16.5100 
G82 X-6.3500 Y16.5100 
G82 X-6.3500 Y13.9700 
G82 X-6.3500 Y11.4300 
G82 X-6.3500 Y8.8900 
G82 X-12.7000 Y3.8100 
G82 X-11.4300 Y1.9050 
G82 X-10.1600 Y3.8100 
G82 X-3.8100 Y11.4300 
G82 X-16.5100 Y11.4300 
G82 X-16.5100 Y13.9700 
G82 X-3.8100 Y13.9700 
G82 X-3.8100 Y16.5100 
G82 X-16.5100 Y19.0500 
G82 X-13.9700 Y19.0500 
G82 X-5.0800 Y27.9400 
G82 X-10.1600 Y19.0500 
G82 X-5.0800 Y19.0500 
G82 X-15.2400 Y21.5900 
G82 X-7.6200 Y21.5900 
G82 X-19.0500 Y19.0500 
G82 X-19.0500 Y13.9700 
G82 X-1.2700 Y1.2700 
M05
M02
