(.../pcb-gcode-3.6.0.4/pcb-gcode.ulp)
(Copyright 2005 - 2012 by John Johnson)
(See readme.txt for licensing terms.)
(This file generated from the board:)
(.../attiny45-microcontrol-v2.1.brd)
(Current profile is .../pcb-gcode-3.6.0.4/profiles/emc.pp  )
(This file generated 11.06.13 20:59)
(Settings from pcb-machine.h)
(  Tool Size)
(0.3000 )
(Z Axis Settings)
(  High     Up        Down     Drill)
(1.0000 	1.0000 	-0.1700 	-0.2000 )
(spindle on time = 0.0000)
(milling depth = -0.1700)
(text depth = -0.1270)
(tool change at 12.7000 15.2400 25.4000 )
(feed rate xy = F250.00 )
(feed rate z  = F250.00 )
(Settings from pcb-defaults.h)
(isolate min = 0.0001)
(isolate max = 0.5080)
(isolate step = 0.1270)
(Generated bottom outlines, bottom drill, )
(Unit of measure: mm)
(Metric Mode)
G21
(Absolute Coordinates)
G90
G00 X0.0000 Y0.0000 
M03
G04 P0.000000
G00 Z1.0000 
G00 X-1.5449 Y35.4053 
G01 Z-0.1700 F250.00 
G01 X-1.4898 Y35.3824 F250.00 
G01 X-1.4476 Y35.3402 
G01 X-1.4247 Y35.2851 
G01 X-1.4247 Y33.2949 
G01 X-1.4476 Y33.2398 
G01 X-1.4898 Y33.1975 
G01 X-1.5449 Y33.1747 
G01 X-6.0751 Y33.1747 
G01 X-6.1302 Y33.1975 
G01 X-6.1724 Y33.2398 
G01 X-6.1953 Y33.2949 
G01 X-6.1953 Y35.2851 
G01 X-6.1724 Y35.3402 
G01 X-6.1302 Y35.3824 
G01 X-6.0751 Y35.4053 
G01 X-2.4522 Y35.4053 
G01 X-1.5449 Y35.4053 
G00 Z1.0000 
G00 X-3.5351 Y32.8653 
G01 Z-0.1700 F250.00 
G01 X-1.5449 Y32.8653 F250.00 
G01 X-1.4898 Y32.8424 
G01 X-1.4476 Y32.8002 
G01 X-1.4247 Y32.7451 
G01 X-1.4247 Y30.7549 
G01 X-1.4476 Y30.6998 
G01 X-1.4898 Y30.6576 
G01 X-1.5449 Y30.6347 
G01 X-9.0447 Y30.6347 
G01 X-9.0447 Y30.4371 
G01 X-8.9955 Y30.4167 
G01 X-8.9533 Y30.3745 
G01 X-8.9304 Y30.3194 
G01 X-8.9304 Y28.1006 
G01 X-8.9533 Y28.0455 
G01 X-8.9955 Y28.0033 
G01 X-9.0506 Y27.9804 
G01 X-11.2694 Y27.9804 
G01 X-11.3245 Y28.0033 
G01 X-11.3667 Y28.0455 
G01 X-11.3896 Y28.1006 
G01 X-11.3896 Y30.3194 
G01 X-11.3667 Y30.3745 
G01 X-11.3245 Y30.4167 
G01 X-11.2753 Y30.4371 
G01 X-11.2753 Y31.8378 
G01 X-11.2478 Y32.0112 
G01 X-11.1936 Y32.1781 
G01 X-11.1139 Y32.3345 
G01 X-11.0107 Y32.4766 
G01 X-10.8866 Y32.6007 
G01 X-10.7445 Y32.7039 
G01 X-10.5881 Y32.7836 
G01 X-10.4212 Y32.8378 
G01 X-10.2478 Y32.8653 
G01 X-3.5351 Y32.8653 
G00 Z1.0000 
G00 X-13.9067 Y6.2445 
G01 Z-0.1700 F250.00 
G01 X-13.8645 Y6.2867 F250.00 
G01 X-13.8094 Y6.3096 
G01 X-11.5906 Y6.3096 
G01 X-11.5355 Y6.2867 
G01 X-11.4932 Y6.2445 
G01 X-11.4704 Y6.1894 
G01 X-11.4704 Y3.9706 
G01 X-11.4932 Y3.9155 
G01 X-11.5355 Y3.8733 
G01 X-11.5906 Y3.8504 
G01 X-13.8094 Y3.8504 
G01 X-13.8645 Y3.8733 
G01 X-13.9067 Y3.9155 
G01 X-13.9271 Y3.9647 
G01 X-14.0129 Y3.9647 
G01 X-14.0333 Y3.9155 
G01 X-14.0755 Y3.8733 
G01 X-14.1306 Y3.8504 
G01 X-16.3494 Y3.8504 
G01 X-16.4045 Y3.8733 
G01 X-16.4467 Y3.9155 
G01 X-16.4696 Y3.9706 
G01 X-16.4696 Y6.1894 
G01 X-16.4467 Y6.2445 
G01 X-16.4045 Y6.2867 
G01 X-16.3494 Y6.3096 
G01 X-14.1306 Y6.3096 
G01 X-14.0755 Y6.2867 
G01 X-14.0333 Y6.2445 
G01 X-14.0129 Y6.1953 
G01 X-13.9271 Y6.1953 
G01 X-13.9067 Y6.2445 
G00 Z1.0000 
G00 X-7.5567 Y3.7045 
G01 Z-0.1700 F250.00 
G01 X-7.5145 Y3.7467 F250.00 
G01 X-7.4594 Y3.7696 
G01 X-5.2406 Y3.7696 
G01 X-5.1855 Y3.7467 
G01 X-5.1433 Y3.7045 
G01 X-5.1204 Y3.6494 
G01 X-5.1204 Y1.4306 
G01 X-5.1433 Y1.3755 
G01 X-5.1855 Y1.3333 
G01 X-5.2406 Y1.3104 
G01 X-7.4594 Y1.3104 
G01 X-7.5145 Y1.3333 
G01 X-7.5567 Y1.3755 
G01 X-7.5771 Y1.4247 
G01 X-29.2978 Y1.4247 
G01 X-29.4712 Y1.4522 
G01 X-29.6381 Y1.5064 
G01 X-29.7945 Y1.5861 
G01 X-29.9366 Y1.6893 
G01 X-30.0607 Y1.8134 
G01 X-30.1639 Y1.9555 
G01 X-30.2436 Y2.1119 
G01 X-30.2978 Y2.2788 
G01 X-30.3253 Y2.4522 
G01 X-30.3253 Y34.3778 
G01 X-30.2978 Y34.5512 
G01 X-30.2436 Y34.7181 
G01 X-30.1639 Y34.8745 
G01 X-30.0607 Y35.0166 
G01 X-29.9366 Y35.1407 
G01 X-29.7945 Y35.2439 
G01 X-29.6381 Y35.3236 
G01 X-29.4712 Y35.3778 
G01 X-29.2978 Y35.4053 
G01 X-21.5471 Y35.4053 
G01 X-21.5267 Y35.4545 
G01 X-21.4845 Y35.4967 
G01 X-21.4294 Y35.5196 
G01 X-19.2106 Y35.5196 
G01 X-19.1555 Y35.4967 
G01 X-19.1133 Y35.4545 
G01 X-19.0929 Y35.4053 
G01 X-15.1971 Y35.4053 
G01 X-15.1767 Y35.4545 
G01 X-15.1345 Y35.4967 
G01 X-15.0794 Y35.5196 
G01 X-12.8606 Y35.5196 
G01 X-12.8055 Y35.4967 
G01 X-12.7633 Y35.4545 
G01 X-12.7429 Y35.4053 
G01 X-11.3871 Y35.4053 
G01 X-11.3667 Y35.4545 
G01 X-11.3245 Y35.4967 
G01 X-11.2694 Y35.5196 
G01 X-9.0506 Y35.5196 
G01 X-8.9955 Y35.4967 
G01 X-8.9533 Y35.4545 
G01 X-8.9329 Y35.4053 
G01 X-6.6249 Y35.4053 
G01 X-6.5698 Y35.3824 
G01 X-6.5276 Y35.3402 
G01 X-6.5047 Y35.2851 
G01 X-6.5047 Y33.2949 
G01 X-6.5276 Y33.2398 
G01 X-6.5698 Y33.1975 
G01 X-6.6249 Y33.1747 
G01 X-8.9329 Y33.1747 
G01 X-8.9533 Y33.1255 
G01 X-8.9955 Y33.0832 
G01 X-9.0506 Y33.0604 
G01 X-11.2694 Y33.0604 
G01 X-11.3245 Y33.0832 
G01 X-11.3667 Y33.1255 
G01 X-11.3871 Y33.1747 
G01 X-12.7429 Y33.1747 
G01 X-12.7633 Y33.1255 
G01 X-12.8055 Y33.0832 
G01 X-12.8606 Y33.0604 
G01 X-15.0794 Y33.0604 
G01 X-15.1345 Y33.0832 
G01 X-15.1767 Y33.1255 
G01 X-15.1971 Y33.1747 
G01 X-19.0929 Y33.1747 
G01 X-19.1133 Y33.1255 
G01 X-19.1555 Y33.0832 
G01 X-19.2106 Y33.0604 
G01 X-21.4294 Y33.0604 
G01 X-21.4845 Y33.0832 
G01 X-21.5267 Y33.1255 
G01 X-21.5471 Y33.1747 
G01 X-28.0947 Y33.1747 
G01 X-28.0947 Y15.0853 
G01 X-21.8649 Y15.0853 
G01 X-21.8098 Y15.0624 
G01 X-21.7675 Y15.0202 
G01 X-21.7447 Y14.9651 
G01 X-21.7447 Y9.1649 
G01 X-21.7675 Y9.1098 
G01 X-21.8098 Y9.0676 
G01 X-21.8649 Y9.0447 
G01 X-23.8551 Y9.0447 
G01 X-23.9102 Y9.0676 
G01 X-23.9524 Y9.1098 
G01 X-23.9753 Y9.1649 
G01 X-23.9753 Y12.8547 
G01 X-28.0947 Y12.8547 
G01 X-28.0947 Y3.6553 
G01 X-11.2753 Y3.6553 
G01 X-11.2753 Y10.2208 
G01 X-11.3118 Y10.2360 
G01 X-11.3540 Y10.2782 
G01 X-11.3769 Y10.3333 
G01 X-11.3769 Y12.5267 
G01 X-11.3540 Y12.5818 
G01 X-11.3118 Y12.6240 
G01 X-11.2567 Y12.6469 
G01 X-9.0633 Y12.6469 
G01 X-9.0082 Y12.6240 
G01 X-8.9660 Y12.5818 
G01 X-8.9431 Y12.5267 
G01 X-8.9431 Y10.3333 
G01 X-8.9660 Y10.2782 
G01 X-9.0082 Y10.2360 
G01 X-9.0447 Y10.2208 
G01 X-9.0447 Y3.6553 
G01 X-7.5771 Y3.6553 
G01 X-7.5567 Y3.7045 
G00 Z1.0000 
G00 X-21.4353 Y25.1251 
G01 Z-0.1700 F250.00 
G01 X-21.4124 Y25.1802 F250.00 
G01 X-21.3702 Y25.2224 
G01 X-21.3151 Y25.2453 
G01 X-19.3249 Y25.2453 
G01 X-19.2698 Y25.2224 
G01 X-19.2276 Y25.1802 
G01 X-19.2047 Y25.1251 
G01 X-19.2047 Y20.1653 
G01 X-13.8153 Y20.1653 
G01 X-13.8153 Y21.6778 
G01 X-13.7878 Y21.8512 
G01 X-13.7336 Y22.0181 
G01 X-13.6539 Y22.1745 
G01 X-13.5507 Y22.3166 
G01 X-13.4266 Y22.4407 
G01 X-13.2845 Y22.5439 
G01 X-13.1281 Y22.6236 
G01 X-12.9612 Y22.6778 
G01 X-12.7878 Y22.7053 
G01 X-7.5322 Y22.7053 
G01 X-7.3588 Y22.6778 
G01 X-7.1919 Y22.6236 
G01 X-7.0355 Y22.5439 
G01 X-6.8934 Y22.4407 
G01 X-6.7693 Y22.3166 
G01 X-6.6661 Y22.1745 
G01 X-6.5864 Y22.0181 
G01 X-6.5322 Y21.8512 
G01 X-6.5047 Y21.6778 
G01 X-6.5047 Y17.7192 
G01 X-6.4682 Y17.7040 
G01 X-6.4260 Y17.6618 
G01 X-6.4031 Y17.6067 
G01 X-6.4031 Y15.4133 
G01 X-6.4260 Y15.3582 
G01 X-6.4682 Y15.3160 
G01 X-6.5233 Y15.2931 
G01 X-8.7167 Y15.2931 
G01 X-8.7718 Y15.3160 
G01 X-8.8140 Y15.3582 
G01 X-8.8369 Y15.4133 
G01 X-8.8369 Y17.6067 
G01 X-8.8140 Y17.6618 
G01 X-8.7718 Y17.7040 
G01 X-8.7353 Y17.7192 
G01 X-8.7353 Y20.4747 
G01 X-11.5847 Y20.4747 
G01 X-11.5847 Y18.9622 
G01 X-11.6122 Y18.7888 
G01 X-11.6664 Y18.6219 
G01 X-11.7461 Y18.4655 
G01 X-11.8493 Y18.3234 
G01 X-11.9734 Y18.1993 
G01 X-12.1155 Y18.0961 
G01 X-12.2719 Y18.0164 
G01 X-12.4388 Y17.9622 
G01 X-12.6122 Y17.9347 
G01 X-20.4078 Y17.9347 
G01 X-20.5812 Y17.9622 
G01 X-20.7481 Y18.0164 
G01 X-20.9045 Y18.0961 
G01 X-21.0466 Y18.1993 
G01 X-21.1707 Y18.3234 
G01 X-21.2739 Y18.4655 
G01 X-21.3536 Y18.6219 
G01 X-21.4078 Y18.7888 
G01 X-21.4353 Y18.9622 
G01 X-21.4353 Y24.2178 
G01 X-21.4353 Y25.1251 
G00 Z1.0000 
G00 X-23.9753 Y25.1251 
G01 Z-0.1700 F250.00 
G01 X-23.9524 Y25.1802 F250.00 
G01 X-23.9102 Y25.2224 
G01 X-23.8551 Y25.2453 
G01 X-21.8649 Y25.2453 
G01 X-21.8098 Y25.2224 
G01 X-21.7675 Y25.1802 
G01 X-21.7447 Y25.1251 
G01 X-21.7447 Y17.6253 
G01 X-12.6122 Y17.6253 
G01 X-12.4388 Y17.5978 
G01 X-12.2719 Y17.5436 
G01 X-12.1155 Y17.4639 
G01 X-11.9734 Y17.3607 
G01 X-11.8493 Y17.2366 
G01 X-11.7461 Y17.0945 
G01 X-11.6664 Y16.9381 
G01 X-11.6122 Y16.7712 
G01 X-11.5847 Y16.5978 
G01 X-11.5847 Y15.0853 
G01 X-11.3692 Y15.0853 
G01 X-11.3540 Y15.1218 
G01 X-11.3118 Y15.1640 
G01 X-11.2567 Y15.1869 
G01 X-9.0633 Y15.1869 
G01 X-9.0082 Y15.1640 
G01 X-8.9660 Y15.1218 
G01 X-8.9431 Y15.0667 
G01 X-8.9431 Y12.8733 
G01 X-8.9660 Y12.8182 
G01 X-9.0082 Y12.7759 
G01 X-9.0633 Y12.7531 
G01 X-11.2567 Y12.7531 
G01 X-11.3118 Y12.7759 
G01 X-11.3540 Y12.8182 
G01 X-11.3692 Y12.8547 
G01 X-12.7878 Y12.8547 
G01 X-12.9612 Y12.8822 
G01 X-13.1281 Y12.9364 
G01 X-13.2845 Y13.0161 
G01 X-13.4266 Y13.1193 
G01 X-13.5507 Y13.2434 
G01 X-13.6539 Y13.3855 
G01 X-13.7336 Y13.5419 
G01 X-13.7878 Y13.7088 
G01 X-13.8153 Y13.8822 
G01 X-13.8153 Y15.3947 
G01 X-22.9478 Y15.3947 
G01 X-23.1212 Y15.4222 
G01 X-23.2881 Y15.4764 
G01 X-23.4445 Y15.5561 
G01 X-23.5866 Y15.6593 
G01 X-23.7107 Y15.7834 
G01 X-23.8139 Y15.9255 
G01 X-23.8936 Y16.0819 
G01 X-23.9478 Y16.2488 
G01 X-23.9753 Y16.4222 
G01 X-23.9753 Y24.2178 
G01 X-23.9753 Y25.1251 
G00 Z1.0000 
G00 X-21.8649 Y28.0947 
G01 Z-0.1700 F250.00 
G01 X-27.6651 Y28.0947 F250.00 
G01 X-27.7202 Y28.1176 
G01 X-27.7624 Y28.1598 
G01 X-27.7853 Y28.2149 
G01 X-27.7853 Y30.2051 
G01 X-27.7624 Y30.2602 
G01 X-27.7202 Y30.3024 
G01 X-27.6651 Y30.3253 
G01 X-21.8649 Y30.3253 
G01 X-21.8098 Y30.3024 
G01 X-21.7675 Y30.2602 
G01 X-21.7447 Y30.2051 
G01 X-21.7447 Y28.2149 
G01 X-21.7675 Y28.1598 
G01 X-21.8098 Y28.1176 
G01 X-21.8649 Y28.0947 
G00 Z1.0000 
G00 X-6.6249 Y23.0147 
G01 Z-0.1700 F250.00 
G01 X-12.7878 Y23.0147 F250.00 
G01 X-12.9612 Y23.0422 
G01 X-13.1281 Y23.0964 
G01 X-13.2845 Y23.1761 
G01 X-13.4266 Y23.2793 
G01 X-13.5507 Y23.4034 
G01 X-13.6539 Y23.5455 
G01 X-13.7336 Y23.7019 
G01 X-13.7878 Y23.8688 
G01 X-13.8153 Y24.0422 
G01 X-13.8153 Y24.2178 
G01 X-13.7878 Y24.3912 
G01 X-13.7336 Y24.5581 
G01 X-13.6539 Y24.7145 
G01 X-13.5507 Y24.8566 
G01 X-13.4266 Y24.9807 
G01 X-13.2845 Y25.0839 
G01 X-13.1281 Y25.1636 
G01 X-12.9612 Y25.2178 
G01 X-12.7878 Y25.2453 
G01 X-4.9922 Y25.2453 
G01 X-4.8188 Y25.2178 
G01 X-4.6519 Y25.1636 
G01 X-4.4955 Y25.0839 
G01 X-4.3534 Y24.9807 
G01 X-4.2293 Y24.8566 
G01 X-4.1261 Y24.7145 
G01 X-4.0464 Y24.5581 
G01 X-3.9922 Y24.3912 
G01 X-3.9647 Y24.2178 
G01 X-3.9647 Y13.8822 
G01 X-3.9922 Y13.7088 
G01 X-4.0464 Y13.5419 
G01 X-4.1261 Y13.3855 
G01 X-4.2293 Y13.2434 
G01 X-4.3534 Y13.1193 
G01 X-4.4955 Y13.0161 
G01 X-4.6519 Y12.9364 
G01 X-4.8188 Y12.8822 
G01 X-4.9922 Y12.8547 
G01 X-6.4108 Y12.8547 
G01 X-6.4260 Y12.8182 
G01 X-6.4682 Y12.7759 
G01 X-6.5233 Y12.7531 
G01 X-8.7167 Y12.7531 
G01 X-8.7718 Y12.7759 
G01 X-8.8140 Y12.8182 
G01 X-8.8369 Y12.8733 
G01 X-8.8369 Y15.0667 
G01 X-8.8140 Y15.1218 
G01 X-8.7718 Y15.1640 
G01 X-8.7167 Y15.1869 
G01 X-6.5233 Y15.1869 
G01 X-6.4682 Y15.1640 
G01 X-6.4260 Y15.1218 
G01 X-6.4108 Y15.0853 
G01 X-6.1953 Y15.0853 
G01 X-6.1953 Y23.0147 
G01 X-6.6249 Y23.0147 
G00 Z1.0000 
G00 X-6.6249 Y28.0947 
G01 Z-0.1700 F250.00 
G01 X-8.6151 Y28.0947 F250.00 
G01 X-8.6702 Y28.1176 
G01 X-8.7124 Y28.1598 
G01 X-8.7353 Y28.2149 
G01 X-8.7353 Y30.2051 
G01 X-8.7124 Y30.2602 
G01 X-8.6702 Y30.3024 
G01 X-8.6151 Y30.3253 
G01 X-4.0849 Y30.3253 
G01 X-4.0298 Y30.3024 
G01 X-3.9876 Y30.2602 
G01 X-3.9647 Y30.2051 
G01 X-3.9647 Y28.2149 
G01 X-3.9876 Y28.1598 
G01 X-4.0298 Y28.1176 
G01 X-4.0849 Y28.0947 
G01 X-6.6249 Y28.0947 
G00 Z1.0000 
G00 X-16.6647 Y30.2051 
G01 Z-0.1700 F250.00 
G01 X-16.6647 Y28.2149 F250.00 
G01 X-16.6876 Y28.1598 
G01 X-16.7298 Y28.1176 
G01 X-16.7849 Y28.0947 
G01 X-21.3151 Y28.0947 
G01 X-21.3702 Y28.1176 
G01 X-21.4124 Y28.1598 
G01 X-21.4353 Y28.2149 
G01 X-21.4353 Y30.2051 
G01 X-21.4124 Y30.2602 
G01 X-21.3702 Y30.3024 
G01 X-21.3151 Y30.3253 
G01 X-16.7849 Y30.3253 
G01 X-16.7298 Y30.3024 
G01 X-16.6876 Y30.2602 
G01 X-16.6647 Y30.2051 
G00 Z1.0000 
G00 X-16.7849 Y30.6347 
G01 Z-0.1700 F250.00 
G01 X-18.7751 Y30.6347 F250.00 
G01 X-18.8302 Y30.6576 
G01 X-18.8724 Y30.6998 
G01 X-18.8953 Y30.7549 
G01 X-18.8953 Y32.7451 
G01 X-18.8724 Y32.8002 
G01 X-18.8302 Y32.8424 
G01 X-18.7751 Y32.8653 
G01 X-13.8822 Y32.8653 
G01 X-13.7088 Y32.8378 
G01 X-13.5419 Y32.7836 
G01 X-13.3855 Y32.7039 
G01 X-13.2434 Y32.6007 
G01 X-13.1193 Y32.4766 
G01 X-13.0161 Y32.3345 
G01 X-12.9364 Y32.1781 
G01 X-12.8822 Y32.0112 
G01 X-12.8547 Y31.8378 
G01 X-12.8547 Y30.4371 
G01 X-12.8055 Y30.4167 
G01 X-12.7633 Y30.3745 
G01 X-12.7404 Y30.3194 
G01 X-12.7404 Y28.1006 
G01 X-12.7633 Y28.0455 
G01 X-12.8055 Y28.0033 
G01 X-12.8606 Y27.9804 
G01 X-15.0794 Y27.9804 
G01 X-15.1345 Y28.0033 
G01 X-15.1767 Y28.0455 
G01 X-15.1996 Y28.1006 
G01 X-15.1996 Y30.3194 
G01 X-15.1767 Y30.3745 
G01 X-15.1345 Y30.4167 
G01 X-15.0853 Y30.4371 
G01 X-15.0853 Y30.6347 
G01 X-16.7849 Y30.6347 
G00 Z1.0000 
G00 X-25.6749 Y30.6347 
G01 Z-0.1700 F250.00 
G01 X-27.6651 Y30.6347 F250.00 
G01 X-27.7202 Y30.6576 
G01 X-27.7624 Y30.6998 
G01 X-27.7853 Y30.7549 
G01 X-27.7853 Y32.7451 
G01 X-27.7624 Y32.8002 
G01 X-27.7202 Y32.8424 
G01 X-27.6651 Y32.8653 
G01 X-24.0871 Y32.8653 
G01 X-24.0667 Y32.9145 
G01 X-24.0245 Y32.9567 
G01 X-23.9694 Y32.9796 
G01 X-21.7506 Y32.9796 
G01 X-21.6955 Y32.9567 
G01 X-21.6532 Y32.9145 
G01 X-21.6304 Y32.8594 
G01 X-21.6304 Y30.6406 
G01 X-21.6532 Y30.5855 
G01 X-21.6955 Y30.5433 
G01 X-21.7506 Y30.5204 
G01 X-23.9694 Y30.5204 
G01 X-24.0245 Y30.5433 
G01 X-24.0667 Y30.5855 
G01 X-24.0871 Y30.6347 
G01 X-25.6749 Y30.6347 
G00 Z1.0000 
G00 X-27.6651 Y10.0053 
G01 Z-0.1700 F250.00 
G01 X-25.6749 Y10.0053 F250.00 
G01 X-25.6198 Y9.9824 
G01 X-25.5776 Y9.9402 
G01 X-25.5547 Y9.8851 
G01 X-25.5547 Y6.3071 
G01 X-25.5055 Y6.2867 
G01 X-25.4633 Y6.2445 
G01 X-25.4429 Y6.1953 
G01 X-21.4353 Y6.1953 
G01 X-21.4353 Y14.9651 
G01 X-21.4124 Y15.0202 
G01 X-21.3702 Y15.0624 
G01 X-21.3151 Y15.0853 
G01 X-19.3249 Y15.0853 
G01 X-19.2698 Y15.0624 
G01 X-19.2276 Y15.0202 
G01 X-19.2047 Y14.9651 
G01 X-19.2047 Y4.9922 
G01 X-19.2322 Y4.8188 
G01 X-19.2864 Y4.6519 
G01 X-19.3661 Y4.4955 
G01 X-19.4693 Y4.3534 
G01 X-19.5934 Y4.2293 
G01 X-19.7355 Y4.1261 
G01 X-19.8919 Y4.0464 
G01 X-20.0588 Y3.9922 
G01 X-20.2322 Y3.9647 
G01 X-25.4429 Y3.9647 
G01 X-25.4633 Y3.9155 
G01 X-25.5055 Y3.8733 
G01 X-25.5606 Y3.8504 
G01 X-27.7794 Y3.8504 
G01 X-27.8345 Y3.8733 
G01 X-27.8767 Y3.9155 
G01 X-27.8996 Y3.9706 
G01 X-27.8996 Y6.1894 
G01 X-27.8767 Y6.2445 
G01 X-27.8345 Y6.2867 
G01 X-27.7853 Y6.3071 
G01 X-27.7853 Y9.8851 
G01 X-27.7624 Y9.9402 
G01 X-27.7202 Y9.9824 
G01 X-27.6651 Y10.0053 
G00 Z1.0000 
G00 X-16.6647 Y4.0849 
G01 Z-0.1700 F250.00 
G01 X-16.6876 Y4.0298 F250.00 
G01 X-16.7298 Y3.9876 
G01 X-16.7849 Y3.9647 
G01 X-18.7751 Y3.9647 
G01 X-18.8302 Y3.9876 
G01 X-18.8724 Y4.0298 
G01 X-18.8953 Y4.0849 
G01 X-18.8953 Y14.9651 
G01 X-18.8724 Y15.0202 
G01 X-18.8302 Y15.0624 
G01 X-18.7751 Y15.0853 
G01 X-16.7849 Y15.0853 
G01 X-16.7298 Y15.0624 
G01 X-16.6876 Y15.0202 
G01 X-16.6647 Y14.9651 
G01 X-16.6647 Y4.9922 
G01 X-16.6647 Y4.0849 
G00 Z1.0000 
G00 X-9.0633 Y15.2931 
G01 Z-0.1700 F250.00 
G01 X-11.2567 Y15.2931 F250.00 
G01 X-11.3118 Y15.3160 
G01 X-11.3540 Y15.3582 
G01 X-11.3769 Y15.4133 
G01 X-11.3769 Y17.6067 
G01 X-11.3540 Y17.6618 
G01 X-11.3118 Y17.7040 
G01 X-11.2753 Y17.7192 
G01 X-11.2753 Y19.1378 
G01 X-11.2478 Y19.3112 
G01 X-11.1936 Y19.4781 
G01 X-11.1139 Y19.6345 
G01 X-11.0107 Y19.7766 
G01 X-10.8866 Y19.9007 
G01 X-10.7445 Y20.0039 
G01 X-10.5881 Y20.0836 
G01 X-10.4212 Y20.1378 
G01 X-10.2478 Y20.1653 
G01 X-10.0722 Y20.1653 
G01 X-9.8988 Y20.1378 
G01 X-9.7319 Y20.0836 
G01 X-9.5755 Y20.0039 
G01 X-9.4334 Y19.9007 
G01 X-9.3093 Y19.7766 
G01 X-9.2061 Y19.6345 
G01 X-9.1264 Y19.4781 
G01 X-9.0722 Y19.3112 
G01 X-9.0447 Y19.1378 
G01 X-9.0447 Y17.7192 
G01 X-9.0082 Y17.7040 
G01 X-8.9660 Y17.6618 
G01 X-8.9431 Y17.6067 
G01 X-8.9431 Y15.4133 
G01 X-8.9660 Y15.3582 
G01 X-9.0082 Y15.3160 
G01 X-9.0633 Y15.2931 
G00 Z1.0000 
G00 X-8.7718 Y10.2360 
G01 Z-0.1700 F250.00 
G01 X-8.8140 Y10.2782 F250.00 
G01 X-8.8369 Y10.3333 
G01 X-8.8369 Y12.5267 
G01 X-8.8140 Y12.5818 
G01 X-8.7718 Y12.6240 
G01 X-8.7167 Y12.6469 
G01 X-6.5233 Y12.6469 
G01 X-6.4682 Y12.6240 
G01 X-6.4260 Y12.5818 
G01 X-6.4108 Y12.5453 
G01 X-4.9922 Y12.5453 
G01 X-4.8188 Y12.5178 
G01 X-4.6519 Y12.4636 
G01 X-4.4955 Y12.3839 
G01 X-4.3534 Y12.2807 
G01 X-4.2293 Y12.1566 
G01 X-4.1261 Y12.0145 
G01 X-4.0464 Y11.8581 
G01 X-3.9922 Y11.6912 
G01 X-3.9647 Y11.5178 
G01 X-3.9647 Y7.8949 
G01 X-3.9876 Y7.8398 
G01 X-4.0298 Y7.7976 
G01 X-4.0849 Y7.7747 
G01 X-7.7078 Y7.7747 
G01 X-7.8812 Y7.8022 
G01 X-8.0481 Y7.8564 
G01 X-8.2045 Y7.9361 
G01 X-8.3466 Y8.0393 
G01 X-8.4707 Y8.1634 
G01 X-8.5739 Y8.3055 
G01 X-8.6536 Y8.4619 
G01 X-8.7078 Y8.6288 
G01 X-8.7353 Y8.8022 
G01 X-8.7353 Y10.2208 
G01 X-8.7718 Y10.2360 
G00 Z1.0000 
G00 X-27.7853 Y20.5949 
G01 Z-0.1700 F250.00 
G01 X-27.7853 Y27.6651 F250.00 
G01 X-27.7624 Y27.7202 
G01 X-27.7202 Y27.7624 
G01 X-27.6651 Y27.7853 
G01 X-2.4522 Y27.7853 
G01 X-2.2788 Y27.7578 
G01 X-2.1119 Y27.7036 
G01 X-1.9555 Y27.6239 
G01 X-1.8134 Y27.5207 
G01 X-1.6893 Y27.3966 
G01 X-1.5861 Y27.2545 
G01 X-1.5064 Y27.0981 
G01 X-1.4522 Y26.9312 
G01 X-1.4247 Y26.7578 
G01 X-1.4247 Y3.7671 
G01 X-1.3755 Y3.7467 
G01 X-1.3333 Y3.7045 
G01 X-1.3104 Y3.6494 
G01 X-1.3104 Y1.4306 
G01 X-1.3333 Y1.3755 
G01 X-1.3755 Y1.3333 
G01 X-1.4306 Y1.3104 
G01 X-3.6494 Y1.3104 
G01 X-3.7045 Y1.3333 
G01 X-3.7467 Y1.3755 
G01 X-3.7696 Y1.4306 
G01 X-3.7696 Y3.6494 
G01 X-3.7467 Y3.7045 
G01 X-3.7045 Y3.7467 
G01 X-3.6553 Y3.7671 
G01 X-3.6553 Y5.2347 
G01 X-8.6151 Y5.2347 
G01 X-8.6702 Y5.2576 
G01 X-8.7124 Y5.2998 
G01 X-8.7353 Y5.3549 
G01 X-8.7353 Y7.3451 
G01 X-8.7124 Y7.4002 
G01 X-8.6702 Y7.4424 
G01 X-8.6151 Y7.4653 
G01 X-3.6553 Y7.4653 
G01 X-3.6553 Y25.5547 
G01 X-14.3787 Y25.5547 
G01 X-14.3787 Y22.7053 
G01 X-14.2449 Y22.7053 
G01 X-14.1898 Y22.6824 
G01 X-14.1476 Y22.6402 
G01 X-14.1247 Y22.5851 
G01 X-14.1247 Y20.5949 
G01 X-14.1476 Y20.5398 
G01 X-14.1898 Y20.4976 
G01 X-14.2449 Y20.4747 
G01 X-16.2351 Y20.4747 
G01 X-16.2902 Y20.4976 
G01 X-16.3324 Y20.5398 
G01 X-16.3553 Y20.5949 
G01 X-16.3553 Y22.5851 
G01 X-16.3324 Y22.6402 
G01 X-16.2902 Y22.6824 
G01 X-16.2351 Y22.7053 
G01 X-16.1013 Y22.7053 
G01 X-16.1013 Y25.5547 
G01 X-25.5547 Y25.5547 
G01 X-25.5547 Y20.5949 
G01 X-25.5776 Y20.5398 
G01 X-25.6198 Y20.4976 
G01 X-25.6749 Y20.4747 
G01 X-27.6651 Y20.4747 
G01 X-27.7202 Y20.4976 
G01 X-27.7624 Y20.5398 
G01 X-27.7853 Y20.5949 
G00 Z1.0000 
G00 X-16.6647 Y20.5949 
G01 Z-0.1700 F250.00 
G01 X-16.6876 Y20.5398 F250.00 
G01 X-16.7298 Y20.4976 
G01 X-16.7849 Y20.4747 
G01 X-18.7751 Y20.4747 
G01 X-18.8302 Y20.4976 
G01 X-18.8724 Y20.5398 
G01 X-18.8953 Y20.5949 
G01 X-18.8953 Y24.2178 
G01 X-18.8678 Y24.3912 
G01 X-18.8136 Y24.5581 
G01 X-18.7339 Y24.7145 
G01 X-18.6307 Y24.8566 
G01 X-18.5066 Y24.9807 
G01 X-18.3645 Y25.0839 
G01 X-18.2081 Y25.1636 
G01 X-18.0412 Y25.2178 
G01 X-17.8678 Y25.2453 
G01 X-17.6922 Y25.2453 
G01 X-17.5188 Y25.2178 
G01 X-17.3519 Y25.1636 
G01 X-17.1955 Y25.0839 
G01 X-17.0534 Y24.9807 
G01 X-16.9293 Y24.8566 
G01 X-16.8261 Y24.7145 
G01 X-16.7464 Y24.5581 
G01 X-16.6922 Y24.3912 
G01 X-16.6647 Y24.2178 
G01 X-16.6647 Y21.5022 
G01 X-16.6647 Y20.5949 
G00 Z1.0000 
G00 X-16.2351 Y15.0853 
G01 Z-0.1700 F250.00 
G01 X-14.2449 Y15.0853 F250.00 
G01 X-14.1898 Y15.0624 
G01 X-14.1476 Y15.0202 
G01 X-14.1247 Y14.9651 
G01 X-14.1247 Y8.8022 
G01 X-14.1522 Y8.6288 
G01 X-14.2064 Y8.4619 
G01 X-14.2861 Y8.3055 
G01 X-14.3893 Y8.1634 
G01 X-14.5134 Y8.0393 
G01 X-14.6555 Y7.9361 
G01 X-14.8119 Y7.8564 
G01 X-14.9788 Y7.8022 
G01 X-15.1522 Y7.7747 
G01 X-15.3278 Y7.7747 
G01 X-15.5012 Y7.8022 
G01 X-15.6681 Y7.8564 
G01 X-15.8245 Y7.9361 
G01 X-15.9666 Y8.0393 
G01 X-16.0907 Y8.1634 
G01 X-16.1939 Y8.3055 
G01 X-16.2736 Y8.4619 
G01 X-16.3278 Y8.6288 
G01 X-16.3553 Y8.8022 
G01 X-16.3553 Y14.9651 
G01 X-16.3324 Y15.0202 
G01 X-16.2902 Y15.0624 
G01 X-16.2351 Y15.0853 
G00 Z1.0000 
G82 X-15.2400 Y8.8900 Z-0.2000 F250.00 R1.0000 P0.000000
G82 X-7.6200 Y8.8900 
G82 X-17.7800 Y24.1300 
G82 X-12.7000 Y24.1300 
G82 X-10.1600 Y19.0500 
G82 X-10.1600 Y26.6700 
G82 X-7.6200 Y6.3500 
G82 X-10.1600 Y6.3500 
G82 X-26.6700 Y21.5900 
G82 X-29.2100 Y21.5900 
G82 X-26.6700 Y8.8900 
G82 X-26.6700 Y13.9700 
G82 X-17.7800 Y10.1600 
G82 X-22.8600 Y10.1600 
G82 X-6.3500 Y2.5400 
G82 X-15.2400 Y13.9700 
G82 X-17.7800 Y13.9700 
G82 X-20.3200 Y13.9700 
G82 X-22.8600 Y13.9700 
G82 X-22.8600 Y21.5900 
G82 X-20.3200 Y21.5900 
G82 X-17.7800 Y21.5900 
G82 X-15.2400 Y21.5900 
G82 X-12.7000 Y5.0800 
G82 X-26.6700 Y5.0800 
G82 X-7.6200 Y16.5100 
G82 X-10.1600 Y16.5100 
G82 X-7.6200 Y13.9700 
G82 X-10.1600 Y13.9700 
G82 X-7.6200 Y11.4300 
G82 X-10.1600 Y11.4300 
G82 X-5.0800 Y34.2900 
G82 X-7.6200 Y34.2900 
G82 X-15.2400 Y5.0800 
G82 X-22.8600 Y31.7500 
G82 X-13.9700 Y29.2100 
G82 X-10.1600 Y29.2100 
G82 X-10.1600 Y34.2900 
G82 X-13.9700 Y34.2900 
G82 X-20.3200 Y34.2900 
G82 X-22.8600 Y5.0800 
G82 X-17.7800 Y5.0800 
G82 X-26.6700 Y29.2100 
G82 X-26.6700 Y26.6700 
G82 X-26.6700 Y31.7500 
G82 X-17.7800 Y29.2100 
G82 X-17.7800 Y26.6700 
G82 X-17.7800 Y31.7500 
G82 X-5.0800 Y29.2100 
G82 X-5.0800 Y26.6700 
G82 X-5.0800 Y31.7500 
G82 X-7.6200 Y29.2100 
G82 X-7.6200 Y24.1300 
G82 X-2.5400 Y8.8900 
G82 X-5.0800 Y8.8900 
G82 X-22.8600 Y29.2100 
G82 X-22.8600 Y24.1300 
G82 X-20.3200 Y29.2100 
G82 X-20.3200 Y24.1300 
G82 X-2.5400 Y31.7500 
G82 X-2.5400 Y34.2900 
G82 X-2.5400 Y2.5400 
M05
M02
