(/home/mst/.eagle/ulp/pcb-gcode.ulp)
(Copyright 2005 - 2012 by John Johnson)
(See readme.txt for licensing terms.)
(This file generated from the board:)
(.../attiny45-microcontrol-v4.0.brd)
(Current profile is .../mst/.eagle/ulp/profiles/emc.pp  )
(This file generated 19.07.15 20:52)
(Settings from pcb-machine.h)
(spindle on time = 1.0000)
(spindle speed = 20000.0000)
(tool change at 0.0000 0.0000 25.4000 )
(feed rate xy = F0.00  )
(feed rate z  = F508.00 )
(Z Axis Settings)
(  High     Up        Down     Drill)
(5.0000 	2.0000 	-0.1500 	-0.2000 )
(Settings from pcb-defaults.h)
(isolate min = 0.0254)
(isolate max = 0.5080)
(isolate step = 0.1270)
(Generated bottom outlines, bottom drill, )
(Unit of measure: mm)
( Tool|       Size       |  Min Sub |  Max Sub |   Count )
( T01 | 0.600mm 0.0236in | 0.0000in | 0.0000in |       0 )
( T02 | 0.813mm 0.0320in | 0.0000in | 0.0000in |       0 )
( T03 | 1.016mm 0.0400in | 0.0000in | 0.0000in |       0 )
(Metric Mode)
G21
(Absolute Coordinates)
G90
S20000
G00 Z5.0000 
G00 X0.0000 Y0.0000 
M03
G04 P1.000000
M05
G00 Z25.4000 
M06 T01 (0.6000 )
G00 Z2.0000 
M03
G04 P1.000000
G00 X-16.5100 Y25.4000 
G01 Z-0.2000 F508.00 
G00 Z2.0000 
G00 X-24.1300 Y25.4000 
G01 Z-0.2000 F508.00 
G00 Z2.0000 
G00 X-19.0500 Y35.5600 
G01 Z-0.2000 F508.00 
G00 Z2.0000 
G00 X-19.0500 Y43.1800 
G01 Z-0.2000 F508.00 
G00 Z2.0000 
M05
G00 Z25.4000 
G00 X0.0000 Y0.0000 
M06 T02 (0.8128 )
G00 Z2.0000 
M03
G04 P1.000000
G00 X-11.4300 Y25.4000 
G01 Z-0.2000 F508.00 
G00 Z2.0000 
G00 X-13.9700 Y25.4000 
G01 Z-0.2000 F508.00 
G00 Z2.0000 
G00 X-13.9700 Y21.5900 
G01 Z-0.2000 F508.00 
G00 Z2.0000 
G00 X-19.0500 Y21.5900 
G01 Z-0.2000 F508.00 
G00 Z2.0000 
G00 X-22.8600 Y17.1450 
G01 Z-0.2000 F508.00 
G00 Z2.0000 
G00 X-21.5900 Y15.2400 
G01 Z-0.2000 F508.00 
G00 Z2.0000 
G00 X-24.1300 Y15.2400 
G01 Z-0.2000 F508.00 
G00 Z2.0000 
G00 X-29.2100 Y13.9700 
G01 Z-0.2000 F508.00 
G00 Z2.0000 
G00 X-29.2100 Y16.5100 
G01 Z-0.2000 F508.00 
G00 Z2.0000 
G00 X-26.6700 Y21.5900 
G01 Z-0.2000 F508.00 
G00 Z2.0000 
G00 X-31.7500 Y21.5900 
G01 Z-0.2000 F508.00 
G00 Z2.0000 
G00 X-31.7500 Y26.6700 
G01 Z-0.2000 F508.00 
G00 Z2.0000 
G00 X-31.7500 Y30.4800 
G01 Z-0.2000 F508.00 
G00 Z2.0000 
G00 X-29.2100 Y30.4800 
G01 Z-0.2000 F508.00 
G00 Z2.0000 
G00 X-26.6700 Y30.4800 
G01 Z-0.2000 F508.00 
G00 Z2.0000 
G00 X-24.1300 Y30.4800 
G01 Z-0.2000 F508.00 
G00 Z2.0000 
G00 X-26.6700 Y26.6700 
G01 Z-0.2000 F508.00 
G00 Z2.0000 
G00 X-35.5600 Y25.4000 
G01 Z-0.2000 F508.00 
G00 Z2.0000 
G00 X-35.5600 Y30.4800 
G01 Z-0.2000 F508.00 
G00 Z2.0000 
G00 X-35.5600 Y36.8300 
G01 Z-0.2000 F508.00 
G00 Z2.0000 
G00 X-38.1000 Y36.8300 
G01 Z-0.2000 F508.00 
G00 Z2.0000 
G00 X-31.7500 Y38.1000 
G01 Z-0.2000 F508.00 
G00 Z2.0000 
G00 X-29.2100 Y38.1000 
G01 Z-0.2000 F508.00 
G00 Z2.0000 
G00 X-26.6700 Y38.1000 
G01 Z-0.2000 F508.00 
G00 Z2.0000 
G00 X-26.6700 Y40.6400 
G01 Z-0.2000 F508.00 
G00 Z2.0000 
G00 X-29.2100 Y40.6400 
G01 Z-0.2000 F508.00 
G00 Z2.0000 
G00 X-31.7500 Y40.6400 
G01 Z-0.2000 F508.00 
G00 Z2.0000 
G00 X-34.2900 Y45.7200 
G01 Z-0.2000 F508.00 
G00 Z2.0000 
G00 X-34.2900 Y48.2600 
G01 Z-0.2000 F508.00 
G00 Z2.0000 
G00 X-34.2900 Y50.8000 
G01 Z-0.2000 F508.00 
G00 Z2.0000 
G00 X-31.7500 Y48.2600 
G01 Z-0.2000 F508.00 
G00 Z2.0000 
G00 X-29.2100 Y48.2600 
G01 Z-0.2000 F508.00 
G00 Z2.0000 
G00 X-26.6700 Y48.2600 
G01 Z-0.2000 F508.00 
G00 Z2.0000 
G00 X-21.5900 Y48.2600 
G01 Z-0.2000 F508.00 
G00 Z2.0000 
G00 X-21.5900 Y45.7200 
G01 Z-0.2000 F508.00 
G00 Z2.0000 
G00 X-16.5100 Y45.7200 
G01 Z-0.2000 F508.00 
G00 Z2.0000 
G00 X-16.5100 Y48.2600 
G01 Z-0.2000 F508.00 
G00 Z2.0000 
G00 X-12.7000 Y48.2600 
G01 Z-0.2000 F508.00 
G00 Z2.0000 
G00 X-12.7000 Y50.8000 
G01 Z-0.2000 F508.00 
G00 Z2.0000 
G00 X-12.7000 Y45.7200 
G01 Z-0.2000 F508.00 
G00 Z2.0000 
G00 X-24.1300 Y38.1000 
G01 Z-0.2000 F508.00 
G00 Z2.0000 
G00 X-38.1000 Y45.7200 
G01 Z-0.2000 F508.00 
G00 Z2.0000 
G00 X-38.1000 Y48.2600 
G01 Z-0.2000 F508.00 
G00 Z2.0000 
G00 X-36.8300 Y19.0500 
G01 Z-0.2000 F508.00 
G00 Z2.0000 
G00 X-36.8300 Y13.9700 
G01 Z-0.2000 F508.00 
G00 Z2.0000 
M05
G00 Z25.4000 
G00 X0.0000 Y0.0000 
M06 T03 (1.0160 )
G00 Z2.0000 
M03
G04 P1.000000
G00 X-8.8900 Y17.7800 
G01 Z-0.2000 F508.00 
G00 Z2.0000 
G00 X-17.7800 Y17.7800 
G01 Z-0.2000 F508.00 
G00 Z2.0000 
G00 X-21.5900 Y21.5900 
G01 Z-0.2000 F508.00 
G00 Z2.0000 
G00 X-24.1300 Y21.5900 
G01 Z-0.2000 F508.00 
G00 Z2.0000 
G00 X-19.0500 Y27.9400 
G01 Z-0.2000 F508.00 
G00 Z2.0000 
G00 X-19.0500 Y30.4800 
G01 Z-0.2000 F508.00 
G00 Z2.0000 
G00 X-16.5100 Y30.4800 
G01 Z-0.2000 F508.00 
G00 Z2.0000 
G00 X-16.5100 Y27.9400 
G01 Z-0.2000 F508.00 
G00 Z2.0000 
G00 X-16.5100 Y33.0200 
G01 Z-0.2000 F508.00 
G00 Z2.0000 
G00 X-19.0500 Y33.0200 
G01 Z-0.2000 F508.00 
G00 Z2.0000 
G00 X-16.5100 Y50.8000 
G01 Z-0.2000 F508.00 
G00 Z2.0000 
G00 X-26.6700 Y53.3400 
G01 Z-0.2000 F508.00 
G00 Z2.0000 
G00 X-38.1000 Y53.3400 
G01 Z-0.2000 F508.00 
G00 Z2.0000 
G00 X-38.1000 Y50.8000 
G01 Z-0.2000 F508.00 
G00 Z2.0000 
G00 X-35.5600 Y21.5900 
G01 Z-0.2000 F508.00 
G00 Z2.0000 
T01 
G00 Z5.0000 
M05
M02
