(/home/mst/.eagle/ulp/pcb-gcode.ulp)
(Copyright 2005 - 2012 by John Johnson)
(See readme.txt for licensing terms.)
(This file generated from the board:)
(.../attiny45-microcontrol-v4.1-small.brd)
(Current profile is .../mst/.eagle/ulp/profiles/emc.pp  )
(This file generated 14.09.15 22:55)
(Settings from pcb-machine.h)
(spindle on time = 1.0000)
(  Tool Size)
(0.1778 )
(spindle speed = 30000.0000)
(tool change at 0.0000 0.0000 25.4000 )
(feed rate xy = F508.00 )
(feed rate z  = F254.00 )
(Z Axis Settings)
(  High     Up        Down     Drill)
(5.0000 	2.0000 	-0.1500 	-0.2000 )
(Settings from pcb-defaults.h)
(isolate min = 0.0254)
(isolate max = 0.5080)
(isolate step = 0.1270)
(Generated bottom outlines, )
(Unit of measure: mm)
(Metric Mode)
G21
(Absolute Coordinates)
G90
S30000
G00 Z5.0000 
G00 X0.0000 Y0.0000 
M03
G04 P1.000000
G00 Z2.0000 
G00 X-0.3497 Y0.4840 
G01 Z-0.1500 F254.00 
G01 X-0.2381 Y0.6377 F508.00 
G01 X-0.1519 Y0.8069 
X-0.0932 Y0.9875 
X-0.0635 Y1.1750 
Y34.2657 
X-0.0607 Y34.3362 
X-0.0635 Y34.3605 
Y38.1950 
X-0.0932 Y38.3825 
X-0.1519 Y38.5631 
X-0.2381 Y38.7323 
X-0.3497 Y38.8860 
X-0.4840 Y39.0203 
X-0.6377 Y39.1319 
X-0.8069 Y39.2181 
X-0.9875 Y39.2768 
X-1.1750 Y39.3065 
X-3.7857 
X-3.8562 Y39.3093 
X-3.8805 Y39.3065 
X-3.9050 
X-3.9747 Y39.2954 
X-4.0449 Y39.2872 
X-4.0684 Y39.2806 
X-4.0925 Y39.2768 
X-4.1597 Y39.2550 
X-4.2277 Y39.2359 
X-4.2499 Y39.2257 
X-4.2731 Y39.2181 
X-4.3360 Y39.1861 
X-4.4002 Y39.1565 
X-4.4206 Y39.1430 
X-4.4423 Y39.1319 
X-4.4995 Y39.0904 
X-4.5583 Y39.0512 
X-4.5762 Y39.0346 
X-4.5960 Y39.0203 
X-4.6460 Y38.9703 
X-4.6978 Y38.9224 
X-4.7130 Y38.9033 
X-4.7303 Y38.8860 
X-4.7718 Y38.8288 
X-4.8156 Y38.7734 
X-4.8275 Y38.7521 
X-4.8419 Y38.7323 
X-4.8740 Y38.6694 
X-4.9085 Y38.6078 
X-4.9170 Y38.5849 
X-4.9281 Y38.5631 
X-4.9499 Y38.4960 
X-4.9744 Y38.4297 
X-4.9792 Y38.4057 
X-4.9868 Y38.3825 
X-4.9978 Y38.3128 
X-5.0117 Y38.2435 
Y38.2191 
X-5.0165 Y38.1950 
Y38.1243 
X-5.0193 Y38.0538 
X-5.0165 Y38.0295 
Y34.1950 
X-4.9868 Y34.0075 
X-4.9281 Y33.8269 
X-4.8419 Y33.6577 
X-4.7303 Y33.5040 
X-4.5960 Y33.3697 
X-4.4423 Y33.2581 
X-4.2731 Y33.1719 
X-4.0925 Y33.1132 
X-3.9050 Y33.0835 
X-2.4765 
Y8.1197 
X-3.0398 Y7.5565 
X-8.9850 
X-9.1725 Y7.5268 
X-9.3531 Y7.4681 
X-9.5223 Y7.3819 
X-9.6760 Y7.2703 
X-9.8103 Y7.1360 
X-11.0803 Y5.8660 
X-11.1919 Y5.7123 
X-11.2781 Y5.5431 
X-11.3368 Y5.3625 
X-11.3665 Y5.1750 
Y3.7150 
X-11.3368 Y3.5275 
X-11.2781 Y3.3469 
X-11.1919 Y3.1777 
X-11.0803 Y3.0240 
X-10.9460 Y2.8897 
X-10.7923 Y2.7781 
X-10.6231 Y2.6919 
X-10.4425 Y2.6332 
X-10.2550 Y2.6035 
X-10.0650 
X-9.8775 Y2.6332 
X-9.6969 Y2.6919 
X-9.5277 Y2.7781 
X-9.3740 Y2.8897 
X-9.2397 Y3.0240 
X-9.1281 Y3.1777 
X-9.0419 Y3.3469 
X-8.9832 Y3.5275 
X-8.9535 Y3.7150 
Y4.5802 
X-8.3902 Y5.1435 
X-3.0398 
X-2.4765 Y4.5802 
Y3.0398 
X-3.0398 Y2.4765 
X-3.9050 
X-4.0925 Y2.4468 
X-4.2731 Y2.3881 
X-4.4423 Y2.3019 
X-4.5960 Y2.1903 
X-4.7303 Y2.0560 
X-4.8419 Y1.9023 
X-4.9281 Y1.7331 
X-4.9868 Y1.5525 
X-5.0165 Y1.3650 
Y1.1750 
X-4.9868 Y0.9875 
X-4.9281 Y0.8069 
X-4.8419 Y0.6377 
X-4.7303 Y0.4840 
X-4.5960 Y0.3497 
X-4.4423 Y0.2381 
X-4.2731 Y0.1519 
X-4.0925 Y0.0932 
X-3.9050 Y0.0635 
X-1.1750 
X-0.9875 Y0.0932 
X-0.8069 Y0.1519 
X-0.6377 Y0.2381 
X-0.4840 Y0.3497 
X-0.3497 Y0.4840 
G00 Z2.0000 
G00 X-2.8897 Y3.0240 
G01 Z-0.1500 F254.00 
G01 X-2.7781 Y3.1777 F508.00 
G01 X-2.6919 Y3.3469 
X-2.6332 Y3.5275 
X-2.6035 Y3.7150 
Y3.9050 
X-2.6332 Y4.0925 
X-2.6919 Y4.2731 
X-2.7781 Y4.4423 
X-2.8897 Y4.5960 
X-3.0240 Y4.7303 
X-3.1777 Y4.8419 
X-3.3469 Y4.9281 
X-3.5275 Y4.9868 
X-3.7150 Y5.0165 
X-7.7150 
X-7.9025 Y4.9868 
X-8.0831 Y4.9281 
X-8.2523 Y4.8419 
X-8.4060 Y4.7303 
X-8.5403 Y4.5960 
X-8.6519 Y4.4423 
X-8.7381 Y4.2731 
X-8.7968 Y4.0925 
X-8.8265 Y3.9050 
Y3.0398 
X-9.3897 Y2.4765 
X-10.5109 
X-10.6066 Y2.6082 
X-10.7268 Y2.7284 
X-10.8642 Y2.8283 
X-11.0156 Y2.9054 
X-11.1772 Y2.9579 
X-11.3450 Y2.9845 
X-11.5150 
X-11.6828 Y2.9579 
X-11.8444 Y2.9054 
X-11.9958 Y2.8283 
X-12.1332 Y2.7284 
X-12.2534 Y2.6082 
X-12.3491 Y2.4765 
X-17.8435 
Y15.3035 
X-13.8750 
X-13.6875 Y15.3332 
X-13.5069 Y15.3919 
X-13.3377 Y15.4781 
X-13.1840 Y15.5897 
X-13.0497 Y15.7240 
X-12.9381 Y15.8777 
X-12.8519 Y16.0469 
X-12.7932 Y16.2275 
X-12.7635 Y16.4150 
Y16.6050 
X-12.7932 Y16.7925 
X-12.8519 Y16.9731 
X-12.9381 Y17.1423 
X-13.0497 Y17.2960 
X-13.1840 Y17.4303 
X-13.3377 Y17.5419 
X-13.5069 Y17.6281 
X-13.6875 Y17.6868 
X-13.8750 Y17.7165 
X-17.8435 
Y22.9235 
X-15.1450 
X-14.9575 Y22.9532 
X-14.7769 Y23.0119 
X-14.6077 Y23.0981 
X-14.4540 Y23.2097 
X-14.3197 Y23.3440 
X-14.2081 Y23.4977 
X-14.1219 Y23.6669 
X-14.0632 Y23.8475 
X-14.0335 Y24.0350 
Y25.4635 
X-11.3350 
X-11.1475 Y25.4932 
X-10.9669 Y25.5519 
X-10.7977 Y25.6381 
X-10.6440 Y25.7497 
X-10.5097 Y25.8840 
X-10.3981 Y26.0377 
X-10.3119 Y26.2069 
X-10.2532 Y26.3875 
X-10.2235 Y26.5750 
Y27.4402 
X-9.6602 Y28.0035 
X-6.2550 
X-6.0675 Y28.0332 
X-5.8869 Y28.0919 
X-5.7177 Y28.1781 
X-5.5640 Y28.2897 
X-5.4297 Y28.4240 
X-5.3181 Y28.5777 
X-5.2319 Y28.7469 
X-5.1732 Y28.9275 
X-5.1435 Y29.1150 
Y29.3050 
X-5.1732 Y29.4925 
X-5.2319 Y29.6731 
X-5.3181 Y29.8423 
X-5.4297 Y29.9960 
X-5.5640 Y30.1303 
X-5.7177 Y30.2419 
X-5.8869 Y30.3281 
X-6.0675 Y30.3868 
X-6.2550 Y30.4165 
X-10.2550 
X-10.4425 Y30.3868 
X-10.6231 Y30.3281 
X-10.7923 Y30.2419 
X-10.9460 Y30.1303 
X-11.9297 Y29.1465 
X-17.8435 
Y34.3535 
X-15.1450 
X-14.9575 Y34.3832 
X-14.7769 Y34.4419 
X-14.6077 Y34.5281 
X-14.4540 Y34.6397 
X-14.3197 Y34.7740 
X-14.2081 Y34.9277 
X-14.1219 Y35.0969 
X-14.0632 Y35.2775 
X-14.0335 Y35.4650 
Y38.1950 
X-14.0632 Y38.3825 
X-14.1219 Y38.5631 
X-14.2081 Y38.7323 
X-14.3197 Y38.8860 
X-14.4540 Y39.0203 
X-14.6077 Y39.1319 
X-14.7769 Y39.2181 
X-14.9575 Y39.2768 
X-15.1450 Y39.3065 
X-19.1450 
X-19.3325 Y39.2768 
X-19.5131 Y39.2181 
X-19.6823 Y39.1319 
X-19.8360 Y39.0203 
X-19.9703 Y38.8860 
X-20.0819 Y38.7323 
X-20.1681 Y38.5631 
X-20.2268 Y38.3825 
X-20.2565 Y38.1950 
Y1.1750 
X-20.2268 Y0.9875 
X-20.1681 Y0.8069 
X-20.0819 Y0.6377 
X-19.9703 Y0.4840 
X-19.8360 Y0.3497 
X-19.6823 Y0.2381 
X-19.5131 Y0.1519 
X-19.3325 Y0.0932 
X-19.1450 Y0.0635 
X-8.7950 
X-6.4450 
X-6.2550 
X-6.0675 Y0.0932 
X-5.8869 Y0.1519 
X-5.7177 Y0.2381 
X-5.5640 Y0.3497 
X-5.4297 Y0.4840 
X-5.3181 Y0.6377 
X-5.2319 Y0.8069 
X-5.1732 Y0.9875 
X-5.1435 Y1.1750 
Y2.6035 
X-3.7150 
X-3.5275 Y2.6332 
X-3.3469 Y2.6919 
X-3.1777 Y2.7781 
X-3.0240 Y2.8897 
X-2.8897 Y3.0240 
G00 Z2.0000 
G00 X-2.8897 Y8.1040 
G01 Z-0.1500 F254.00 
G01 X-2.7781 Y8.2577 F508.00 
G01 X-2.6919 Y8.4269 
X-2.6332 Y8.6075 
X-2.6035 Y8.7950 
Y8.9850 
X-2.6332 Y9.1725 
X-2.6919 Y9.3531 
X-2.7781 Y9.5223 
X-2.8897 Y9.6760 
X-3.0240 Y9.8103 
X-3.1777 Y9.9219 
X-3.3469 Y10.0081 
X-3.5275 Y10.0668 
X-3.7150 Y10.0965 
X-6.2550 
X-10.2550 
X-10.4425 Y10.0668 
X-10.6231 Y10.0081 
X-10.7923 Y9.9219 
X-10.9460 Y9.8103 
X-11.0803 Y9.6760 
X-13.1997 Y7.5565 
X-16.6050 
X-16.7925 Y7.5268 
X-16.9731 Y7.4681 
X-17.1423 Y7.3819 
X-17.2960 Y7.2703 
X-17.4303 Y7.1360 
X-17.5419 Y6.9823 
X-17.6281 Y6.8131 
X-17.6868 Y6.6325 
X-17.7165 Y6.4450 
Y3.7150 
X-17.6868 Y3.5275 
X-17.6281 Y3.3469 
X-17.5419 Y3.1777 
X-17.4303 Y3.0240 
X-17.2960 Y2.8897 
X-17.1423 Y2.7781 
X-16.9731 Y2.6919 
X-16.7925 Y2.6332 
X-16.6050 Y2.6035 
X-12.6050 
X-12.4175 Y2.6332 
X-12.2369 Y2.6919 
X-12.0677 Y2.7781 
X-11.9140 Y2.8897 
X-11.7797 Y3.0240 
X-11.6681 Y3.1777 
X-11.5819 Y3.3469 
X-11.5232 Y3.5275 
X-11.4935 Y3.7150 
Y5.8502 
X-9.6602 Y7.6835 
X-3.7150 
X-3.5275 Y7.7132 
X-3.3469 Y7.7719 
X-3.1777 Y7.8581 
X-3.0240 Y7.9697 
X-2.8897 Y8.1040 
G00 Z2.0000 
G00 X-2.8897 Y10.6440 
G01 Z-0.1500 F254.00 
G01 X-2.7781 Y10.7977 F508.00 
G01 X-2.6919 Y10.9669 
X-2.6332 Y11.1475 
X-2.6035 Y11.3350 
Y11.5250 
X-2.6332 Y11.7125 
X-2.6919 Y11.8931 
X-2.7781 Y12.0623 
X-2.8897 Y12.2160 
X-3.0240 Y12.3503 
X-3.1777 Y12.4619 
X-3.3469 Y12.5481 
X-3.5275 Y12.6068 
X-3.7150 Y12.6365 
X-6.4450 
X-6.6325 Y12.6068 
X-6.8131 Y12.5481 
X-6.9823 Y12.4619 
X-7.1360 Y12.3503 
X-7.2703 Y12.2160 
X-7.3819 Y12.0623 
X-7.4681 Y11.8931 
X-7.5268 Y11.7125 
X-7.5565 Y11.5250 
Y11.3350 
X-7.5268 Y11.1475 
X-7.4681 Y10.9669 
X-7.3819 Y10.7977 
X-7.2703 Y10.6440 
X-7.1360 Y10.5097 
X-6.9823 Y10.3981 
X-6.8131 Y10.3119 
X-6.6325 Y10.2532 
X-6.4450 Y10.2235 
X-3.7150 
X-3.5275 Y10.2532 
X-3.3469 Y10.3119 
X-3.1777 Y10.3981 
X-3.0240 Y10.5097 
X-2.8897 Y10.6440 
G00 Z2.0000 
G00 X-2.8897 Y13.1840 
G01 Z-0.1500 F254.00 
G01 X-2.7781 Y13.3377 F508.00 
G01 X-2.6919 Y13.5069 
X-2.6332 Y13.6875 
X-2.6035 Y13.8750 
Y14.0650 
X-2.6332 Y14.2525 
X-2.6919 Y14.4331 
X-2.7781 Y14.6023 
X-2.8897 Y14.7560 
X-3.0240 Y14.8903 
X-3.1777 Y15.0019 
X-3.3469 Y15.0881 
X-3.5275 Y15.1468 
X-3.7150 Y15.1765 
X-6.4450 
X-6.6325 Y15.1468 
X-6.8131 Y15.0881 
X-6.9823 Y15.0019 
X-7.1360 Y14.8903 
X-7.2703 Y14.7560 
X-7.3819 Y14.6023 
X-7.4681 Y14.4331 
X-7.5268 Y14.2525 
X-7.5565 Y14.0650 
Y13.8750 
X-7.5268 Y13.6875 
X-7.4681 Y13.5069 
X-7.3819 Y13.3377 
X-7.2703 Y13.1840 
X-7.1360 Y13.0497 
X-6.9823 Y12.9381 
X-6.8131 Y12.8519 
X-6.6325 Y12.7932 
X-6.4450 Y12.7635 
X-3.7150 
X-3.5275 Y12.7932 
X-3.3469 Y12.8519 
X-3.1777 Y12.9381 
X-3.0240 Y13.0497 
X-2.8897 Y13.1840 
G00 Z2.0000 
G00 X-2.8897 Y15.7240 
G01 Z-0.1500 F254.00 
G01 X-2.7781 Y15.8777 F508.00 
G01 X-2.6919 Y16.0469 
X-2.6332 Y16.2275 
X-2.6035 Y16.4150 
Y22.9550 
X-2.6332 Y23.1425 
X-2.6919 Y23.3231 
X-2.7781 Y23.4923 
X-2.8897 Y23.6460 
X-3.0240 Y23.7803 
X-3.1777 Y23.8919 
X-3.3469 Y23.9781 
X-3.5275 Y24.0368 
X-3.7150 Y24.0665 
X-7.6835 
Y26.7650 
X-7.7132 Y26.9525 
X-7.7719 Y27.1331 
X-7.8581 Y27.3023 
X-7.9697 Y27.4560 
X-8.1040 Y27.5903 
X-8.2577 Y27.7019 
X-8.4269 Y27.7881 
X-8.6075 Y27.8468 
X-8.7950 Y27.8765 
X-8.9850 
X-9.1725 Y27.8468 
X-9.3531 Y27.7881 
X-9.5223 Y27.7019 
X-9.6760 Y27.5903 
X-9.8103 Y27.4560 
X-9.9219 Y27.3023 
X-10.0081 Y27.1331 
X-10.0668 Y26.9525 
X-10.0965 Y26.7650 
Y22.7650 
X-10.0668 Y22.5775 
X-10.0081 Y22.3969 
X-9.9219 Y22.2277 
X-9.8103 Y22.0740 
X-9.6760 Y21.9397 
X-9.5223 Y21.8281 
X-9.3531 Y21.7419 
X-9.1725 Y21.6832 
X-8.9850 Y21.6535 
X-5.0165 
Y16.4150 
X-4.9868 Y16.2275 
X-4.9281 Y16.0469 
X-4.8419 Y15.8777 
X-4.7303 Y15.7240 
X-4.5960 Y15.5897 
X-4.4423 Y15.4781 
X-4.2731 Y15.3919 
X-4.0925 Y15.3332 
X-3.9050 Y15.3035 
X-3.7150 
X-3.5275 Y15.3332 
X-3.3469 Y15.3919 
X-3.1777 Y15.4781 
X-3.0240 Y15.5897 
X-2.8897 Y15.7240 
G00 Z2.0000 
G00 X-5.4297 Y15.7240 
G01 Z-0.1500 F254.00 
G01 X-5.3181 Y15.8777 F508.00 
G01 X-5.2319 Y16.0469 
X-5.1732 Y16.2275 
X-5.1435 Y16.4150 
Y18.9550 
Y20.4150 
X-5.1732 Y20.6025 
X-5.2319 Y20.7831 
X-5.3181 Y20.9523 
X-5.4297 Y21.1060 
X-5.5640 Y21.2403 
X-5.7177 Y21.3519 
X-5.8869 Y21.4381 
X-6.0675 Y21.4968 
X-6.2550 Y21.5265 
X-6.4450 
X-6.6325 Y21.4968 
X-6.8131 Y21.4381 
X-6.9823 Y21.3519 
X-7.1360 Y21.2403 
X-7.2703 Y21.1060 
X-7.3819 Y20.9523 
X-7.4681 Y20.7831 
X-7.5268 Y20.6025 
X-7.5565 Y20.4150 
Y16.4150 
X-7.5268 Y16.2275 
X-7.4681 Y16.0469 
X-7.3819 Y15.8777 
X-7.2703 Y15.7240 
X-7.1360 Y15.5897 
X-6.9823 Y15.4781 
X-6.8131 Y15.3919 
X-6.6325 Y15.3332 
X-6.4450 Y15.3035 
X-6.2550 
X-6.0675 Y15.3332 
X-5.8869 Y15.3919 
X-5.7177 Y15.4781 
X-5.5640 Y15.5897 
X-5.4297 Y15.7240 
G00 Z2.0000 
G00 X-7.6835 Y11.3350 
G01 Z-0.1500 F254.00 
G01 X-7.6835 Y20.2250 F508.00 
G01 X-7.6835 Y20.4150 
X-7.7132 Y20.6025 
X-7.7719 Y20.7831 
X-7.8581 Y20.9523 
X-7.9697 Y21.1060 
X-8.1040 Y21.2403 
X-8.2577 Y21.3519 
X-8.4269 Y21.4381 
X-8.6075 Y21.4968 
X-8.7950 Y21.5265 
X-10.2550 
X-10.4425 Y21.4968 
X-10.6231 Y21.4381 
X-10.7923 Y21.3519 
X-10.9460 Y21.2403 
X-11.0803 Y21.1060 
X-11.1919 Y20.9523 
X-11.2781 Y20.7831 
X-11.3368 Y20.6025 
X-11.3665 Y20.4150 
Y20.2250 
X-11.3368 Y20.0375 
X-11.2781 Y19.8569 
X-11.1919 Y19.6877 
X-11.0803 Y19.5340 
X-10.9460 Y19.3997 
X-10.7923 Y19.2881 
X-10.6231 Y19.2019 
X-10.4425 Y19.1432 
X-10.2550 Y19.1135 
X-10.0965 
Y12.6365 
X-16.6050 
X-16.7925 Y12.6068 
X-16.9731 Y12.5481 
X-17.1423 Y12.4619 
X-17.2960 Y12.3503 
X-17.4303 Y12.2160 
X-17.5419 Y12.0623 
X-17.6281 Y11.8931 
X-17.6868 Y11.7125 
X-17.7165 Y11.5250 
Y11.3350 
X-17.6868 Y11.1475 
X-17.6281 Y10.9669 
X-17.5419 Y10.7977 
X-17.4303 Y10.6440 
X-17.2960 Y10.5097 
X-17.1423 Y10.3981 
X-16.9731 Y10.3119 
X-16.7925 Y10.2532 
X-16.6050 Y10.2235 
X-8.7950 
X-8.6075 Y10.2532 
X-8.4269 Y10.3119 
X-8.2577 Y10.3981 
X-8.1040 Y10.5097 
X-7.9697 Y10.6440 
X-7.8581 Y10.7977 
X-7.7719 Y10.9669 
X-7.7132 Y11.1475 
X-7.6835 Y11.3350 
G00 Z2.0000 
G00 X-10.5097 Y13.1840 
G01 Z-0.1500 F254.00 
G01 X-10.3981 Y13.3377 F508.00 
G01 X-10.3119 Y13.5069 
X-10.2532 Y13.6875 
X-10.2235 Y13.8750 
Y17.8750 
X-10.2532 Y18.0625 
X-10.3119 Y18.2431 
X-10.3981 Y18.4123 
X-10.5097 Y18.5660 
X-10.6440 Y18.7003 
X-11.4935 Y19.5497 
Y20.2250 
Y24.2250 
X-11.5232 Y24.4125 
X-11.5819 Y24.5931 
X-11.6681 Y24.7623 
X-11.7797 Y24.9160 
X-11.9140 Y25.0503 
X-12.0677 Y25.1619 
X-12.2369 Y25.2481 
X-12.4175 Y25.3068 
X-12.6050 Y25.3365 
X-12.7950 
X-12.9825 Y25.3068 
X-13.1631 Y25.2481 
X-13.3323 Y25.1619 
X-13.4860 Y25.0503 
X-13.6203 Y24.9160 
X-13.7319 Y24.7623 
X-13.8181 Y24.5931 
X-13.8768 Y24.4125 
X-13.9065 Y24.2250 
Y21.5265 
X-15.3350 
X-15.5225 Y21.4968 
X-15.7031 Y21.4381 
X-15.8723 Y21.3519 
X-16.0260 Y21.2403 
X-16.1603 Y21.1060 
X-16.2719 Y20.9523 
X-16.3581 Y20.7831 
X-16.4168 Y20.6025 
X-16.4465 Y20.4150 
Y20.2250 
X-16.4168 Y20.0375 
X-16.3581 Y19.8569 
X-16.2719 Y19.6877 
X-16.1603 Y19.5340 
X-16.0260 Y19.3997 
X-15.8723 Y19.2881 
X-15.7031 Y19.2019 
X-15.5225 Y19.1432 
X-15.3350 Y19.1135 
X-13.9065 
Y18.9550 
X-13.8768 Y18.7675 
X-13.8181 Y18.5869 
X-13.7319 Y18.4177 
X-13.6203 Y18.2640 
X-12.6365 Y17.2802 
Y15.1765 
X-16.6050 
X-16.7925 Y15.1468 
X-16.9731 Y15.0881 
X-17.1423 Y15.0019 
X-17.2960 Y14.8903 
X-17.4303 Y14.7560 
X-17.5419 Y14.6023 
X-17.6281 Y14.4331 
X-17.6868 Y14.2525 
X-17.7165 Y14.0650 
Y13.8750 
X-17.6868 Y13.6875 
X-17.6281 Y13.5069 
X-17.5419 Y13.3377 
X-17.4303 Y13.1840 
X-17.2960 Y13.0497 
X-17.1423 Y12.9381 
X-16.9731 Y12.8519 
X-16.7925 Y12.7932 
X-16.6050 Y12.7635 
X-11.3350 
X-11.1475 Y12.7932 
X-10.9669 Y12.8519 
X-10.7977 Y12.9381 
X-10.6440 Y13.0497 
X-10.5097 Y13.1840 
G00 Z2.0000 
G00 X-13.1840 Y9.8103 
G01 Z-0.1500 F254.00 
G01 X-13.3377 Y9.9219 F508.00 
G01 X-13.5069 Y10.0081 
X-13.6875 Y10.0668 
X-13.8750 Y10.0965 
X-16.6050 
X-16.7925 Y10.0668 
X-16.9731 Y10.0081 
X-17.1423 Y9.9219 
X-17.2960 Y9.8103 
X-17.4303 Y9.6760 
X-17.5419 Y9.5223 
X-17.6281 Y9.3531 
X-17.6868 Y9.1725 
X-17.7165 Y8.9850 
Y8.7950 
X-17.6868 Y8.6075 
X-17.6281 Y8.4269 
X-17.5419 Y8.2577 
X-17.4303 Y8.1040 
X-17.2960 Y7.9697 
X-17.1423 Y7.8581 
X-16.9731 Y7.7719 
X-16.7925 Y7.7132 
X-16.6050 Y7.6835 
X-13.8750 
X-13.6875 Y7.7132 
X-13.5069 Y7.7719 
X-13.3377 Y7.8581 
X-13.1840 Y7.9697 
X-13.0497 Y8.1040 
X-12.9381 Y8.2577 
X-12.8519 Y8.4269 
X-12.7932 Y8.6075 
X-12.7635 Y8.7950 
Y8.9850 
X-12.7932 Y9.1725 
X-12.8519 Y9.3531 
X-12.9381 Y9.5223 
X-13.0497 Y9.6760 
X-13.1840 Y9.8103 
G00 Z2.0000 
G00 X-12.6050 Y29.2735 
G01 Z-0.1500 F254.00 
G01 X-12.4175 Y29.3032 F508.00 
G01 X-12.2369 Y29.3619 
X-12.0677 Y29.4481 
X-11.9140 Y29.5597 
X-10.9302 Y30.5435 
X-5.0165 
Y27.8765 
X-6.4450 
X-6.6325 Y27.8468 
X-6.8131 Y27.7881 
X-6.9823 Y27.7019 
X-7.1360 Y27.5903 
X-7.2703 Y27.4560 
X-7.3819 Y27.3023 
X-7.4681 Y27.1331 
X-7.5268 Y26.9525 
X-7.5565 Y26.7650 
Y26.5750 
Y25.3050 
X-7.5268 Y25.1175 
X-7.4681 Y24.9369 
X-7.3819 Y24.7677 
X-7.2703 Y24.6140 
X-7.1360 Y24.4797 
X-6.9823 Y24.3681 
X-6.8131 Y24.2819 
X-6.6325 Y24.2232 
X-6.4450 Y24.1935 
X-3.7150 
X-3.5275 Y24.2232 
X-3.3469 Y24.2819 
X-3.1777 Y24.3681 
X-3.0240 Y24.4797 
X-2.8897 Y24.6140 
X-2.7781 Y24.7677 
X-2.6919 Y24.9369 
X-2.6332 Y25.1175 
X-2.6035 Y25.3050 
Y31.8450 
X-2.6332 Y32.0325 
X-2.6919 Y32.2131 
X-2.7781 Y32.3823 
X-2.8897 Y32.5360 
X-3.0240 Y32.6703 
X-3.1777 Y32.7819 
X-3.3469 Y32.8681 
X-3.5275 Y32.9268 
X-3.7150 Y32.9565 
X-11.5250 
X-11.7125 Y32.9268 
X-11.8931 Y32.8681 
X-12.0623 Y32.7819 
X-12.2160 Y32.6703 
X-13.1997 Y31.6865 
X-16.6050 
X-16.7925 Y31.6568 
X-16.9731 Y31.5981 
X-17.1423 Y31.5119 
X-17.2960 Y31.4003 
X-17.4303 Y31.2660 
X-17.5419 Y31.1123 
X-17.6281 Y30.9431 
X-17.6868 Y30.7625 
X-17.7165 Y30.5750 
Y30.3850 
X-17.6868 Y30.1975 
X-17.6281 Y30.0169 
X-17.5419 Y29.8477 
X-17.4303 Y29.6940 
X-17.2960 Y29.5597 
X-17.1423 Y29.4481 
X-16.9731 Y29.3619 
X-16.7925 Y29.3032 
X-16.6050 Y29.2735 
X-12.6050 
G00 Z2.0000 
G00 X-13.0497 Y32.2340 
G01 Z-0.1500 F254.00 
G01 X-12.2003 Y33.0835 F508.00 
G01 X-6.2550 Y33.0835 
X-6.0675 Y33.1132 
X-5.8869 Y33.1719 
X-5.7177 Y33.2581 
X-5.5640 Y33.3697 
X-5.4297 Y33.5040 
X-5.3181 Y33.6577 
X-5.2319 Y33.8269 
X-5.1732 Y34.0075 
X-5.1435 Y34.1950 
Y38.1950 
X-5.1732 Y38.3825 
X-5.2319 Y38.5631 
X-5.3181 Y38.7323 
X-5.4297 Y38.8860 
X-5.5640 Y39.0203 
X-5.7177 Y39.1319 
X-5.8869 Y39.2181 
X-6.0675 Y39.2768 
X-6.2550 Y39.3065 
X-12.7950 
X-12.9825 Y39.2768 
X-13.1631 Y39.2181 
X-13.3323 Y39.1319 
X-13.4860 Y39.0203 
X-13.6203 Y38.8860 
X-13.7319 Y38.7323 
X-13.8181 Y38.5631 
X-13.8768 Y38.3825 
X-13.9065 Y38.1950 
Y34.7897 
X-14.4697 Y34.2265 
X-16.6050 
X-16.7925 Y34.1968 
X-16.9731 Y34.1381 
X-17.1423 Y34.0519 
X-17.2960 Y33.9403 
X-17.4303 Y33.8060 
X-17.5419 Y33.6523 
X-17.6281 Y33.4831 
X-17.6868 Y33.3025 
X-17.7165 Y33.1150 
Y32.9250 
X-17.6868 Y32.7375 
X-17.6281 Y32.5569 
X-17.5419 Y32.3877 
X-17.4303 Y32.2340 
X-17.2960 Y32.0997 
X-17.1423 Y31.9881 
X-16.9731 Y31.9019 
X-16.7925 Y31.8432 
X-16.6050 Y31.8135 
X-13.8750 
X-13.6875 Y31.8432 
X-13.5069 Y31.9019 
X-13.3377 Y31.9881 
X-13.1840 Y32.0997 
X-13.0497 Y32.2340 
G00 Z2.0000 
G82 X-3.8100 Y8.8900 Z-0.2794 F508.00 R2.0000 P0.000000
G82 X-12.7000 Y24.1300 
G82 X-17.7800 Y24.1300 
G82 X-16.5100 Y11.4300 
G82 X-16.5100 Y16.5100 
G82 X-6.3500 Y6.3500 
G82 X-6.3500 Y1.2700 
G82 X-16.5100 Y5.0800 
G82 X-19.0500 Y5.0800 
G82 X-19.0500 Y1.2700 
G82 X-3.8100 Y3.8100 
G82 X-13.9700 Y8.8900 
G82 X-13.9700 Y11.4300 
G82 X-13.9700 Y13.9700 
G82 X-13.9700 Y16.5100 
G82 X-6.3500 Y16.5100 
G82 X-6.3500 Y13.9700 
G82 X-6.3500 Y11.4300 
G82 X-6.3500 Y8.8900 
G82 X-12.7000 Y3.8100 
G82 X-11.4300 Y1.9050 
G82 X-10.1600 Y3.8100 
G82 X-3.8100 Y11.4300 
G82 X-8.8900 Y26.6700 
G82 X-11.4300 Y26.6700 
G82 X-3.8100 Y38.1000 
G82 X-6.3500 Y38.1000 
G82 X-15.2400 Y20.3200 
G82 X-10.1600 Y20.3200 
G82 X-6.3500 Y31.7500 
G82 X-6.3500 Y34.2900 
G82 X-6.3500 Y29.2100 
G82 X-3.8100 Y21.5900 
G82 X-3.8100 Y13.9700 
G82 X-6.3500 Y26.6700 
G82 X-6.3500 Y19.0500 
G82 X-16.5100 Y30.4800 
G82 X-16.5100 Y33.0200 
G82 X-16.5100 Y35.5600 
G82 X1.0160 Y33.0200 
G82 X-1.2700 Y1.2700 
G00 Z5.0000 
M05
M02
