(.../pcb-gcode-3.6.0.4/pcb-gcode.ulp)
(Copyright 2005 - 2012 by John Johnson)
(See readme.txt for licensing terms.)
(This file generated from the board:)
(.../mst/NC/eagle/attiny45board.brd)
(Current profile is .../pcb-gcode-3.6.0.4/profiles/emc.pp  )
(This file generated 31.05.13 00:15)
(Settings from pcb-machine.h)
(  Tool Size)
(0.1778 )
(Z Axis Settings)
(  High     Up        Down     Drill)
(5.0000 	5.0000 	-0.1778 	-0.8128 )
(spindle on time = 3.0000)
(milling depth = -0.2540)
(text depth = -0.1270)
(tool change at 12.7000 15.2400 25.4000 )
(feed rate xy = F250.00 )
(feed rate z  = F250.00 )
(Settings from pcb-defaults.h)
(isolate min = 0.0254)
(isolate max = 0.5080)
(isolate step = 0.1270)
(Generated bottom outlines, bottom drill, )
(Unit of measure: mm)
(Metric Mode)
G21
(Absolute Coordinates)
G90
G00 X0.0000 Y0.0000 
M03
G04 P3.000000
G00 Z1.0000 
G00 X-36.4109 Y59.6348 
G01 Z-0.1778 F250.00 
G01 X-36.4395 Y59.5282 F250.00 
G01 X-36.4946 Y59.4327 
G01 X-36.5727 Y59.3546 
G01 X-36.6682 Y59.2995 
G01 X-36.7748 Y59.2709 
G01 X-38.5953 Y59.2709 
G01 X-38.5953 Y58.9533 
G01 X-38.6251 Y58.8036 
G01 X-38.6835 Y58.6626 
G01 X-38.7683 Y58.5358 
G01 X-38.8762 Y58.4278 
G01 X-38.9509 Y58.3779 
G01 X-38.9509 Y57.8265 
G01 X-38.5953 Y57.4709 
G01 X-38.5953 Y56.8291 
G01 X-39.0491 Y56.3753 
G01 X-39.6909 Y56.3753 
G01 X-40.1447 Y56.8291 
G01 X-40.1447 Y57.4709 
G01 X-39.7891 Y57.8265 
G01 X-39.7891 Y58.3779 
G01 X-39.8638 Y58.4278 
G01 X-39.9717 Y58.5358 
G01 X-40.0565 Y58.6626 
G01 X-40.1149 Y58.8036 
G01 X-40.1447 Y58.9533 
G01 X-40.1447 Y60.4267 
G01 X-40.1149 Y60.5764 
G01 X-40.0565 Y60.7174 
G01 X-39.9717 Y60.8442 
G01 X-39.8638 Y60.9521 
G01 X-39.7370 Y61.0369 
G01 X-39.5960 Y61.0953 
G01 X-39.4463 Y61.1251 
G01 X-39.2937 Y61.1251 
G01 X-39.1440 Y61.0953 
G01 X-39.0030 Y61.0369 
G01 X-38.8762 Y60.9521 
G01 X-38.7683 Y60.8442 
G01 X-38.6835 Y60.7174 
G01 X-38.6251 Y60.5764 
G01 X-38.5953 Y60.4267 
G01 X-38.5953 Y60.1091 
G01 X-37.2491 Y60.1091 
G01 X-37.2491 Y61.6125 
G01 X-37.3559 Y61.6125 
G01 X-37.3979 Y61.6299 
G01 X-37.4301 Y61.6621 
G01 X-37.4475 Y61.7041 
G01 X-37.4475 Y62.7559 
G01 X-37.4301 Y62.7979 
G01 X-37.3979 Y62.8301 
G01 X-37.3559 Y62.8475 
G01 X-36.3041 Y62.8475 
G01 X-36.2621 Y62.8301 
G01 X-36.2299 Y62.7979 
G01 X-36.2125 Y62.7559 
G01 X-36.2125 Y61.7041 
G01 X-36.2299 Y61.6621 
G01 X-36.2621 Y61.6299 
G01 X-36.3041 Y61.6125 
G01 X-36.4109 Y61.6125 
G01 X-36.4109 Y59.6348 
G00 Z1.0000 
G00 X-46.5709 Y77.0509 
G01 Z-0.1778 F250.00 
G01 X-46.5709 Y75.7039 F250.00 
G01 X-46.4314 Y75.6107 
G01 X-46.3093 Y75.4886 
G01 X-46.2134 Y75.3451 
G01 X-46.1474 Y75.1856 
G01 X-46.1137 Y75.0163 
G01 X-46.1137 Y74.8437 
G01 X-46.1474 Y74.6744 
G01 X-46.2134 Y74.5149 
G01 X-46.3093 Y74.3714 
G01 X-46.4314 Y74.2493 
G01 X-46.5709 Y74.1561 
G01 X-46.5709 Y68.6221 
G01 X-46.4962 Y68.5721 
G01 X-46.3882 Y68.4642 
G01 X-46.3035 Y68.3374 
G01 X-46.2451 Y68.1964 
G01 X-46.2153 Y68.0467 
G01 X-46.2153 Y66.5733 
G01 X-46.2451 Y66.4236 
G01 X-46.3035 Y66.2826 
G01 X-46.3882 Y66.1558 
G01 X-46.4962 Y66.0478 
G01 X-46.6230 Y65.9631 
G01 X-46.7640 Y65.9047 
G01 X-46.9137 Y65.8749 
G01 X-47.0663 Y65.8749 
G01 X-47.2160 Y65.9047 
G01 X-47.3570 Y65.9631 
G01 X-47.4838 Y66.0478 
G01 X-47.5917 Y66.1558 
G01 X-47.6765 Y66.2826 
G01 X-47.7349 Y66.4236 
G01 X-47.7647 Y66.5733 
G01 X-47.7647 Y68.0467 
G01 X-47.7349 Y68.1964 
G01 X-47.6765 Y68.3374 
G01 X-47.5917 Y68.4642 
G01 X-47.4838 Y68.5721 
G01 X-47.4091 Y68.6221 
G01 X-47.4091 Y74.1561 
G01 X-47.5486 Y74.2493 
G01 X-47.6707 Y74.3714 
G01 X-47.7666 Y74.5149 
G01 X-47.8326 Y74.6744 
G01 X-47.8663 Y74.8437 
G01 X-47.8663 Y75.0163 
G01 X-47.8326 Y75.1856 
G01 X-47.7666 Y75.3451 
G01 X-47.6707 Y75.4886 
G01 X-47.5486 Y75.6107 
G01 X-47.4091 Y75.7039 
G01 X-47.4091 Y77.5252 
G01 X-47.3805 Y77.6318 
G01 X-47.3254 Y77.7273 
G01 X-47.2473 Y77.8054 
G01 X-47.1518 Y77.8605 
G01 X-47.0452 Y77.8891 
G01 X-29.8275 Y77.8891 
G01 X-29.8275 Y77.9959 
G01 X-29.8101 Y78.0379 
G01 X-29.7779 Y78.0701 
G01 X-29.7359 Y78.0875 
G01 X-28.6841 Y78.0875 
G01 X-28.6421 Y78.0701 
G01 X-28.6099 Y78.0379 
G01 X-28.5925 Y77.9959 
G01 X-28.5925 Y76.9441 
G01 X-28.6099 Y76.9021 
G01 X-28.6421 Y76.8699 
G01 X-28.6841 Y76.8525 
G01 X-29.7359 Y76.8525 
G01 X-29.7779 Y76.8699 
G01 X-29.8101 Y76.9021 
G01 X-29.8275 Y76.9441 
G01 X-29.8275 Y77.0509 
G01 X-46.5709 Y77.0509 
G00 Z1.0000 
G00 X-31.2547 Y53.0191 
G01 Z-0.1778 F250.00 
G01 X-31.2547 Y53.6609 F250.00 
G01 X-30.8991 Y54.0165 
G01 X-30.8991 Y56.7309 
G01 X-31.0735 Y56.7309 
G01 X-31.4291 Y56.3753 
G01 X-32.0709 Y56.3753 
G01 X-32.5247 Y56.8291 
G01 X-32.5247 Y57.4709 
G01 X-32.0709 Y57.9247 
G01 X-31.4291 Y57.9247 
G01 X-31.0735 Y57.5691 
G01 X-30.8991 Y57.5691 
G01 X-30.8991 Y62.6976 
G01 X-30.9071 Y62.7009 
G01 X-31.0548 Y62.7996 
G01 X-31.1804 Y62.9252 
G01 X-31.2791 Y63.0729 
G01 X-31.3470 Y63.2370 
G01 X-31.3817 Y63.4112 
G01 X-31.3817 Y63.5888 
G01 X-31.3470 Y63.7630 
G01 X-31.2791 Y63.9271 
G01 X-31.1804 Y64.0748 
G01 X-31.0548 Y64.2004 
G01 X-30.9071 Y64.2991 
G01 X-30.8991 Y64.3024 
G01 X-30.8991 Y64.3509 
G01 X-32.8660 Y64.3509 
G01 X-32.9376 Y64.2438 
G01 X-33.0526 Y64.1288 
G01 X-33.1878 Y64.0384 
G01 X-33.3380 Y63.9762 
G01 X-33.4975 Y63.9445 
G01 X-35.0825 Y63.9445 
G01 X-35.2420 Y63.9762 
G01 X-35.3922 Y64.0384 
G01 X-35.5274 Y64.1288 
G01 X-35.6424 Y64.2438 
G01 X-35.7140 Y64.3509 
G01 X-49.5852 Y64.3509 
G01 X-49.6918 Y64.3795 
G01 X-49.7873 Y64.4346 
G01 X-49.8654 Y64.5127 
G01 X-49.9205 Y64.6082 
G01 X-49.9491 Y64.7148 
G01 X-49.9491 Y73.5060 
G01 X-50.0562 Y73.5776 
G01 X-50.1712 Y73.6926 
G01 X-50.2615 Y73.8278 
G01 X-50.3238 Y73.9780 
G01 X-50.3555 Y74.1375 
G01 X-50.3555 Y75.7225 
G01 X-50.3238 Y75.8820 
G01 X-50.2615 Y76.0322 
G01 X-50.1712 Y76.1674 
G01 X-50.0562 Y76.2824 
G01 X-49.9210 Y76.3727 
G01 X-49.7708 Y76.4350 
G01 X-49.6113 Y76.4667 
G01 X-49.4487 Y76.4667 
G01 X-49.2892 Y76.4350 
G01 X-49.1390 Y76.3727 
G01 X-49.0038 Y76.2824 
G01 X-48.8888 Y76.1674 
G01 X-48.7985 Y76.0322 
G01 X-48.7362 Y75.8820 
G01 X-48.7045 Y75.7225 
G01 X-48.7045 Y74.1375 
G01 X-48.7362 Y73.9780 
G01 X-48.7985 Y73.8278 
G01 X-48.8888 Y73.6926 
G01 X-49.0038 Y73.5776 
G01 X-49.1109 Y73.5060 
G01 X-49.1109 Y65.1891 
G01 X-39.6875 Y65.1891 
G01 X-39.6875 Y65.9426 
G01 X-39.7370 Y65.9631 
G01 X-39.8638 Y66.0478 
G01 X-39.9717 Y66.1558 
G01 X-40.0565 Y66.2826 
G01 X-40.1149 Y66.4236 
G01 X-40.1447 Y66.5733 
G01 X-40.1447 Y68.0467 
G01 X-40.1149 Y68.1964 
G01 X-40.0565 Y68.3374 
G01 X-39.9717 Y68.4642 
G01 X-39.8638 Y68.5721 
G01 X-39.7370 Y68.6569 
G01 X-39.5960 Y68.7153 
G01 X-39.4463 Y68.7451 
G01 X-39.2937 Y68.7451 
G01 X-39.1440 Y68.7153 
G01 X-39.0030 Y68.6569 
G01 X-38.8762 Y68.5721 
G01 X-38.7683 Y68.4642 
G01 X-38.6835 Y68.3374 
G01 X-38.6251 Y68.1964 
G01 X-38.5953 Y68.0467 
G01 X-38.5953 Y66.5733 
G01 X-38.6251 Y66.4236 
G01 X-38.6835 Y66.2826 
G01 X-38.7683 Y66.1558 
G01 X-38.8762 Y66.0478 
G01 X-39.0030 Y65.9631 
G01 X-39.0525 Y65.9426 
G01 X-39.0525 Y65.1891 
G01 X-35.7140 Y65.1891 
G01 X-35.6424 Y65.2962 
G01 X-35.5274 Y65.4112 
G01 X-35.3922 Y65.5015 
G01 X-35.2420 Y65.5638 
G01 X-35.0825 Y65.5955 
G01 X-33.4975 Y65.5955 
G01 X-33.3380 Y65.5638 
G01 X-33.1878 Y65.5015 
G01 X-33.0526 Y65.4112 
G01 X-32.9376 Y65.2962 
G01 X-32.8660 Y65.1891 
G01 X-30.8991 Y65.1891 
G01 X-30.8991 Y69.4309 
G01 X-30.9298 Y69.4309 
G01 X-31.3870 Y68.9737 
G01 X-32.1130 Y68.9737 
G01 X-32.6263 Y69.4870 
G01 X-32.6263 Y70.2130 
G01 X-32.1130 Y70.7263 
G01 X-31.3870 Y70.7263 
G01 X-30.9298 Y70.2691 
G01 X-30.4248 Y70.2691 
G01 X-30.3182 Y70.2405 
G01 X-30.2227 Y70.1854 
G01 X-30.1446 Y70.1073 
G01 X-30.0895 Y70.0118 
G01 X-30.0609 Y69.9052 
G01 X-30.0609 Y64.3024 
G01 X-30.0529 Y64.2991 
G01 X-29.9052 Y64.2004 
G01 X-29.7796 Y64.0748 
G01 X-29.6809 Y63.9271 
G01 X-29.6130 Y63.7630 
G01 X-29.5783 Y63.5888 
G01 X-29.5783 Y63.4112 
G01 X-29.6130 Y63.2370 
G01 X-29.6809 Y63.0729 
G01 X-29.7796 Y62.9252 
G01 X-29.9052 Y62.7996 
G01 X-30.0529 Y62.7009 
G01 X-30.0609 Y62.6976 
G01 X-30.0609 Y54.0165 
G01 X-29.7053 Y53.6609 
G01 X-29.7053 Y53.0191 
G01 X-30.1591 Y52.5653 
G01 X-30.8009 Y52.5653 
G01 X-31.2547 Y53.0191 
G00 Z1.0000 
G00 X-41.1353 Y68.0467 
G01 Z-0.1778 F250.00 
G01 X-41.1353 Y66.5733 F250.00 
G01 X-41.1651 Y66.4236 
G01 X-41.2235 Y66.2826 
G01 X-41.3083 Y66.1558 
G01 X-41.4162 Y66.0478 
G01 X-41.5430 Y65.9631 
G01 X-41.6840 Y65.9047 
G01 X-41.8337 Y65.8749 
G01 X-41.9863 Y65.8749 
G01 X-42.1360 Y65.9047 
G01 X-42.2770 Y65.9631 
G01 X-42.4038 Y66.0478 
G01 X-42.5117 Y66.1558 
G01 X-42.5965 Y66.2826 
G01 X-42.6549 Y66.4236 
G01 X-42.6847 Y66.5733 
G01 X-42.6847 Y68.0467 
G01 X-42.6549 Y68.1964 
G01 X-42.5965 Y68.3374 
G01 X-42.5117 Y68.4642 
G01 X-42.4038 Y68.5721 
G01 X-42.2770 Y68.6569 
G01 X-42.2275 Y68.6774 
G01 X-42.2275 Y69.2325 
G01 X-42.4359 Y69.2325 
G01 X-42.4779 Y69.2499 
G01 X-42.5101 Y69.2821 
G01 X-42.5275 Y69.3241 
G01 X-42.5275 Y70.3759 
G01 X-42.5101 Y70.4179 
G01 X-42.4779 Y70.4501 
G01 X-42.4359 Y70.4675 
G01 X-41.3841 Y70.4675 
G01 X-41.3421 Y70.4501 
G01 X-41.3099 Y70.4179 
G01 X-41.2925 Y70.3759 
G01 X-41.2925 Y69.3241 
G01 X-41.3099 Y69.2821 
G01 X-41.3421 Y69.2499 
G01 X-41.3841 Y69.2325 
G01 X-41.5925 Y69.2325 
G01 X-41.5925 Y68.6774 
G01 X-41.5430 Y68.6569 
G01 X-41.4162 Y68.5721 
G01 X-41.3083 Y68.4642 
G01 X-41.2235 Y68.3374 
G01 X-41.1651 Y68.1964 
G01 X-41.1353 Y68.0467 
G00 Z1.0000 
G00 X-40.1547 Y75.8063 
G01 Z-0.1778 F250.00 
G01 X-38.5853 Y75.8063 F250.00 
G01 X-38.5433 Y75.7889 
G01 X-38.5111 Y75.7567 
G01 X-38.4937 Y75.7147 
G01 X-38.4937 Y75.3491 
G01 X-37.4475 Y75.3491 
G01 X-37.4475 Y75.4559 
G01 X-37.4301 Y75.4979 
G01 X-37.3979 Y75.5301 
G01 X-37.3559 Y75.5475 
G01 X-36.3041 Y75.5475 
G01 X-36.2621 Y75.5301 
G01 X-36.2299 Y75.4979 
G01 X-36.2125 Y75.4559 
G01 X-36.2125 Y75.3491 
G01 X-35.1102 Y75.3491 
G01 X-34.6530 Y75.8063 
G01 X-33.9270 Y75.8063 
G01 X-33.4137 Y75.2930 
G01 X-33.4137 Y74.5670 
G01 X-33.9270 Y74.0537 
G01 X-34.6530 Y74.0537 
G01 X-35.1102 Y74.5109 
G01 X-36.2125 Y74.5109 
G01 X-36.2125 Y74.4041 
G01 X-36.2299 Y74.3621 
G01 X-36.2621 Y74.3299 
G01 X-36.3041 Y74.3125 
G01 X-37.3559 Y74.3125 
G01 X-37.3979 Y74.3299 
G01 X-37.4301 Y74.3621 
G01 X-37.4475 Y74.4041 
G01 X-37.4475 Y74.5109 
G01 X-38.4937 Y74.5109 
G01 X-38.4937 Y74.1453 
G01 X-38.5111 Y74.1033 
G01 X-38.5433 Y74.0711 
G01 X-38.5853 Y74.0537 
G01 X-40.1547 Y74.0537 
G01 X-40.1967 Y74.0711 
G01 X-40.2289 Y74.1033 
G01 X-40.2463 Y74.1453 
G01 X-40.2463 Y75.7147 
G01 X-40.2289 Y75.7567 
G01 X-40.1967 Y75.7889 
G01 X-40.1547 Y75.8063 
G00 Z1.0000 
G00 X-42.7863 Y74.8437 
G01 Z-0.1778 F250.00 
G01 X-42.7863 Y75.0163 F250.00 
G01 X-42.7526 Y75.1856 
G01 X-42.6866 Y75.3451 
G01 X-42.5907 Y75.4886 
G01 X-42.4686 Y75.6107 
G01 X-42.3251 Y75.7066 
G01 X-42.1656 Y75.7726 
G01 X-41.9963 Y75.8063 
G01 X-41.8237 Y75.8063 
G01 X-41.6544 Y75.7726 
G01 X-41.4949 Y75.7066 
G01 X-41.3514 Y75.6107 
G01 X-41.2293 Y75.4886 
G01 X-41.1334 Y75.3451 
G01 X-41.0674 Y75.1856 
G01 X-41.0337 Y75.0163 
G01 X-41.0337 Y74.8437 
G01 X-41.0674 Y74.6744 
G01 X-41.1334 Y74.5149 
G01 X-41.2293 Y74.3714 
G01 X-41.3514 Y74.2493 
G01 X-41.4909 Y74.1561 
G01 X-41.4909 Y73.0075 
G01 X-41.3841 Y73.0075 
G01 X-41.3421 Y72.9901 
G01 X-41.3099 Y72.9579 
G01 X-41.2925 Y72.9159 
G01 X-41.2925 Y72.8091 
G01 X-35.1102 Y72.8091 
G01 X-34.6530 Y73.2663 
G01 X-33.9270 Y73.2663 
G01 X-33.4137 Y72.7530 
G01 X-33.4137 Y72.0270 
G01 X-33.9270 Y71.5137 
G01 X-34.6530 Y71.5137 
G01 X-35.1102 Y71.9709 
G01 X-41.2925 Y71.9709 
G01 X-41.2925 Y71.8641 
G01 X-41.3099 Y71.8221 
G01 X-41.3421 Y71.7899 
G01 X-41.3841 Y71.7725 
G01 X-42.4359 Y71.7725 
G01 X-42.4779 Y71.7899 
G01 X-42.5101 Y71.8221 
G01 X-42.5275 Y71.8641 
G01 X-42.5275 Y72.9159 
G01 X-42.5101 Y72.9579 
G01 X-42.4779 Y72.9901 
G01 X-42.4359 Y73.0075 
G01 X-42.3291 Y73.0075 
G01 X-42.3291 Y74.1561 
G01 X-42.4686 Y74.2493 
G01 X-42.5907 Y74.3714 
G01 X-42.6866 Y74.5149 
G01 X-42.7526 Y74.6744 
G01 X-42.7863 Y74.8437 
G00 Z1.0000 
G00 X-45.3263 Y74.8437 
G01 Z-0.1778 F250.00 
G01 X-45.3263 Y75.0163 F250.00 
G01 X-45.2926 Y75.1856 
G01 X-45.2266 Y75.3451 
G01 X-45.1307 Y75.4886 
G01 X-45.0086 Y75.6107 
G01 X-44.8651 Y75.7066 
G01 X-44.7056 Y75.7726 
G01 X-44.5363 Y75.8063 
G01 X-44.3637 Y75.8063 
G01 X-44.1944 Y75.7726 
G01 X-44.0349 Y75.7066 
G01 X-43.8914 Y75.6107 
G01 X-43.7693 Y75.4886 
G01 X-43.6734 Y75.3451 
G01 X-43.6074 Y75.1856 
G01 X-43.5737 Y75.0163 
G01 X-43.5737 Y74.8437 
G01 X-43.6074 Y74.6744 
G01 X-43.6734 Y74.5149 
G01 X-43.7693 Y74.3714 
G01 X-43.8914 Y74.2493 
G01 X-44.0309 Y74.1561 
G01 X-44.0309 Y71.5391 
G01 X-36.7748 Y71.5391 
G01 X-36.6682 Y71.5105 
G01 X-36.5727 Y71.4554 
G01 X-36.4946 Y71.3773 
G01 X-35.3864 Y70.2691 
G01 X-35.0639 Y70.2691 
G01 X-34.9707 Y70.4086 
G01 X-34.8486 Y70.5307 
G01 X-34.7051 Y70.6266 
G01 X-34.5456 Y70.6926 
G01 X-34.3763 Y70.7263 
G01 X-34.2037 Y70.7263 
G01 X-34.0344 Y70.6926 
G01 X-33.8749 Y70.6266 
G01 X-33.7314 Y70.5307 
G01 X-33.6093 Y70.4086 
G01 X-33.5134 Y70.2651 
G01 X-33.4474 Y70.1056 
G01 X-33.4137 Y69.9363 
G01 X-33.4137 Y69.7637 
G01 X-33.4474 Y69.5944 
G01 X-33.5134 Y69.4349 
G01 X-33.6093 Y69.2914 
G01 X-33.7314 Y69.1693 
G01 X-33.8749 Y69.0734 
G01 X-34.0344 Y69.0074 
G01 X-34.2037 Y68.9737 
G01 X-34.3763 Y68.9737 
G01 X-34.5456 Y69.0074 
G01 X-34.7051 Y69.0734 
G01 X-34.8486 Y69.1693 
G01 X-34.9707 Y69.2914 
G01 X-35.0639 Y69.4309 
G01 X-35.6152 Y69.4309 
G01 X-35.7218 Y69.4595 
G01 X-35.8173 Y69.5146 
G01 X-37.0036 Y70.7009 
G01 X-44.0309 Y70.7009 
G01 X-44.0309 Y68.6221 
G01 X-43.9562 Y68.5721 
G01 X-43.8483 Y68.4642 
G01 X-43.7635 Y68.3374 
G01 X-43.7051 Y68.1964 
G01 X-43.6753 Y68.0467 
G01 X-43.6753 Y66.5733 
G01 X-43.7051 Y66.4236 
G01 X-43.7635 Y66.2826 
G01 X-43.8483 Y66.1558 
G01 X-43.9562 Y66.0478 
G01 X-44.0830 Y65.9631 
G01 X-44.2240 Y65.9047 
G01 X-44.3737 Y65.8749 
G01 X-44.5263 Y65.8749 
G01 X-44.6760 Y65.9047 
G01 X-44.8170 Y65.9631 
G01 X-44.9438 Y66.0478 
G01 X-45.0517 Y66.1558 
G01 X-45.1365 Y66.2826 
G01 X-45.1949 Y66.4236 
G01 X-45.2247 Y66.5733 
G01 X-45.2247 Y68.0467 
G01 X-45.1949 Y68.1964 
G01 X-45.1365 Y68.3374 
G01 X-45.0517 Y68.4642 
G01 X-44.9438 Y68.5721 
G01 X-44.8691 Y68.6221 
G01 X-44.8691 Y74.1561 
G01 X-45.0086 Y74.2493 
G01 X-45.1307 Y74.3714 
G01 X-45.2266 Y74.5149 
G01 X-45.2926 Y74.6744 
G01 X-45.3263 Y74.8437 
G00 Z1.0000 
G00 X-32.6263 Y72.0270 
G01 Z-0.1778 F250.00 
G01 X-32.6263 Y72.7530 F250.00 
G01 X-32.1130 Y73.2663 
G01 X-31.3870 Y73.2663 
G01 X-30.9298 Y72.8091 
G01 X-29.8275 Y72.8091 
G01 X-29.8275 Y72.9159 
G01 X-29.8101 Y72.9579 
G01 X-29.7779 Y72.9901 
G01 X-29.7359 Y73.0075 
G01 X-28.6841 Y73.0075 
G01 X-28.6421 Y72.9901 
G01 X-28.6099 Y72.9579 
G01 X-28.5925 Y72.9159 
G01 X-28.5925 Y71.8641 
G01 X-28.6099 Y71.8221 
G01 X-28.6421 Y71.7899 
G01 X-28.6841 Y71.7725 
G01 X-29.7359 Y71.7725 
G01 X-29.7779 Y71.7899 
G01 X-29.8101 Y71.8221 
G01 X-29.8275 Y71.8641 
G01 X-29.8275 Y71.9709 
G01 X-30.9298 Y71.9709 
G01 X-31.3870 Y71.5137 
G01 X-32.1130 Y71.5137 
G01 X-32.6263 Y72.0270 
G00 Z1.0000 
G00 X-42.6847 Y50.7237 
G01 Z-0.1778 F250.00 
G01 X-42.6847 Y50.8763 F250.00 
G01 X-42.6549 Y51.0260 
G01 X-42.5965 Y51.1670 
G01 X-42.5117 Y51.2938 
G01 X-42.4038 Y51.4017 
G01 X-42.3291 Y51.4517 
G01 X-42.3291 Y55.0059 
G01 X-42.8244 Y55.5012 
G01 X-42.8244 Y56.2588 
G01 X-42.3291 Y56.7541 
G01 X-42.3291 Y58.3779 
G01 X-42.4038 Y58.4278 
G01 X-42.5117 Y58.5358 
G01 X-42.5965 Y58.6626 
G01 X-42.6549 Y58.8036 
G01 X-42.6847 Y58.9533 
G01 X-42.6847 Y60.4267 
G01 X-42.6549 Y60.5764 
G01 X-42.5965 Y60.7174 
G01 X-42.5117 Y60.8442 
G01 X-42.4038 Y60.9521 
G01 X-42.2770 Y61.0369 
G01 X-42.1360 Y61.0953 
G01 X-41.9863 Y61.1251 
G01 X-41.8337 Y61.1251 
G01 X-41.6840 Y61.0953 
G01 X-41.5430 Y61.0369 
G01 X-41.4162 Y60.9521 
G01 X-41.3083 Y60.8442 
G01 X-41.2235 Y60.7174 
G01 X-41.1651 Y60.5764 
G01 X-41.1353 Y60.4267 
G01 X-41.1353 Y58.9533 
G01 X-41.1651 Y58.8036 
G01 X-41.2235 Y58.6626 
G01 X-41.3083 Y58.5358 
G01 X-41.4162 Y58.4278 
G01 X-41.4909 Y58.3779 
G01 X-41.4909 Y56.7541 
G01 X-40.9956 Y56.2588 
G01 X-40.9956 Y55.5012 
G01 X-41.4909 Y55.0059 
G01 X-41.4909 Y51.4517 
G01 X-41.4162 Y51.4017 
G01 X-41.3083 Y51.2938 
G01 X-41.2235 Y51.1670 
G01 X-41.1651 Y51.0260 
G01 X-41.1353 Y50.8763 
G01 X-41.1353 Y50.7237 
G01 X-41.1651 Y50.5740 
G01 X-41.2235 Y50.4330 
G01 X-41.3083 Y50.3062 
G01 X-41.4162 Y50.1983 
G01 X-41.5430 Y50.1135 
G01 X-41.6840 Y50.0551 
G01 X-41.8337 Y50.0253 
G01 X-41.9863 Y50.0253 
G01 X-42.1360 Y50.0551 
G01 X-42.2770 Y50.1135 
G01 X-42.4038 Y50.1983 
G01 X-42.5117 Y50.3062 
G01 X-42.5965 Y50.4330 
G01 X-42.6549 Y50.5740 
G01 X-42.6847 Y50.7237 
G00 Z1.0000 
G00 X-35.0825 Y63.0555 
G01 Z-0.1778 F250.00 
G01 X-33.4975 Y63.0555 F250.00 
G01 X-33.3380 Y63.0238 
G01 X-33.1878 Y62.9615 
G01 X-33.0526 Y62.8712 
G01 X-32.9376 Y62.7562 
G01 X-32.8473 Y62.6210 
G01 X-32.7850 Y62.4708 
G01 X-32.7533 Y62.3113 
G01 X-32.7533 Y62.1487 
G01 X-32.7850 Y61.9892 
G01 X-32.8473 Y61.8390 
G01 X-32.9376 Y61.7038 
G01 X-33.0526 Y61.5888 
G01 X-33.1878 Y61.4985 
G01 X-33.3380 Y61.4362 
G01 X-33.4975 Y61.4045 
G01 X-33.8709 Y61.4045 
G01 X-33.8709 Y47.4091 
G01 X-30.8991 Y47.4091 
G01 X-30.8991 Y50.1235 
G01 X-31.2547 Y50.4791 
G01 X-31.2547 Y51.1209 
G01 X-30.8009 Y51.5747 
G01 X-30.1591 Y51.5747 
G01 X-29.7053 Y51.1209 
G01 X-29.7053 Y50.4791 
G01 X-30.0609 Y50.1235 
G01 X-30.0609 Y47.4091 
G01 X-28.3591 Y47.4091 
G01 X-28.3591 Y62.6439 
G01 X-28.8417 Y63.1265 
G01 X-28.8417 Y63.8735 
G01 X-28.3591 Y64.3561 
G01 X-28.3591 Y74.5109 
G01 X-30.9298 Y74.5109 
G01 X-31.3870 Y74.0537 
G01 X-32.1130 Y74.0537 
G01 X-32.6263 Y74.5670 
G01 X-32.6263 Y75.2930 
G01 X-32.1130 Y75.8063 
G01 X-31.3870 Y75.8063 
G01 X-30.9298 Y75.3491 
G01 X-27.8848 Y75.3491 
G01 X-27.7782 Y75.3205 
G01 X-27.6827 Y75.2654 
G01 X-27.6046 Y75.1873 
G01 X-27.5495 Y75.0918 
G01 X-27.5209 Y74.9852 
G01 X-27.5209 Y64.3561 
G01 X-27.0383 Y63.8735 
G01 X-27.0383 Y63.1265 
G01 X-27.5209 Y62.6439 
G01 X-27.5209 Y46.9348 
G01 X-27.5495 Y46.8282 
G01 X-27.6046 Y46.7327 
G01 X-27.6827 Y46.6546 
G01 X-27.7782 Y46.5995 
G01 X-27.8848 Y46.5709 
G01 X-52.1252 Y46.5709 
G01 X-52.2318 Y46.5995 
G01 X-52.3273 Y46.6546 
G01 X-52.4054 Y46.7327 
G01 X-52.4605 Y46.8282 
G01 X-52.4891 Y46.9348 
G01 X-52.4891 Y73.5060 
G01 X-52.5962 Y73.5776 
G01 X-52.7112 Y73.6926 
G01 X-52.8015 Y73.8278 
G01 X-52.8638 Y73.9780 
G01 X-52.8955 Y74.1375 
G01 X-52.8955 Y75.7225 
G01 X-52.8638 Y75.8820 
G01 X-52.8015 Y76.0322 
G01 X-52.7112 Y76.1674 
G01 X-52.5962 Y76.2824 
G01 X-52.4610 Y76.3727 
G01 X-52.3108 Y76.4350 
G01 X-52.1513 Y76.4667 
G01 X-51.9887 Y76.4667 
G01 X-51.8292 Y76.4350 
G01 X-51.6790 Y76.3727 
G01 X-51.5438 Y76.2824 
G01 X-51.4288 Y76.1674 
G01 X-51.3385 Y76.0322 
G01 X-51.2762 Y75.8820 
G01 X-51.2445 Y75.7225 
G01 X-51.2445 Y74.1375 
G01 X-51.2762 Y73.9780 
G01 X-51.3385 Y73.8278 
G01 X-51.4288 Y73.6926 
G01 X-51.5438 Y73.5776 
G01 X-51.6509 Y73.5060 
G01 X-51.6509 Y61.4022 
G01 X-51.1788 Y61.8744 
G01 X-50.4212 Y61.8744 
G01 X-49.9259 Y61.3791 
G01 X-46.9348 Y61.3791 
G01 X-46.8282 Y61.3505 
G01 X-46.7327 Y61.2954 
G01 X-46.6546 Y61.2173 
G01 X-46.5995 Y61.1218 
G01 X-46.5709 Y61.0152 
G01 X-46.5709 Y61.0021 
G01 X-46.4962 Y60.9521 
G01 X-46.3882 Y60.8442 
G01 X-46.3035 Y60.7174 
G01 X-46.2451 Y60.5764 
G01 X-46.2153 Y60.4267 
G01 X-46.2153 Y58.9533 
G01 X-46.2451 Y58.8036 
G01 X-46.3035 Y58.6626 
G01 X-46.3882 Y58.5358 
G01 X-46.4962 Y58.4278 
G01 X-46.5709 Y58.3779 
G01 X-46.5709 Y56.7541 
G01 X-46.0756 Y56.2588 
G01 X-46.0756 Y55.5012 
G01 X-46.6112 Y54.9656 
G01 X-47.3688 Y54.9656 
G01 X-47.9044 Y55.5012 
G01 X-47.9044 Y56.2588 
G01 X-47.4091 Y56.7541 
G01 X-47.4091 Y58.3779 
G01 X-47.4838 Y58.4278 
G01 X-47.5917 Y58.5358 
G01 X-47.6765 Y58.6626 
G01 X-47.7349 Y58.8036 
G01 X-47.7647 Y58.9533 
G01 X-47.7647 Y60.4267 
G01 X-47.7420 Y60.5409 
G01 X-49.9259 Y60.5409 
G01 X-50.4212 Y60.0456 
G01 X-51.1788 Y60.0456 
G01 X-51.6509 Y60.5177 
G01 X-51.6509 Y56.3222 
G01 X-51.1788 Y56.7944 
G01 X-50.4212 Y56.7944 
G01 X-49.8856 Y56.2588 
G01 X-49.8856 Y55.5012 
G01 X-50.3809 Y55.0059 
G01 X-50.3809 Y51.2191 
G01 X-47.6417 Y51.2191 
G01 X-47.5917 Y51.2938 
G01 X-47.4838 Y51.4017 
G01 X-47.3570 Y51.4865 
G01 X-47.2160 Y51.5449 
G01 X-47.0663 Y51.5747 
G01 X-46.9137 Y51.5747 
G01 X-46.7640 Y51.5449 
G01 X-46.6230 Y51.4865 
G01 X-46.4962 Y51.4017 
G01 X-46.3882 Y51.2938 
G01 X-46.3383 Y51.2191 
G01 X-44.8691 Y51.2191 
G01 X-44.8691 Y58.3779 
G01 X-44.9438 Y58.4278 
G01 X-45.0517 Y58.5358 
G01 X-45.1365 Y58.6626 
G01 X-45.1949 Y58.8036 
G01 X-45.2247 Y58.9533 
G01 X-45.2247 Y60.4267 
G01 X-45.1949 Y60.5764 
G01 X-45.1365 Y60.7174 
G01 X-45.0517 Y60.8442 
G01 X-44.9438 Y60.9521 
G01 X-44.8170 Y61.0369 
G01 X-44.6760 Y61.0953 
G01 X-44.5263 Y61.1251 
G01 X-44.3737 Y61.1251 
G01 X-44.2240 Y61.0953 
G01 X-44.0830 Y61.0369 
G01 X-43.9562 Y60.9521 
G01 X-43.8483 Y60.8442 
G01 X-43.7635 Y60.7174 
G01 X-43.7051 Y60.5764 
G01 X-43.6753 Y60.4267 
G01 X-43.6753 Y58.9533 
G01 X-43.7051 Y58.8036 
G01 X-43.7635 Y58.6626 
G01 X-43.8483 Y58.5358 
G01 X-43.9562 Y58.4278 
G01 X-44.0309 Y58.3779 
G01 X-44.0309 Y50.7448 
G01 X-44.0595 Y50.6382 
G01 X-44.1146 Y50.5427 
G01 X-44.1927 Y50.4646 
G01 X-44.2882 Y50.4095 
G01 X-44.3948 Y50.3809 
G01 X-46.3383 Y50.3809 
G01 X-46.3882 Y50.3062 
G01 X-46.4962 Y50.1983 
G01 X-46.6230 Y50.1135 
G01 X-46.7640 Y50.0551 
G01 X-46.9137 Y50.0253 
G01 X-47.0663 Y50.0253 
G01 X-47.2160 Y50.0551 
G01 X-47.3570 Y50.1135 
G01 X-47.4838 Y50.1983 
G01 X-47.5917 Y50.3062 
G01 X-47.6417 Y50.3809 
G01 X-50.8552 Y50.3809 
G01 X-50.9618 Y50.4095 
G01 X-51.0573 Y50.4646 
G01 X-51.1354 Y50.5427 
G01 X-51.1905 Y50.6382 
G01 X-51.2191 Y50.7448 
G01 X-51.2191 Y55.0059 
G01 X-51.6509 Y55.4378 
G01 X-51.6509 Y47.4091 
G01 X-34.7091 Y47.4091 
G01 X-34.7091 Y61.4045 
G01 X-35.0825 Y61.4045 
G01 X-35.2420 Y61.4362 
G01 X-35.3922 Y61.4985 
G01 X-35.5274 Y61.5888 
G01 X-35.6424 Y61.7038 
G01 X-35.7327 Y61.8390 
G01 X-35.7950 Y61.9892 
G01 X-35.8267 Y62.1487 
G01 X-35.8267 Y62.3113 
G01 X-35.7950 Y62.4708 
G01 X-35.7327 Y62.6210 
G01 X-35.6424 Y62.7562 
G01 X-35.5274 Y62.8712 
G01 X-35.3922 Y62.9615 
G01 X-35.2420 Y63.0238 
G01 X-35.0825 Y63.0555 
G00 Z1.0000 
G82 X-36.8300 Y74.9300 Z-0.2794 F250.00 R5.0000 P1.000000
G82 X-36.8300 Y62.2300 
G82 X-41.9100 Y69.8500 
G82 X-41.9100 Y69.8500 
G82 X-41.9100 Y72.3900 
G82 X-29.2100 Y72.3900 
G82 X-29.2100 Y77.4700 
G82 X-29.2100 Y72.3900 
G82 X-29.2100 Y77.4700 
G82 X-36.8300 Y62.2300 
G82 X-36.8300 Y74.9300 
G82 X-30.4800 Y53.3400 
G82 X-30.4800 Y50.8000 
G82 X-30.4800 Y63.5000 
G82 X-27.9400 Y63.5000 
G82 X-50.8000 Y55.8800 
G82 X-50.8000 Y60.9600 
G82 X-41.9100 Y55.8800 
G82 X-46.9900 Y55.8800 
G82 X-39.3700 Y59.6900 
G82 X-41.9100 Y59.6900 
G82 X-44.4500 Y59.6900 
G82 X-46.9900 Y59.6900 
G82 X-46.9900 Y67.3100 
G82 X-44.4500 Y67.3100 
G82 X-41.9100 Y67.3100 
G82 X-39.3700 Y67.3100 
G82 X-34.2900 Y69.8500 
G82 X-31.7500 Y69.8500 
G82 X-34.2900 Y72.3900 
G82 X-31.7500 Y72.3900 
G82 X-34.2900 Y74.9300 
G82 X-31.7500 Y74.9300 
G82 X-52.0700 Y74.9300 
G82 X-49.5300 Y74.9300 
G82 X-39.3700 Y74.9300 
G82 X-41.9100 Y74.9300 
G82 X-44.4500 Y74.9300 
G82 X-46.9900 Y74.9300 
G82 X-34.2900 Y62.2300 
G82 X-34.2900 Y64.7700 
G82 X-46.9900 Y50.8000 
G82 X-41.9100 Y50.8000 
G82 X-31.7500 Y57.1500 
G82 X-39.3700 Y57.1500 
M05
M02
