(.../pcb-gcode-3.6.0.4/pcb-gcode.ulp)
(Copyright 2005 - 2012 by John Johnson)
(See readme.txt for licensing terms.)
(This file generated from the board:)
(.../attiny45-microcontrol-v3.0.brd)
(Current profile is .../pcb-gcode-3.6.0.4/profiles/emc.pp  )
(This file generated 04.09.13 00:53)
(Settings from pcb-machine.h)
(  Tool Size)
(0.3000 )
(Z Axis Settings)
(  High     Up        Down     Drill)
(1.0000 	1.0000 	-0.1700 	-0.2000 )
(spindle on time = 0.0000)
(milling depth = -0.1700)
(text depth = -0.1270)
(tool change at 12.7000 15.2400 25.4000 )
(feed rate xy = F250.00 )
(feed rate z  = F250.00 )
(Settings from pcb-defaults.h)
(isolate min = 0.0001)
(isolate max = 0.5080)
(isolate step = 0.1270)
(Generated bottom outlines, bottom drill, )
(Unit of measure: mm)
( Tool|       Size       |  Min Sub |  Max Sub |   Count )
( T01 | 0.600mm 0.0236in | 0.0000in | 0.0000in |       0 )
( T02 | 0.813mm 0.0320in | 0.0000in | 0.0000in |       0 )
( T03 | 1.016mm 0.0400in | 0.0000in | 0.0000in |       0 )
(Metric Mode)
G21
(Absolute Coordinates)
G90
M05
G00 Z25.4000 
G00 X12.7000 Y15.2400 
M06 T01 (0.6000 )
G01 Z0.0000 F250.00 
M06 T01 (0.6000 )
G00 Z1.0000 
M03
G04 P0.000000
G82 X-7.6200 Y8.8900 Z-0.2000 F250.00 R1.0000 P0.000000
G82 X-10.1600 Y19.0500 
G82 X-10.1600 Y26.6700 
G82 X-12.7000 Y24.1300 
G82 X-15.2400 Y8.8900 
G82 X-17.7800 Y24.1300 
M05
G00 Z25.4000 
M06 T02 (0.8128 )
G01 Z0.0000 F250.00 
M06 T02 (0.8128 )
G00 Z1.0000 
M03
G04 P0.000000
G82 X-3.8100 Y31.7500 Z-0.2000 F250.00 R1.0000 P0.000000
G82 X-3.8100 Y34.2900 
G82 X-3.8100 Y29.2100 
G82 X-5.0800 Y8.8900 
G82 X-7.6200 Y31.7500 
G82 X-7.6200 Y6.3500 
G82 X-7.6200 Y24.1300 
G82 X-10.1600 Y31.7500 
G82 X-10.1600 Y6.3500 
G82 X-10.1600 Y29.2100 
G82 X-13.9700 Y31.7500 
G82 X-13.9700 Y34.2900 
G82 X-13.9700 Y29.2100 
G82 X-15.2400 Y13.9700 
G82 X-15.2400 Y21.5900 
G82 X-17.7800 Y31.7500 
G82 X-17.7800 Y5.0800 
G82 X-17.7800 Y10.1600 
G82 X-17.7800 Y13.9700 
G82 X-17.7800 Y21.5900 
G82 X-17.7800 Y29.2100 
G82 X-20.3200 Y31.7500 
G82 X-20.3200 Y13.9700 
G82 X-20.3200 Y21.5900 
G82 X-20.3200 Y24.1300 
G82 X-22.8600 Y31.7500 
G82 X-22.8600 Y5.0800 
G82 X-22.8600 Y10.1600 
G82 X-22.8600 Y13.9700 
G82 X-22.8600 Y21.5900 
G82 X-22.8600 Y24.1300 
G82 X-2.5400 Y8.8900 
G82 X-25.4000 Y31.7500 
G82 X-25.4000 Y34.2900 
G82 X-25.4000 Y29.2100 
G82 X-26.6700 Y8.8900 
G82 X-26.6700 Y13.9700 
G82 X-26.6700 Y19.0500 
G82 X-29.2100 Y31.7500 
G82 X-29.2100 Y19.0500 
G82 X-29.2100 Y29.2100 
M05
G00 Z25.4000 
M06 T03 (1.0160 )
G01 Z0.0000 F250.00 
M06 T03 (1.0160 )
G00 Z1.0000 
M03
G04 P0.000000
G82 X-5.0800 Y26.6700 Z-0.2000 F250.00 R1.0000 P0.000000
G82 X-6.3500 Y2.5400 
G82 X-7.6200 Y34.2900 
G82 X-7.6200 Y11.4300 
G82 X-7.6200 Y13.9700 
G82 X-7.6200 Y16.5100 
G82 X-10.1600 Y11.4300 
G82 X-10.1600 Y13.9700 
G82 X-10.1600 Y16.5100 
G82 X-12.7000 Y5.0800 
G82 X-15.2400 Y5.0800 
G82 X-15.2400 Y26.6700 
G82 X-17.7800 Y34.2900 
G82 X-2.5400 Y2.5400 
G82 X-26.6700 Y5.0800 
G82 X-26.6700 Y26.6700 
G82 X-29.2100 Y34.2900 
T01 
M05
M02
