(.../pcb-gcode-3.6.0.4/pcb-gcode.ulp)
(Copyright 2005 - 2012 by John Johnson)
(See readme.txt for licensing terms.)
(This file generated from the board:)
(.../eagle/attiny45-microcontrol.brd)
(Current profile is .../pcb-gcode-3.6.0.4/profiles/emc.pp  )
(This file generated 10.06.13 22:21)
(Settings from pcb-machine.h)
(  Tool Size)
(0.2000 )
(Z Axis Settings)
(  High     Up        Down     Drill)
(1.0000 	1.0000 	-0.1700 	-0.2000 )
(spindle on time = 0.0000)
(milling depth = -0.1700)
(text depth = -0.1270)
(tool change at 12.7000 15.2400 25.4000 )
(feed rate xy = F250.00 )
(feed rate z  = F250.00 )
(Settings from pcb-defaults.h)
(isolate min = 0.0001)
(isolate max = 0.5080)
(isolate step = 0.1270)
(Generated bottom outlines, bottom drill, )
(Unit of measure: mm)
(Metric Mode)
G21
(Absolute Coordinates)
G90
G00 X0.0000 Y0.0000 
M03
G04 P0.000000
G00 Z1.0000 
G00 X-9.4781 Y11.9899 
G01 Z-0.1700 F250.00 
G01 X-9.4499 Y12.0181 F250.00 
G01 X-9.4489 Y12.0185 
G01 X-9.4072 Y12.0602 
G01 X-9.2743 Y12.1490 
G01 X-9.1266 Y12.2101 
G01 X-8.9699 Y12.2413 
G01 X-8.8101 Y12.2413 
G01 X-8.6533 Y12.2101 
G01 X-8.5057 Y12.1490 
G01 X-8.3728 Y12.0602 
G01 X-8.3311 Y12.0185 
G01 X-8.3019 Y11.9899 
G01 X-8.2598 Y11.9472 
G01 X-8.1710 Y11.8143 
G01 X-8.1099 Y11.6666 
G01 X-8.0787 Y11.5099 
G01 X-8.0787 Y9.7013 
G01 X-6.2701 Y9.7013 
G01 X-6.1134 Y9.6701 
G01 X-6.0660 Y9.6505 
G01 X-6.0350 Y9.6505 
G01 X-6.0131 Y9.6286 
G01 X-5.9657 Y9.6090 
G01 X-5.8328 Y9.5202 
G01 X-5.7198 Y9.4072 
G01 X-5.6310 Y9.2743 
G01 X-5.6114 Y9.2269 
G01 X-5.5895 Y9.2050 
G01 X-5.5895 Y9.1740 
G01 X-5.5699 Y9.1266 
G01 X-5.5387 Y8.9699 
G01 X-5.5387 Y6.7105 
G01 X-5.4966 Y6.6089 
G01 X-5.4625 Y6.4374 
G01 X-5.4625 Y6.2626 
G01 X-5.4966 Y6.0911 
G01 X-5.5635 Y5.9296 
G01 X-5.6606 Y5.7843 
G01 X-5.7843 Y5.6606 
G01 X-5.9296 Y5.5635 
G01 X-6.0911 Y5.4966 
G01 X-6.2626 Y5.4625 
G01 X-6.4374 Y5.4625 
G01 X-6.6089 Y5.4966 
G01 X-6.7704 Y5.5635 
G01 X-6.9157 Y5.6606 
G01 X-7.0394 Y5.7843 
G01 X-7.1365 Y5.9296 
G01 X-7.2034 Y6.0911 
G01 X-7.2375 Y6.2626 
G01 X-7.2375 Y6.4374 
G01 X-7.2034 Y6.6089 
G01 X-7.1613 Y6.7105 
G01 X-7.1613 Y8.0787 
G01 X-10.6187 Y8.0787 
G01 X-10.6187 Y6.2701 
G01 X-10.6499 Y6.1134 
G01 X-10.6695 Y6.0660 
G01 X-10.6695 Y6.0350 
G01 X-10.6914 Y6.0131 
G01 X-10.7110 Y5.9657 
G01 X-10.7998 Y5.8328 
G01 X-10.9128 Y5.7198 
G01 X-11.0457 Y5.6310 
G01 X-11.0931 Y5.6114 
G01 X-11.1150 Y5.5895 
G01 X-11.1460 Y5.5895 
G01 X-11.1934 Y5.5699 
G01 X-11.3501 Y5.5387 
G01 X-11.5099 Y5.5387 
G01 X-11.6666 Y5.5699 
G01 X-11.7140 Y5.5895 
G01 X-11.7450 Y5.5895 
G01 X-11.7669 Y5.6114 
G01 X-11.8143 Y5.6310 
G01 X-11.9472 Y5.7198 
G01 X-12.0602 Y5.8328 
G01 X-12.1490 Y5.9657 
G01 X-12.1686 Y6.0131 
G01 X-12.1905 Y6.0350 
G01 X-12.1905 Y6.0660 
G01 X-12.2101 Y6.1134 
G01 X-12.2413 Y6.2701 
G01 X-12.2413 Y8.9699 
G01 X-12.2101 Y9.1266 
G01 X-12.1490 Y9.2743 
G01 X-12.0602 Y9.4072 
G01 X-11.9472 Y9.5202 
G01 X-11.8143 Y9.6090 
G01 X-11.6666 Y9.6701 
G01 X-11.5099 Y9.7013 
G01 X-9.7013 Y9.7013 
G01 X-9.7013 Y11.5099 
G01 X-9.6701 Y11.6666 
G01 X-9.6090 Y11.8143 
G01 X-9.5202 Y11.9472 
G01 X-9.4785 Y11.9889 
G00 Z1.0000 
G00 X-20.2296 Y31.2614 
G01 Z-0.1700 F250.00 
G01 X-20.2296 Y32.2386 F250.00 
G01 X-19.8613 Y32.6069 
G01 X-19.8613 Y33.2247 
G01 X-26.8747 Y33.2247 
G01 X-26.8747 Y32.3529 
G01 X-26.7604 Y32.2386 
G01 X-26.7604 Y31.2614 
G01 X-26.8747 Y31.1471 
G01 X-26.8747 Y13.5113 
G01 X-25.8618 Y13.5113 
G01 X-25.7729 Y13.6002 
G01 X-25.0271 Y13.6002 
G01 X-24.9382 Y13.5113 
G01 X-22.3354 Y13.5113 
G01 X-22.3213 Y13.5822 
G01 X-22.2639 Y13.7206 
G01 X-22.1807 Y13.8452 
G01 X-22.0748 Y13.9511 
G01 X-21.9502 Y14.0343 
G01 X-21.8118 Y14.0917 
G01 X-21.6649 Y14.1209 
G01 X-21.5151 Y14.1209 
G01 X-21.3682 Y14.0917 
G01 X-21.2298 Y14.0343 
G01 X-21.1052 Y13.9511 
G01 X-20.9993 Y13.8452 
G01 X-20.9161 Y13.7206 
G01 X-20.8587 Y13.5822 
G01 X-20.8295 Y13.4353 
G01 X-20.8295 Y12.9840 
G01 X-20.8099 Y12.9366 
G01 X-20.7787 Y12.7799 
G01 X-20.7787 Y9.3518 
G01 X-20.6898 Y9.2629 
G01 X-20.6898 Y8.5171 
G01 X-21.2171 Y7.9898 
G01 X-21.9629 Y7.9898 
G01 X-22.4902 Y8.5171 
G01 X-22.4902 Y9.2629 
G01 X-22.4013 Y9.3518 
G01 X-22.4013 Y11.8887 
G01 X-24.9382 Y11.8887 
G01 X-25.0271 Y11.7998 
G01 X-25.7729 Y11.7998 
G01 X-25.8618 Y11.8887 
G01 X-26.8747 Y11.8887 
G01 X-26.8747 Y2.3353 
G01 X-12.4953 Y2.3353 
G01 X-12.4953 Y3.8938 
G01 X-12.4691 Y4.0595 
G01 X-12.4173 Y4.2189 
G01 X-12.3411 Y4.3683 
G01 X-12.2426 Y4.5040 
G01 X-12.1240 Y4.6226 
G01 X-11.9883 Y4.7211 
G01 X-11.8389 Y4.7973 
G01 X-11.6795 Y4.8491 
G01 X-11.5138 Y4.8753 
G01 X-4.6213 Y4.8753 
G01 X-4.6213 Y17.3721 
G01 X-4.6721 Y17.4229 
G01 X-4.6721 Y18.1371 
G01 X-4.1671 Y18.6421 
G01 X-3.4529 Y18.6421 
G01 X-2.9479 Y18.1371 
G01 X-2.9479 Y17.4229 
G01 X-2.9987 Y17.3721 
G01 X-2.9987 Y4.5053 
G01 X-2.8989 Y4.3683 
G01 X-2.8227 Y4.2189 
G01 X-2.7709 Y4.0595 
G01 X-2.7447 Y3.8938 
G01 X-2.7447 Y3.7262 
G01 X-2.7709 Y3.5605 
G01 X-2.8227 Y3.4011 
G01 X-2.8989 Y3.2517 
G01 X-2.9974 Y3.1160 
G01 X-3.1160 Y2.9974 
G01 X-3.2517 Y2.8989 
G01 X-3.4011 Y2.8227 
G01 X-3.5605 Y2.7709 
G01 X-3.7262 Y2.7447 
G01 X-10.3647 Y2.7447 
G01 X-10.3647 Y1.1862 
G01 X-10.3909 Y1.0205 
G01 X-10.4427 Y0.8611 
G01 X-10.5189 Y0.7117 
G01 X-10.6174 Y0.5760 
G01 X-10.7360 Y0.4574 
G01 X-10.8717 Y0.3589 
G01 X-11.0211 Y0.2827 
G01 X-11.1805 Y0.2309 
G01 X-11.3462 Y0.2047 
G01 X-28.0238 Y0.2047 
G01 X-28.1895 Y0.2309 
G01 X-28.3489 Y0.2827 
G01 X-28.4983 Y0.3589 
G01 X-28.6340 Y0.4574 
G01 X-28.7526 Y0.5760 
G01 X-28.8511 Y0.7117 
G01 X-28.9273 Y0.8611 
G01 X-28.9791 Y1.0205 
G01 X-29.0053 Y1.1862 
G01 X-29.0053 Y31.1471 
G01 X-29.1196 Y31.2614 
G01 X-29.1196 Y32.2386 
G01 X-29.0053 Y32.3529 
G01 X-29.0053 Y34.3738 
G01 X-28.9791 Y34.5395 
G01 X-28.9273 Y34.6989 
G01 X-28.8511 Y34.8483 
G01 X-28.7526 Y34.9840 
G01 X-28.6340 Y35.1026 
G01 X-28.4983 Y35.2011 
G01 X-28.3489 Y35.2773 
G01 X-28.1895 Y35.3291 
G01 X-28.0238 Y35.3553 
G01 X-10.0762 Y35.3553 
G01 X-9.9105 Y35.3291 
G01 X-9.7511 Y35.2773 
G01 X-9.6017 Y35.2011 
G01 X-9.4660 Y35.1026 
G01 X-9.3474 Y34.9840 
G01 X-9.2489 Y34.8483 
G01 X-9.1727 Y34.6989 
G01 X-9.1209 Y34.5395 
G01 X-9.0947 Y34.3738 
G01 X-9.0947 Y34.2062 
G01 X-9.1209 Y34.0405 
G01 X-9.1727 Y33.8811 
G01 X-9.2489 Y33.7317 
G01 X-9.3474 Y33.5960 
G01 X-9.3487 Y32.6069 
G01 X-8.9804 Y32.2386 
G01 X-8.9804 Y31.2614 
G01 X-9.6714 Y30.5704 
G01 X-10.6486 Y30.5704 
G01 X-11.3396 Y31.2614 
G01 X-11.3396 Y32.2386 
G01 X-10.9713 Y32.6069 
G01 X-10.9713 Y33.2247 
G01 X-18.2387 Y33.2247 
G01 X-18.2387 Y32.6069 
G01 X-17.8704 Y32.2386 
G01 X-17.8704 Y31.2614 
G01 X-18.5614 Y30.5704 
G01 X-19.5386 Y30.5704 
G01 X-20.2296 Y31.2614 
G00 Z1.0000 
G00 X-16.4196 Y31.2614 
G01 Z-0.1700 F250.00 
G01 X-16.4196 Y32.2386 F250.00 
G01 X-15.7286 Y32.9296 
G01 X-14.7514 Y32.9296 
G01 X-14.0604 Y32.2386 
G01 X-14.0604 Y31.2913 
G01 X-12.6201 Y31.2913 
G01 X-12.4634 Y31.2601 
G01 X-12.4160 Y31.2405 
G01 X-11.9647 Y31.2405 
G01 X-11.8178 Y31.2113 
G01 X-11.6794 Y31.1539 
G01 X-11.5548 Y31.0707 
G01 X-11.4489 Y30.9648 
G01 X-11.3657 Y30.8402 
G01 X-11.3083 Y30.7018 
G01 X-11.2791 Y30.5549 
G01 X-11.2791 Y30.4051 
G01 X-11.3083 Y30.2582 
G01 X-11.3657 Y30.1198 
G01 X-11.4489 Y29.9952 
G01 X-11.5548 Y29.8893 
G01 X-11.6794 Y29.8061 
G01 X-11.8178 Y29.7487 
G01 X-11.9647 Y29.7195 
G01 X-12.4160 Y29.7195 
G01 X-12.4634 Y29.6999 
G01 X-12.6201 Y29.6687 
G01 X-15.3199 Y29.6687 
G01 X-15.4766 Y29.6999 
G01 X-15.6243 Y29.7610 
G01 X-15.7572 Y29.8498 
G01 X-15.8702 Y29.9628 
G01 X-15.9590 Y30.0957 
G01 X-16.0201 Y30.2434 
G01 X-16.0513 Y30.4001 
G01 X-16.0513 Y30.8931 
G01 X-16.4196 Y31.2614 
G00 Z1.0000 
G00 X-19.8105 Y23.1750 
G01 Z-0.1700 F250.00 
G01 X-19.7886 Y23.1969 F250.00 
G01 X-19.7690 Y23.2443 
G01 X-19.6802 Y23.3772 
G01 X-19.5672 Y23.4902 
G01 X-19.4343 Y23.5790 
G01 X-19.3869 Y23.5986 
G01 X-19.3650 Y23.6205 
G01 X-19.3340 Y23.6205 
G01 X-19.2866 Y23.6401 
G01 X-19.1299 Y23.6713 
G01 X-18.9701 Y23.6713 
G01 X-18.8133 Y23.6401 
G01 X-18.7660 Y23.6205 
G01 X-18.7350 Y23.6205 
G01 X-18.7131 Y23.5986 
G01 X-18.6657 Y23.5790 
G01 X-18.5328 Y23.4902 
G01 X-18.4198 Y23.3772 
G01 X-18.3310 Y23.2443 
G01 X-18.3114 Y23.1969 
G01 X-18.2895 Y23.1750 
G01 X-18.2895 Y23.1440 
G01 X-18.2699 Y23.0966 
G01 X-18.2387 Y22.9399 
G01 X-18.2387 Y20.2401 
G01 X-18.2699 Y20.0833 
G01 X-18.2895 Y20.0360 
G01 X-18.2895 Y19.5847 
G01 X-18.3187 Y19.4378 
G01 X-18.3761 Y19.2994 
G01 X-18.4593 Y19.1748 
G01 X-18.5435 Y19.0906 
G01 X-18.5435 Y18.2865 
G01 X-11.9365 Y18.2865 
G01 X-11.9365 Y20.3867 
G01 X-11.9020 Y20.5155 
G01 X-11.8353 Y20.6310 
G01 X-11.7410 Y20.7253 
G01 X-11.6255 Y20.7920 
G01 X-11.4967 Y20.8265 
G01 X-9.5884 Y20.8265 
G01 X-9.5596 Y20.8696 
G01 X-9.4396 Y20.9896 
G01 X-9.2984 Y21.0840 
G01 X-9.1415 Y21.1490 
G01 X-8.9749 Y21.1821 
G01 X-8.8051 Y21.1821 
G01 X-8.6385 Y21.1490 
G01 X-8.4816 Y21.0840 
G01 X-8.3404 Y20.9896 
G01 X-8.2204 Y20.8696 
G01 X-8.1260 Y20.7284 
G01 X-8.0610 Y20.5715 
G01 X-8.0279 Y20.4049 
G01 X-8.0279 Y20.2351 
G01 X-8.0610 Y20.0685 
G01 X-8.1260 Y19.9116 
G01 X-8.2204 Y19.7704 
G01 X-8.3404 Y19.6504 
G01 X-8.4816 Y19.5560 
G01 X-8.6385 Y19.4910 
G01 X-8.8051 Y19.4579 
G01 X-8.9749 Y19.4579 
G01 X-9.1415 Y19.4910 
G01 X-9.2984 Y19.5560 
G01 X-9.4396 Y19.6504 
G01 X-9.5596 Y19.7704 
G01 X-9.5884 Y19.8135 
G01 X-10.9235 Y19.8135 
G01 X-10.9235 Y17.7133 
G01 X-10.9580 Y17.5845 
G01 X-11.0247 Y17.4690 
G01 X-11.1190 Y17.3747 
G01 X-11.2345 Y17.3080 
G01 X-11.3633 Y17.2735 
G01 X-19.1167 Y17.2735 
G01 X-19.2455 Y17.3080 
G01 X-19.3610 Y17.3747 
G01 X-19.4553 Y17.4690 
G01 X-19.5220 Y17.5845 
G01 X-19.5565 Y17.7133 
G01 X-19.5565 Y19.0906 
G01 X-19.6407 Y19.1748 
G01 X-19.7239 Y19.2994 
G01 X-19.7813 Y19.4378 
G01 X-19.8105 Y19.5847 
G01 X-19.8105 Y20.0360 
G01 X-19.8301 Y20.0833 
G01 X-19.8613 Y20.2401 
G01 X-19.8613 Y22.9399 
G01 X-19.8301 Y23.0966 
G01 X-19.8105 Y23.1440 
G01 X-19.8105 Y23.1750 
G00 Z1.0000 
G00 X-19.8105 Y27.6250 
G01 Z-0.1700 F250.00 
G01 X-19.8105 Y27.6560 F250.00 
G01 X-19.8301 Y27.7034 
G01 X-19.8613 Y27.8601 
G01 X-19.8613 Y28.0199 
G01 X-19.8301 Y28.1766 
G01 X-19.8105 Y28.2240 
G01 X-19.8105 Y28.2550 
G01 X-19.7886 Y28.2769 
G01 X-19.7690 Y28.3243 
G01 X-19.6802 Y28.4572 
G01 X-19.5672 Y28.5702 
G01 X-19.4343 Y28.6590 
G01 X-19.3869 Y28.6786 
G01 X-19.3650 Y28.7005 
G01 X-19.3340 Y28.7005 
G01 X-19.2866 Y28.7201 
G01 X-19.1299 Y28.7513 
G01 X-12.6201 Y28.7513 
G01 X-12.4634 Y28.7201 
G01 X-12.4160 Y28.7005 
G01 X-11.9647 Y28.7005 
G01 X-11.8178 Y28.6713 
G01 X-11.6794 Y28.6139 
G01 X-11.5548 Y28.5307 
G01 X-11.4489 Y28.4248 
G01 X-11.3657 Y28.3002 
G01 X-11.3083 Y28.1618 
G01 X-11.2791 Y28.0149 
G01 X-11.2791 Y27.8651 
G01 X-11.3083 Y27.7182 
G01 X-11.3657 Y27.5798 
G01 X-11.4489 Y27.4552 
G01 X-11.5548 Y27.3493 
G01 X-11.6794 Y27.2661 
G01 X-11.8178 Y27.2087 
G01 X-11.9647 Y27.1795 
G01 X-12.4160 Y27.1795 
G01 X-12.4634 Y27.1599 
G01 X-12.6201 Y27.1287 
G01 X-19.1299 Y27.1287 
G01 X-19.2866 Y27.1599 
G01 X-19.3340 Y27.1795 
G01 X-19.3650 Y27.1795 
G01 X-19.3869 Y27.2014 
G01 X-19.4343 Y27.2210 
G01 X-19.5672 Y27.3098 
G01 X-19.6802 Y27.4228 
G01 X-19.7690 Y27.5557 
G01 X-19.7886 Y27.6031 
G01 X-19.8105 Y27.6250 
G00 Z1.0000 
G00 X-3.0747 Y27.1795 
G01 Z-0.1700 F250.00 
G01 X-3.5260 Y27.1795 F250.00 
G01 X-3.5734 Y27.1599 
G01 X-3.7301 Y27.1287 
G01 X-7.6999 Y27.1287 
G01 X-7.8566 Y27.1599 
G01 X-7.9040 Y27.1795 
G01 X-7.9350 Y27.1795 
G01 X-7.9569 Y27.2014 
G01 X-8.0043 Y27.2210 
G01 X-8.1372 Y27.3098 
G01 X-8.2502 Y27.4228 
G01 X-8.3390 Y27.5557 
G01 X-8.3586 Y27.6031 
G01 X-8.3805 Y27.6250 
G01 X-8.3805 Y27.6560 
G01 X-8.4001 Y27.7034 
G01 X-8.4313 Y27.8601 
G01 X-8.4313 Y28.0199 
G01 X-8.4001 Y28.1766 
G01 X-8.3805 Y28.2240 
G01 X-8.3805 Y28.2550 
G01 X-8.3586 Y28.2769 
G01 X-8.3390 Y28.3243 
G01 X-8.2502 Y28.4572 
G01 X-8.1372 Y28.5702 
G01 X-8.0043 Y28.6590 
G01 X-7.9569 Y28.6786 
G01 X-7.9350 Y28.7005 
G01 X-7.9040 Y28.7005 
G01 X-7.8566 Y28.7201 
G01 X-7.6999 Y28.7513 
G01 X-3.7301 Y28.7513 
G01 X-3.5734 Y28.7201 
G01 X-3.5260 Y28.7005 
G01 X-3.0747 Y28.7005 
G01 X-2.9278 Y28.6713 
G01 X-2.7894 Y28.6139 
G01 X-2.6648 Y28.5307 
G01 X-2.5589 Y28.4248 
G01 X-2.4757 Y28.3002 
G01 X-2.4183 Y28.1618 
G01 X-2.3891 Y28.0149 
G01 X-2.3891 Y27.8651 
G01 X-2.4183 Y27.7182 
G01 X-2.4757 Y27.5798 
G01 X-2.5589 Y27.4552 
G01 X-2.6648 Y27.3493 
G01 X-2.7894 Y27.2661 
G01 X-2.9278 Y27.2087 
G01 X-3.0747 Y27.1795 
G00 Z1.0000 
G00 X-3.0747 Y29.7195 
G01 Z-0.1700 F250.00 
G01 X-3.5260 Y29.7195 F250.00 
G01 X-3.5734 Y29.6999 
G01 X-3.7301 Y29.6687 
G01 X-6.4299 Y29.6687 
G01 X-6.5866 Y29.6999 
G01 X-6.7343 Y29.7610 
G01 X-6.8672 Y29.8498 
G01 X-6.9802 Y29.9628 
G01 X-7.0690 Y30.0957 
G01 X-7.1301 Y30.2434 
G01 X-7.1613 Y30.4001 
G01 X-7.1613 Y30.8931 
G01 X-7.5296 Y31.2614 
G01 X-7.5296 Y32.2386 
G01 X-6.8386 Y32.9296 
G01 X-5.8614 Y32.9296 
G01 X-5.1704 Y32.2386 
G01 X-5.1704 Y31.2913 
G01 X-3.7301 Y31.2913 
G01 X-3.5734 Y31.2601 
G01 X-3.5260 Y31.2405 
G01 X-3.0747 Y31.2405 
G01 X-2.9278 Y31.2113 
G01 X-2.7894 Y31.1539 
G01 X-2.6648 Y31.0707 
G01 X-2.5589 Y30.9648 
G01 X-2.4757 Y30.8402 
G01 X-2.4183 Y30.7018 
G01 X-2.3891 Y30.5549 
G01 X-2.3891 Y30.4051 
G01 X-2.4183 Y30.2582 
G01 X-2.4757 Y30.1198 
G01 X-2.5589 Y29.9952 
G01 X-2.6648 Y29.8893 
G01 X-2.7894 Y29.8061 
G01 X-2.9278 Y29.7487 
G01 X-3.0747 Y29.7195 
G00 Z1.0000 
G00 X-26.1353 Y27.1795 
G01 Z-0.1700 F250.00 
G01 X-26.2822 Y27.2087 F250.00 
G01 X-26.4206 Y27.2661 
G01 X-26.5452 Y27.3493 
G01 X-26.6511 Y27.4552 
G01 X-26.7343 Y27.5798 
G01 X-26.7917 Y27.7182 
G01 X-26.8209 Y27.8651 
G01 X-26.8209 Y28.0149 
G01 X-26.7917 Y28.1618 
G01 X-26.7343 Y28.3002 
G01 X-26.6511 Y28.4248 
G01 X-26.5452 Y28.5307 
G01 X-26.4206 Y28.6139 
G01 X-26.2822 Y28.6713 
G01 X-26.1353 Y28.7005 
G01 X-25.6840 Y28.7005 
G01 X-25.6366 Y28.7201 
G01 X-25.4799 Y28.7513 
G01 X-21.5101 Y28.7513 
G01 X-21.3534 Y28.7201 
G01 X-21.3060 Y28.7005 
G01 X-21.2750 Y28.7005 
G01 X-21.2531 Y28.6786 
G01 X-21.2057 Y28.6590 
G01 X-21.0728 Y28.5702 
G01 X-20.9598 Y28.4572 
G01 X-20.8710 Y28.3243 
G01 X-20.8514 Y28.2769 
G01 X-20.8295 Y28.2550 
G01 X-20.8295 Y28.2240 
G01 X-20.8099 Y28.1766 
G01 X-20.7787 Y28.0199 
G01 X-20.7787 Y27.8601 
G01 X-20.8099 Y27.7034 
G01 X-20.8295 Y27.6560 
G01 X-20.8295 Y27.6250 
G01 X-20.8514 Y27.6031 
G01 X-20.8710 Y27.5557 
G01 X-20.9598 Y27.4228 
G01 X-21.0728 Y27.3098 
G01 X-21.2057 Y27.2210 
G01 X-21.2531 Y27.2014 
G01 X-21.2750 Y27.1795 
G01 X-21.3060 Y27.1795 
G01 X-21.3534 Y27.1599 
G01 X-21.5101 Y27.1287 
G01 X-25.4799 Y27.1287 
G01 X-25.6366 Y27.1599 
G01 X-25.6840 Y27.1795 
G01 X-26.1353 Y27.1795 
G00 Z1.0000 
G00 X-26.1353 Y29.7195 
G01 Z-0.1700 F250.00 
G01 X-26.2822 Y29.7487 F250.00 
G01 X-26.4206 Y29.8061 
G01 X-26.5452 Y29.8893 
G01 X-26.6511 Y29.9952 
G01 X-26.7343 Y30.1198 
G01 X-26.7917 Y30.2582 
G01 X-26.8209 Y30.4051 
G01 X-26.8209 Y30.5549 
G01 X-26.7917 Y30.7018 
G01 X-26.7343 Y30.8402 
G01 X-26.6511 Y30.9648 
G01 X-26.5452 Y31.0707 
G01 X-26.4206 Y31.1539 
G01 X-26.2822 Y31.2113 
G01 X-26.1353 Y31.2405 
G01 X-25.6840 Y31.2405 
G01 X-25.6366 Y31.2601 
G01 X-25.4799 Y31.2913 
G01 X-24.0396 Y31.2913 
G01 X-24.0396 Y32.2386 
G01 X-23.3486 Y32.9296 
G01 X-22.3714 Y32.9296 
G01 X-21.6804 Y32.2386 
G01 X-21.6804 Y31.2614 
G01 X-22.0487 Y30.8931 
G01 X-22.0487 Y30.4001 
G01 X-22.0799 Y30.2434 
G01 X-22.1410 Y30.0957 
G01 X-22.2298 Y29.9628 
G01 X-22.3428 Y29.8498 
G01 X-22.4757 Y29.7610 
G01 X-22.6234 Y29.6999 
G01 X-22.7801 Y29.6687 
G01 X-25.4799 Y29.6687 
G01 X-25.6366 Y29.6999 
G01 X-25.6840 Y29.7195 
G01 X-26.1353 Y29.7195 
G00 Z1.0000 
G00 X-14.7305 Y8.5750 
G01 Z-0.1700 F250.00 
G01 X-14.7305 Y8.6060 F250.00 
G01 X-14.7501 Y8.6533 
G01 X-14.7813 Y8.8101 
G01 X-14.7813 Y12.7799 
G01 X-14.7501 Y12.9366 
G01 X-14.7305 Y12.9840 
G01 X-14.7305 Y13.4353 
G01 X-14.7013 Y13.5822 
G01 X-14.6439 Y13.7206 
G01 X-14.5607 Y13.8452 
G01 X-14.4548 Y13.9511 
G01 X-14.3302 Y14.0343 
G01 X-14.1918 Y14.0917 
G01 X-14.0449 Y14.1209 
G01 X-13.8951 Y14.1209 
G01 X-13.7482 Y14.0917 
G01 X-13.6098 Y14.0343 
G01 X-13.4852 Y13.9511 
G01 X-13.3793 Y13.8452 
G01 X-13.2961 Y13.7206 
G01 X-13.2387 Y13.5822 
G01 X-13.2095 Y13.4353 
G01 X-13.2095 Y13.1001 
G01 X-6.9533 Y13.1001 
G01 X-6.9533 Y13.2231 
G01 X-6.9381 Y13.2599 
G01 X-6.9099 Y13.2881 
G01 X-6.8731 Y13.3033 
G01 X-5.8269 Y13.3033 
G01 X-5.7901 Y13.2881 
G01 X-5.7619 Y13.2599 
G01 X-5.7467 Y13.2231 
G01 X-5.7467 Y12.1769 
G01 X-5.7619 Y12.1401 
G01 X-5.7901 Y12.1119 
G01 X-5.8269 Y12.0967 
G01 X-6.8731 Y12.0967 
G01 X-6.9099 Y12.1119 
G01 X-6.9381 Y12.1401 
G01 X-6.9533 Y12.1769 
G01 X-6.9533 Y12.2999 
G01 X-13.1587 Y12.2999 
G01 X-13.1587 Y8.8101 
G01 X-13.1899 Y8.6533 
G01 X-13.2095 Y8.6060 
G01 X-13.2095 Y8.5750 
G01 X-13.2314 Y8.5531 
G01 X-13.2510 Y8.5057 
G01 X-13.3398 Y8.3728 
G01 X-13.4528 Y8.2598 
G01 X-13.5857 Y8.1710 
G01 X-13.6331 Y8.1514 
G01 X-13.6550 Y8.1295 
G01 X-13.6860 Y8.1295 
G01 X-13.7334 Y8.1099 
G01 X-13.8901 Y8.0787 
G01 X-14.0499 Y8.0787 
G01 X-14.2066 Y8.1099 
G01 X-14.2540 Y8.1295 
G01 X-14.2850 Y8.1295 
G01 X-14.3069 Y8.1514 
G01 X-14.3543 Y8.1710 
G01 X-14.4872 Y8.2598 
G01 X-14.6002 Y8.3728 
G01 X-14.6890 Y8.5057 
G01 X-14.7086 Y8.5531 
G01 X-14.7305 Y8.5750 
G00 Z1.0000 
G00 X-26.3002 Y7.2471 
G01 Z-0.1700 F250.00 
G01 X-26.3002 Y7.9929 F250.00 
G01 X-25.7729 Y8.5202 
G01 X-25.0271 Y8.5202 
G01 X-24.4998 Y7.9929 
G01 X-24.4998 Y7.2471 
G01 X-24.5887 Y7.1582 
G01 X-24.5887 Y4.6213 
G01 X-19.8613 Y4.6213 
G01 X-19.8613 Y12.7799 
G01 X-19.8301 Y12.9366 
G01 X-19.8105 Y12.9840 
G01 X-19.8105 Y13.4353 
G01 X-19.7813 Y13.5822 
G01 X-19.7239 Y13.7206 
G01 X-19.6407 Y13.8452 
G01 X-19.5348 Y13.9511 
G01 X-19.4102 Y14.0343 
G01 X-19.2718 Y14.0917 
G01 X-19.1249 Y14.1209 
G01 X-18.9751 Y14.1209 
G01 X-18.8282 Y14.0917 
G01 X-18.6898 Y14.0343 
G01 X-18.5652 Y13.9511 
G01 X-18.4593 Y13.8452 
G01 X-18.3761 Y13.7206 
G01 X-18.3187 Y13.5822 
G01 X-18.2895 Y13.4353 
G01 X-18.2895 Y12.9840 
G01 X-18.2699 Y12.9366 
G01 X-18.2387 Y12.7799 
G01 X-18.2387 Y3.7301 
G01 X-18.2699 Y3.5734 
G01 X-18.3310 Y3.4257 
G01 X-18.4198 Y3.2928 
G01 X-18.5328 Y3.1798 
G01 X-18.6657 Y3.0910 
G01 X-18.8133 Y3.0299 
G01 X-18.9701 Y2.9987 
G01 X-25.4799 Y2.9987 
G01 X-25.6366 Y3.0299 
G01 X-25.7843 Y3.0910 
G01 X-25.9172 Y3.1798 
G01 X-26.0302 Y3.2928 
G01 X-26.1190 Y3.4257 
G01 X-26.1801 Y3.5734 
G01 X-26.2113 Y3.7301 
G01 X-26.2113 Y7.1582 
G01 X-26.3002 Y7.2471 
G00 Z1.0000 
G00 X-7.2121 Y17.4229 
G01 Z-0.1700 F250.00 
G01 X-7.2121 Y18.1371 F250.00 
G01 X-6.7071 Y18.6421 
G01 X-5.9929 Y18.6421 
G01 X-5.4879 Y18.1371 
G01 X-5.4879 Y17.4229 
G01 X-5.8435 Y17.0673 
G01 X-5.8435 Y13.9033 
G01 X-5.8780 Y13.7745 
G01 X-5.9447 Y13.6590 
G01 X-6.0390 Y13.5647 
G01 X-6.1545 Y13.4980 
G01 X-6.2833 Y13.4635 
G01 X-10.8267 Y13.4635 
G01 X-10.8267 Y13.4469 
G01 X-10.8419 Y13.4101 
G01 X-10.8701 Y13.3819 
G01 X-10.9069 Y13.3667 
G01 X-11.9531 Y13.3667 
G01 X-11.9899 Y13.3819 
G01 X-12.0181 Y13.4101 
G01 X-12.0333 Y13.4469 
G01 X-12.0333 Y14.4931 
G01 X-12.0181 Y14.5299 
G01 X-11.9899 Y14.5581 
G01 X-11.9531 Y14.5733 
G01 X-10.9069 Y14.5733 
G01 X-10.8701 Y14.5581 
G01 X-10.8419 Y14.5299 
G01 X-10.8267 Y14.4931 
G01 X-10.8267 Y14.4765 
G01 X-9.1668 Y14.4765 
G01 X-9.2743 Y14.5210 
G01 X-9.4072 Y14.6098 
G01 X-9.4489 Y14.6515 
G01 X-9.4781 Y14.6801 
G01 X-9.5202 Y14.7228 
G01 X-9.5273 Y14.7335 
G01 X-24.4625 Y14.7335 
G01 X-24.4889 Y14.6817 
G01 X-24.5874 Y14.5460 
G01 X-24.7060 Y14.4274 
G01 X-24.8417 Y14.3289 
G01 X-24.9911 Y14.2527 
G01 X-25.1505 Y14.2009 
G01 X-25.3162 Y14.1747 
G01 X-25.4838 Y14.1747 
G01 X-25.6495 Y14.2009 
G01 X-25.8089 Y14.2527 
G01 X-25.9583 Y14.3289 
G01 X-26.0940 Y14.4274 
G01 X-26.2126 Y14.5460 
G01 X-26.3111 Y14.6817 
G01 X-26.3873 Y14.8311 
G01 X-26.4391 Y14.9905 
G01 X-26.4653 Y15.1562 
G01 X-26.4653 Y24.7559 
G01 X-26.5452 Y24.8093 
G01 X-26.6511 Y24.9152 
G01 X-26.7343 Y25.0398 
G01 X-26.7917 Y25.1782 
G01 X-26.8209 Y25.3251 
G01 X-26.8209 Y25.4749 
G01 X-26.7917 Y25.6218 
G01 X-26.7343 Y25.7602 
G01 X-26.6511 Y25.8848 
G01 X-26.5452 Y25.9907 
G01 X-26.4206 Y26.0739 
G01 X-26.2822 Y26.1313 
G01 X-26.1487 Y26.1578 
G01 X-26.0940 Y26.2126 
G01 X-25.9583 Y26.3111 
G01 X-25.8089 Y26.3873 
G01 X-25.6495 Y26.4391 
G01 X-25.4838 Y26.4653 
G01 X-3.7262 Y26.4653 
G01 X-3.5605 Y26.4391 
G01 X-3.4011 Y26.3873 
G01 X-3.2517 Y26.3111 
G01 X-3.1160 Y26.2126 
G01 X-3.0613 Y26.1578 
G01 X-2.9278 Y26.1313 
G01 X-2.7894 Y26.0739 
G01 X-2.6648 Y25.9907 
G01 X-2.5589 Y25.8848 
G01 X-2.4757 Y25.7602 
G01 X-2.4183 Y25.6218 
G01 X-2.3891 Y25.4749 
G01 X-2.3891 Y25.3251 
G01 X-2.4183 Y25.1782 
G01 X-2.4757 Y25.0398 
G01 X-2.5589 Y24.9152 
G01 X-2.6648 Y24.8093 
G01 X-2.7894 Y24.7261 
G01 X-2.9278 Y24.6687 
G01 X-3.0613 Y24.6422 
G01 X-3.1160 Y24.5874 
G01 X-3.2517 Y24.4889 
G01 X-3.4011 Y24.4127 
G01 X-3.5605 Y24.3609 
G01 X-3.7262 Y24.3347 
G01 X-13.1587 Y24.3347 
G01 X-13.1587 Y20.2401 
G01 X-13.1899 Y20.0833 
G01 X-13.2095 Y20.0360 
G01 X-13.2095 Y19.5847 
G01 X-13.2387 Y19.4378 
G01 X-13.2961 Y19.2994 
G01 X-13.3793 Y19.1748 
G01 X-13.4852 Y19.0689 
G01 X-13.6098 Y18.9857 
G01 X-13.7482 Y18.9283 
G01 X-13.8951 Y18.8991 
G01 X-14.0449 Y18.8991 
G01 X-14.1918 Y18.9283 
G01 X-14.3302 Y18.9857 
G01 X-14.4548 Y19.0689 
G01 X-14.5607 Y19.1748 
G01 X-14.6439 Y19.2994 
G01 X-14.7013 Y19.4378 
G01 X-14.7305 Y19.5847 
G01 X-14.7305 Y20.0360 
G01 X-14.7501 Y20.0833 
G01 X-14.7813 Y20.2401 
G01 X-14.7813 Y24.3347 
G01 X-24.3347 Y24.3347 
G01 X-24.3347 Y15.7465 
G01 X-21.8668 Y15.7465 
G01 X-21.9743 Y15.7910 
G01 X-22.1072 Y15.8798 
G01 X-22.2202 Y15.9928 
G01 X-22.3090 Y16.1257 
G01 X-22.3701 Y16.2734 
G01 X-22.4013 Y16.4301 
G01 X-22.4013 Y22.9399 
G01 X-22.3701 Y23.0966 
G01 X-22.3505 Y23.1440 
G01 X-22.3505 Y23.1750 
G01 X-22.3286 Y23.1969 
G01 X-22.3090 Y23.2443 
G01 X-22.2202 Y23.3772 
G01 X-22.1072 Y23.4902 
G01 X-21.9743 Y23.5790 
G01 X-21.9269 Y23.5986 
G01 X-21.9050 Y23.6205 
G01 X-21.8740 Y23.6205 
G01 X-21.8266 Y23.6401 
G01 X-21.6699 Y23.6713 
G01 X-21.5101 Y23.6713 
G01 X-21.3534 Y23.6401 
G01 X-21.3060 Y23.6205 
G01 X-21.2750 Y23.6205 
G01 X-21.2531 Y23.5986 
G01 X-21.2057 Y23.5790 
G01 X-21.0728 Y23.4902 
G01 X-20.9598 Y23.3772 
G01 X-20.8710 Y23.2443 
G01 X-20.8514 Y23.1969 
G01 X-20.8295 Y23.1750 
G01 X-20.8295 Y23.1440 
G01 X-20.8099 Y23.0966 
G01 X-20.7787 Y22.9399 
G01 X-20.7787 Y17.0165 
G01 X-12.0333 Y17.0165 
G01 X-12.0333 Y17.0331 
G01 X-12.0181 Y17.0699 
G01 X-11.9899 Y17.0981 
G01 X-11.9531 Y17.1133 
G01 X-10.9069 Y17.1133 
G01 X-10.8701 Y17.0981 
G01 X-10.8419 Y17.0699 
G01 X-10.8267 Y17.0331 
G01 X-10.8267 Y15.9869 
G01 X-10.8419 Y15.9501 
G01 X-10.8701 Y15.9219 
G01 X-10.9069 Y15.9067 
G01 X-11.9531 Y15.9067 
G01 X-11.9899 Y15.9219 
G01 X-12.0181 Y15.9501 
G01 X-12.0333 Y15.9869 
G01 X-12.0333 Y16.0035 
G01 X-20.9527 Y16.0035 
G01 X-20.9598 Y15.9928 
G01 X-21.0728 Y15.8798 
G01 X-21.2057 Y15.7910 
G01 X-21.3132 Y15.7465 
G01 X-9.7013 Y15.7465 
G01 X-9.7013 Y17.3721 
G01 X-9.7521 Y17.4229 
G01 X-9.7521 Y18.1371 
G01 X-9.2471 Y18.6421 
G01 X-8.5329 Y18.6421 
G01 X-8.0279 Y18.1371 
G01 X-8.0279 Y17.4229 
G01 X-8.0787 Y17.3721 
G01 X-8.0787 Y15.1601 
G01 X-8.1099 Y15.0034 
G01 X-8.1710 Y14.8557 
G01 X-8.2598 Y14.7228 
G01 X-8.3015 Y14.6811 
G01 X-8.3301 Y14.6519 
G01 X-8.3728 Y14.6098 
G01 X-8.5057 Y14.5210 
G01 X-8.6132 Y14.4765 
G01 X-6.8565 Y14.4765 
G01 X-6.8565 Y17.0673 
G01 X-7.2121 Y17.4229 
G00 Z1.0000 
G00 X-4.6721 Y19.9629 
G01 Z-0.1700 F250.00 
G01 X-4.6721 Y20.6771 F250.00 
G01 X-4.1671 Y21.1821 
G01 X-3.4529 Y21.1821 
G01 X-3.4021 Y21.1313 
G01 X-1.1901 Y21.1313 
G01 X-1.0333 Y21.1001 
G01 X-0.8857 Y21.0390 
G01 X-0.7528 Y20.9502 
G01 X-0.6398 Y20.8372 
G01 X-0.5510 Y20.7043 
G01 X-0.4899 Y20.5566 
G01 X-0.4587 Y20.3999 
G01 X-0.4587 Y12.6201 
G01 X-0.4899 Y12.4634 
G01 X-0.5510 Y12.3157 
G01 X-0.6398 Y12.1828 
G01 X-0.6815 Y12.1411 
G01 X-0.7101 Y12.1119 
G01 X-0.7528 Y12.0698 
G01 X-0.8857 Y11.9810 
G01 X-1.0333 Y11.9199 
G01 X-1.1901 Y11.8887 
G01 X-1.3499 Y11.8887 
G01 X-1.5066 Y11.9199 
G01 X-1.6543 Y11.9810 
G01 X-1.7872 Y12.0698 
G01 X-1.8289 Y12.1115 
G01 X-1.8581 Y12.1401 
G01 X-1.9002 Y12.1828 
G01 X-1.9890 Y12.3157 
G01 X-2.0501 Y12.4634 
G01 X-2.0813 Y12.6201 
G01 X-2.0813 Y19.5087 
G01 X-3.4021 Y19.5087 
G01 X-3.4529 Y19.4579 
G01 X-4.1671 Y19.4579 
G01 X-4.6721 Y19.9629 
G00 Z1.0000 
G00 X-7.2121 Y19.9629 
G01 Z-0.1700 F250.00 
G01 X-7.2121 Y20.6771 F250.00 
G01 X-7.1613 Y20.7279 
G01 X-7.1613 Y22.0487 
G01 X-11.5099 Y22.0487 
G01 X-11.6666 Y22.0799 
G01 X-11.8143 Y22.1410 
G01 X-11.9472 Y22.2298 
G01 X-11.9889 Y22.2715 
G01 X-12.0181 Y22.3001 
G01 X-12.0602 Y22.3428 
G01 X-12.1490 Y22.4757 
G01 X-12.2101 Y22.6234 
G01 X-12.2413 Y22.7801 
G01 X-12.2413 Y22.9399 
G01 X-12.2101 Y23.0966 
G01 X-12.1490 Y23.2443 
G01 X-12.0602 Y23.3772 
G01 X-12.0185 Y23.4189 
G01 X-11.9899 Y23.4481 
G01 X-11.9472 Y23.4902 
G01 X-11.8143 Y23.5790 
G01 X-11.6666 Y23.6401 
G01 X-11.5099 Y23.6713 
G01 X-6.2701 Y23.6713 
G01 X-6.1134 Y23.6401 
G01 X-5.9657 Y23.5790 
G01 X-5.8328 Y23.4902 
G01 X-5.7198 Y23.3772 
G01 X-5.6310 Y23.2443 
G01 X-5.5699 Y23.0966 
G01 X-5.5387 Y22.9399 
G01 X-5.5387 Y20.7279 
G01 X-5.4879 Y20.6771 
G01 X-5.4879 Y19.9629 
G01 X-5.9929 Y19.4579 
G01 X-6.7071 Y19.4579 
G01 X-7.2121 Y19.9629 
G00 Z1.0000 
G00 X-15.7495 Y19.5847 
G01 Z-0.1700 F250.00 
G01 X-15.7787 Y19.4378 F250.00 
G01 X-15.8361 Y19.2994 
G01 X-15.9193 Y19.1748 
G01 X-16.0252 Y19.0689 
G01 X-16.1498 Y18.9857 
G01 X-16.2882 Y18.9283 
G01 X-16.4351 Y18.8991 
G01 X-16.5849 Y18.8991 
G01 X-16.7318 Y18.9283 
G01 X-16.8702 Y18.9857 
G01 X-16.9948 Y19.0689 
G01 X-17.1007 Y19.1748 
G01 X-17.1839 Y19.2994 
G01 X-17.2413 Y19.4378 
G01 X-17.2705 Y19.5847 
G01 X-17.2705 Y20.0360 
G01 X-17.2901 Y20.0833 
G01 X-17.3213 Y20.2401 
G01 X-17.3213 Y22.9399 
G01 X-17.2901 Y23.0966 
G01 X-17.2290 Y23.2443 
G01 X-17.1402 Y23.3772 
G01 X-17.0985 Y23.4189 
G01 X-17.0699 Y23.4481 
G01 X-17.0272 Y23.4902 
G01 X-16.8943 Y23.5790 
G01 X-16.7466 Y23.6401 
G01 X-16.5899 Y23.6713 
G01 X-16.4301 Y23.6713 
G01 X-16.2734 Y23.6401 
G01 X-16.1257 Y23.5790 
G01 X-15.9928 Y23.4902 
G01 X-15.9511 Y23.4485 
G01 X-15.9219 Y23.4199 
G01 X-15.8798 Y23.3772 
G01 X-15.7910 Y23.2443 
G01 X-15.7299 Y23.0966 
G01 X-15.6987 Y22.9399 
G01 X-15.6987 Y20.2401 
G01 X-15.7299 Y20.0833 
G01 X-15.7495 Y20.0360 
G01 X-15.7495 Y19.5847 
G00 Z1.0000 
G00 X-15.7495 Y13.4353 
G01 Z-0.1700 F250.00 
G01 X-15.7495 Y12.9840 F250.00 
G01 X-15.7299 Y12.9366 
G01 X-15.6987 Y12.7799 
G01 X-15.6987 Y9.3518 
G01 X-15.6098 Y9.2629 
G01 X-15.6098 Y8.5171 
G01 X-15.6987 Y8.4282 
G01 X-15.6987 Y3.7301 
G01 X-15.7299 Y3.5734 
G01 X-15.7910 Y3.4257 
G01 X-15.8798 Y3.2928 
G01 X-15.9928 Y3.1798 
G01 X-16.1257 Y3.0910 
G01 X-16.2734 Y3.0299 
G01 X-16.4301 Y2.9987 
G01 X-16.5899 Y2.9987 
G01 X-16.7466 Y3.0299 
G01 X-16.8943 Y3.0910 
G01 X-17.0272 Y3.1798 
G01 X-17.1402 Y3.2928 
G01 X-17.2290 Y3.4257 
G01 X-17.2901 Y3.5734 
G01 X-17.3213 Y3.7301 
G01 X-17.3213 Y8.4282 
G01 X-17.4102 Y8.5171 
G01 X-17.4102 Y9.2629 
G01 X-17.3213 Y9.3518 
G01 X-17.3213 Y12.7799 
G01 X-17.2901 Y12.9366 
G01 X-17.2705 Y12.9840 
G01 X-17.2705 Y13.4353 
G01 X-17.2413 Y13.5822 
G01 X-17.1839 Y13.7206 
G01 X-17.1007 Y13.8452 
G01 X-16.9948 Y13.9511 
G01 X-16.8702 Y14.0343 
G01 X-16.7318 Y14.0917 
G01 X-16.5849 Y14.1209 
G01 X-16.4351 Y14.1209 
G01 X-16.2882 Y14.0917 
G01 X-16.1498 Y14.0343 
G01 X-16.0252 Y13.9511 
G01 X-15.9193 Y13.8452 
G01 X-15.8361 Y13.7206 
G01 X-15.7787 Y13.5822 
G01 X-15.7495 Y13.4353 
G00 Z1.0000 
G82 X-6.3500 Y12.7000 Z-0.2000 F250.00 R1.0000 P0.000000
G82 X-1.2700 Y12.7000 
G82 X-16.5100 Y22.8600 
G82 X-11.4300 Y22.8600 
G82 X-11.4300 Y13.9700 
G82 X-11.4300 Y16.5100 
G82 X-11.4300 Y16.5100 
G82 X-8.8900 Y15.2400 
G82 X-8.8900 Y11.4300 
G82 X-11.4300 Y6.3500 
G82 X-11.4300 Y3.8100 
G82 X-6.3500 Y6.3500 
G82 X-6.3500 Y3.8100 
G82 X-25.4000 Y7.6200 
G82 X-25.4000 Y12.7000 
G82 X-16.5100 Y8.8900 
G82 X-21.5900 Y8.8900 
G82 X-13.9700 Y12.7000 
G82 X-16.5100 Y12.7000 
G82 X-19.0500 Y12.7000 
G82 X-21.5900 Y12.7000 
G82 X-21.5900 Y20.3200 
G82 X-19.0500 Y20.3200 
G82 X-16.5100 Y20.3200 
G82 X-13.9700 Y20.3200 
G82 X-8.8900 Y20.3200 
G82 X-8.8900 Y17.7800 
G82 X-6.3500 Y20.3200 
G82 X-6.3500 Y17.7800 
G82 X-3.8100 Y20.3200 
G82 X-3.8100 Y17.7800 
G82 X-27.9400 Y20.3200 
G82 X-25.4000 Y20.3200 
G82 X-22.8600 Y31.7500 
G82 X-15.2400 Y31.7500 
G82 X-6.3500 Y31.7500 
G82 X-10.1600 Y31.7500 
G82 X-19.0500 Y31.7500 
G82 X-27.9400 Y31.7500 
G82 X-21.5900 Y3.8100 
G82 X-16.5100 Y3.8100 
G82 X-25.4000 Y27.9400 
G82 X-25.4000 Y25.4000 
G82 X-25.4000 Y30.4800 
G82 X-12.7000 Y27.9400 
G82 X-12.7000 Y25.4000 
G82 X-12.7000 Y30.4800 
G82 X-3.8100 Y27.9400 
G82 X-3.8100 Y25.4000 
G82 X-3.8100 Y30.4800 
G82 X-7.6200 Y27.9400 
G82 X-7.6200 Y22.8600 
G82 X-6.3500 Y8.8900 
G82 X-13.9700 Y8.8900 
G82 X-21.5900 Y27.9400 
G82 X-21.5900 Y22.8600 
G82 X-19.0500 Y27.9400 
G82 X-19.0500 Y22.8600 
M05
M02
