(.../pcb-gcode-3.6.0.4/pcb-gcode.ulp)
(Copyright 2005 - 2012 by John Johnson)
(See readme.txt for licensing terms.)
(This file generated from the board:)
(.../mst/NC/eagle/attiny45board.brd)
(Current profile is .../pcb-gcode-3.6.0.4/profiles/emc.pp  )
(This file generated 31.05.13 00:10)
(Settings from pcb-machine.h)
(  Tool Size)
(0.0070 )
(Z Axis Settings)
(  High     Up        Down     Drill)
(0.5000 	0.1000 	-0.0070 	-0.0320 )
(spindle on time = 3.0000)
(milling depth = -0.0100)
(text depth = -0.0050)
(tool change at 0.5000 0.6000 1.0000 )
(feed rate xy = F20.00 )
(feed rate z  = F10.00 )
(Settings from pcb-defaults.h)
(isolate min = 0.0010)
(isolate max = 0.0200)
(isolate step = 0.0050)
(Generated bottom outlines, bottom drill, )
(Unit of measure: inch)
( Tool|       Size       |  Min Sub |  Max Sub |   Count )
( T01 | 0.600mm 0.0236in | 0.0000in | 0.0000in |       0 )
( T02 | 0.813mm 0.0320in | 0.0000in | 0.0000in |       0 )
( T03 | 0.914mm 0.0360in | 0.0000in | 0.0000in |       0 )
( T04 | 1.016mm 0.0400in | 0.0000in | 0.0000in |       0 )
(Inch Mode)
G20
(Absolute Coordinates)
G90
M05
G00 Z1.0000 
G00 X0.5000 Y0.6000 
M06 T01 (0.0236 )
G01 Z0.0000 F10.00 
M06 T01 (0.0236 )
G00 Z0.1000 
M03
G04 P3.000000
G82 X-1.4500 Y2.4500 Z-0.0320 F10.00 R0.1000 P1.000000
G82 X-1.4500 Y2.4500 
G82 X-1.4500 Y2.9500 
G82 X-1.4500 Y2.9500 
G82 X-1.6500 Y2.7500 
G82 X-1.6500 Y2.7500 
G82 X-1.6500 Y2.8500 
G82 X-1.1500 Y2.8500 
G82 X-1.1500 Y2.8500 
G82 X-1.1500 Y3.0500 
G82 X-1.1500 Y3.0500 
M05
G00 Z1.0000 
M06 T02 (0.0320 )
G01 Z0.0000 F10.00 
M06 T02 (0.0320 )
G00 Z0.1000 
M03
G04 P3.000000
G82 X-1.2500 Y2.2500 Z-0.0320 F10.00 R0.1000 P1.000000
G82 X-1.5500 Y2.2500 
G82 X-1.5500 Y2.3500 
G82 X-1.5500 Y2.6500 
G82 X-1.6500 Y2.0000 
G82 X-1.6500 Y2.2000 
G82 X-1.6500 Y2.3500 
G82 X-1.6500 Y2.6500 
G82 X-1.7500 Y2.3500 
G82 X-1.7500 Y2.6500 
G82 X-1.8500 Y2.0000 
G82 X-1.8500 Y2.2000 
G82 X-1.8500 Y2.3500 
G82 X-1.8500 Y2.6500 
G82 X-2.0000 Y2.2000 
G82 X-2.0000 Y2.4000 
G82 X-1.1000 Y2.5000 
G82 X-1.2000 Y2.0000 
G82 X-1.2000 Y2.1000 
G82 X-1.2000 Y2.5000 
M05
G00 Z1.0000 
M06 T03 (0.0360 )
G01 Z0.0000 F10.00 
M06 T03 (0.0360 )
G00 Z0.1000 
M03
G04 P3.000000
G82 X-1.3500 Y2.4500 Z-0.0320 F10.00 R0.1000 P1.000000
G82 X-1.3500 Y2.5500 
G82 X-1.9500 Y2.9500 
G82 X-2.0500 Y2.9500 
M05
G00 Z1.0000 
M06 T04 (0.0400 )
G01 Z0.0000 F10.00 
M06 T04 (0.0400 )
G00 Z0.1000 
M03
G04 P3.000000
G82 X-1.2500 Y2.7500 Z-0.0320 F10.00 R0.1000 P1.000000
G82 X-1.2500 Y2.8500 
G82 X-1.2500 Y2.9500 
G82 X-1.3500 Y2.7500 
G82 X-1.3500 Y2.8500 
G82 X-1.3500 Y2.9500 
G82 X-1.5500 Y2.9500 
G82 X-1.6500 Y2.9500 
G82 X-1.7500 Y2.9500 
G82 X-1.8500 Y2.9500 
T01 
G00 Z0.5000 
M05
M02
