(/home/mst/.eagle/ulp/pcb-gcode.ulp)
(Copyright 2005 - 2012 by John Johnson)
(See readme.txt for licensing terms.)
(This file generated from the board:)
(.../attiny45-microcontrol-v4.0.brd)
(Current profile is .../mst/.eagle/ulp/profiles/emc.pp  )
(This file generated 19.07.15 20:51)
(Settings from pcb-machine.h)
(spindle on time = 1.0000)
(  Tool Size)
(0.1778 )
(spindle speed = 30000.0000)
(tool change at 0.0000 0.0000 25.4000 )
(feed rate xy = F508.00 )
(feed rate z  = F254.00 )
(Z Axis Settings)
(  High     Up        Down     Drill)
(5.0000 	2.0000 	-0.1500 	-0.2000 )
(Settings from pcb-defaults.h)
(isolate min = 0.0254)
(isolate max = 0.5080)
(isolate step = 0.1270)
(Generated bottom outlines, bottom drill, )
(Unit of measure: mm)
(Metric Mode)
G21
(Absolute Coordinates)
G90
S30000
G00 Z5.0000 
G00 X0.0000 Y0.0000 
M03
G04 P1.000000
G00 Z2.0000 
G00 X-8.1107 Y12.0604 
G01 Z-0.1500 F254.00 
G01 X-8.2504 Y11.9207 F508.00 
G01 X-8.4148 Y11.8109 
X-8.5973 Y11.7353 
X-8.7912 Y11.6967 
X-24.2288 
X-24.4227 Y11.7353 
X-24.6052 Y11.8109 
X-24.7696 Y11.9207 
X-24.9093 Y12.0604 
X-24.9209 Y12.0777 
X-36.8913 
X-37.0115 Y12.1016 
X-37.1248 Y12.1485 
X-37.2267 Y12.2166 
X-37.3134 Y12.3033 
X-37.3815 Y12.4052 
X-37.4284 Y12.5185 
X-37.4523 Y12.6387 
Y13.3530 
X-37.5107 Y13.4114 
X-37.6066 Y13.5549 
X-37.6726 Y13.7144 
X-37.7063 Y13.8837 
Y14.0563 
X-37.6726 Y14.2256 
X-37.6066 Y14.3851 
X-37.5107 Y14.5286 
X-37.3886 Y14.6507 
X-37.2451 Y14.7466 
X-37.0856 Y14.8126 
X-36.9163 Y14.8463 
X-36.7437 
X-36.5744 Y14.8126 
X-36.4149 Y14.7466 
X-36.2714 Y14.6507 
X-36.1493 Y14.5286 
X-36.0534 Y14.3851 
X-35.9874 Y14.2256 
X-35.9537 Y14.0563 
Y13.8837 
X-35.9874 Y13.7144 
X-36.0534 Y13.5549 
X-36.1493 Y13.4114 
X-36.2077 Y13.3530 
Y13.3223 
X-29.8555 
X-29.9203 Y13.3871 
X-30.0203 Y13.5369 
X-30.0893 Y13.7033 
X-30.1244 Y13.8799 
Y14.0601 
X-30.0893 Y14.2367 
X-30.0203 Y14.4031 
X-29.9203 Y14.5529 
X-29.7929 Y14.6803 
X-29.6431 Y14.7803 
X-29.4767 Y14.8493 
X-29.3001 Y14.8844 
X-29.1199 
X-28.9433 Y14.8493 
X-28.7769 Y14.7803 
X-28.6271 Y14.6803 
X-28.4997 Y14.5529 
X-28.3997 Y14.4031 
X-28.3307 Y14.2367 
X-28.2956 Y14.0601 
Y13.8799 
X-28.3307 Y13.7033 
X-28.3997 Y13.5369 
X-28.4997 Y13.3871 
X-28.5645 Y13.3223 
X-25.1333 
Y15.3388 
X-25.0947 Y15.5327 
X-25.0191 Y15.7152 
X-24.9093 Y15.8796 
X-24.7696 Y16.0193 
X-24.6052 Y16.1291 
X-24.4227 Y16.2047 
X-24.2288 Y16.2433 
X-24.0312 
X-23.8373 Y16.2047 
X-23.6548 Y16.1291 
X-23.4904 Y16.0193 
X-23.3507 Y15.8796 
X-23.2409 Y15.7152 
X-23.1653 Y15.5327 
X-23.1267 Y15.3388 
Y13.7033 
X-9.8933 
Y17.1299 
X-9.9110 Y17.1543 
X-9.9963 Y17.3217 
X-10.0544 Y17.5005 
X-10.0838 Y17.6860 
Y17.8740 
X-10.0544 Y18.0595 
X-9.9963 Y18.2383 
X-9.9110 Y18.4057 
X-9.8933 Y18.4301 
Y52.3367 
X-26.0199 
X-26.0443 Y52.3190 
X-26.2117 Y52.2337 
X-26.3905 Y52.1756 
X-26.5760 Y52.1462 
X-26.7640 
X-26.9495 Y52.1756 
X-27.1283 Y52.2337 
X-27.2957 Y52.3190 
X-27.3201 Y52.3367 
X-37.4499 
X-37.4743 Y52.3190 
X-37.6417 Y52.2337 
X-37.8205 Y52.1756 
X-38.0060 Y52.1462 
X-38.1940 
X-38.3795 Y52.1756 
X-38.5583 Y52.2337 
X-38.7257 Y52.3190 
X-38.8777 Y52.4294 
X-39.0106 Y52.5623 
X-39.1210 Y52.7143 
X-39.2063 Y52.8817 
X-39.2644 Y53.0605 
X-39.2938 Y53.2460 
Y53.4340 
X-39.2644 Y53.6195 
X-39.2063 Y53.7983 
X-39.1210 Y53.9657 
X-39.0106 Y54.1177 
X-38.8777 Y54.2506 
X-38.7257 Y54.3610 
X-38.5583 Y54.4463 
X-38.3795 Y54.5044 
X-38.1940 Y54.5338 
X-38.0060 
X-37.8205 Y54.5044 
X-37.6417 Y54.4463 
X-37.4743 Y54.3610 
X-37.4499 Y54.3433 
X-27.3201 
X-27.2957 Y54.3610 
X-27.1283 Y54.4463 
X-26.9495 Y54.5044 
X-26.7640 Y54.5338 
X-26.5760 
X-26.3905 Y54.5044 
X-26.2117 Y54.4463 
X-26.0443 Y54.3610 
X-26.0199 Y54.3433 
X-8.7912 
X-8.5973 Y54.3047 
X-8.4148 Y54.2291 
X-8.2504 Y54.1193 
X-8.1107 Y53.9796 
X-8.0009 Y53.8152 
X-7.9253 Y53.6326 
X-7.8867 Y53.4388 
Y18.4301 
X-7.8690 Y18.4057 
X-7.7837 Y18.2383 
X-7.7256 Y18.0595 
X-7.6962 Y17.8740 
Y17.6860 
X-7.7256 Y17.5005 
X-7.7837 Y17.3217 
X-7.8690 Y17.1543 
X-7.8867 Y17.1299 
Y12.6012 
X-7.9253 Y12.4073 
X-8.0009 Y12.2248 
X-8.1107 Y12.0604 
G00 Z2.0000 
G00 X-13.1907 Y14.6004 
G01 Z-0.1500 F254.00 
G01 X-13.3304 Y14.4607 F508.00 
G01 X-13.4948 Y14.3509 
X-13.6773 Y14.2753 
X-13.8712 Y14.2367 
X-14.0688 
X-21.6888 
X-21.8827 Y14.2753 
X-22.0652 Y14.3509 
X-22.2296 Y14.4607 
X-22.3693 Y14.6004 
X-22.4791 Y14.7648 
X-22.5547 Y14.9473 
X-22.5933 Y15.1412 
Y15.3388 
X-22.5547 Y15.5327 
X-22.4791 Y15.7152 
X-22.3693 Y15.8796 
X-22.2296 Y16.0193 
X-22.0652 Y16.1291 
X-21.8827 Y16.2047 
X-21.6888 Y16.2433 
X-14.9733 
Y21.6888 
X-14.9347 Y21.8827 
X-14.8591 Y22.0652 
X-14.7493 Y22.2296 
X-14.6096 Y22.3693 
X-14.4452 Y22.4791 
X-14.2627 Y22.5547 
X-14.0688 Y22.5933 
X-12.5095 
Y25.4850 
X-12.4829 Y25.6528 
X-12.4333 Y25.8055 
Y42.1767 
X-23.1267 
Y38.0012 
X-23.1653 Y37.8073 
X-23.2409 Y37.6248 
X-23.3507 Y37.4604 
X-23.4904 Y37.3207 
X-23.6548 Y37.2109 
X-23.8373 Y37.1353 
X-24.0312 Y37.0967 
X-24.2288 
X-24.4227 Y37.1353 
X-24.6052 Y37.2109 
X-24.7696 Y37.3207 
X-24.9093 Y37.4604 
X-25.0191 Y37.6248 
X-25.0947 Y37.8073 
X-25.1333 Y38.0012 
Y42.1767 
X-34.5567 
Y36.7312 
X-34.5953 Y36.5373 
X-34.6709 Y36.3548 
X-34.7807 Y36.1904 
X-34.9204 Y36.0507 
X-35.0848 Y35.9409 
X-35.2673 Y35.8653 
X-35.4612 Y35.8267 
X-35.6588 
X-35.8526 Y35.8653 
X-36.0352 Y35.9409 
X-36.1996 Y36.0507 
X-36.3393 Y36.1904 
X-36.4491 Y36.3548 
X-36.5247 Y36.5373 
X-36.5633 Y36.7312 
Y43.2788 
X-36.5247 Y43.4727 
X-36.4491 Y43.6552 
X-36.3393 Y43.8196 
X-36.1996 Y43.9593 
X-36.0352 Y44.0691 
X-35.8526 Y44.1447 
X-35.6588 Y44.1833 
X-11.3312 
X-11.1373 Y44.1447 
X-10.9548 Y44.0691 
X-10.7904 Y43.9593 
X-10.6507 Y43.8196 
X-10.5409 Y43.6552 
X-10.4653 Y43.4727 
X-10.4267 Y43.2788 
Y25.8055 
X-10.3771 Y25.6528 
X-10.3505 Y25.4850 
Y21.5050 
X-10.3771 Y21.3372 
X-10.4296 Y21.1756 
X-10.5067 Y21.0242 
X-10.6066 Y20.8868 
X-10.7268 Y20.7666 
X-10.8642 Y20.6667 
X-11.0156 Y20.5896 
X-11.1772 Y20.5371 
X-11.3450 Y20.5105 
X-11.5150 
X-11.6828 Y20.5371 
X-11.8355 Y20.5867 
X-12.9667 
Y15.1412 
X-13.0053 Y14.9473 
X-13.0809 Y14.7648 
X-13.1907 Y14.6004 
G00 Z2.0000 
G00 X-16.8694 Y17.0023 
G01 Z-0.1500 F254.00 
G01 X-17.0023 Y16.8694 F508.00 
G01 X-17.1543 Y16.7590 
X-17.3217 Y16.6737 
X-17.5005 Y16.6156 
X-17.6860 Y16.5862 
X-17.8740 
X-18.0595 Y16.6156 
X-18.2383 Y16.6737 
X-18.4057 Y16.7590 
X-18.5577 Y16.8694 
X-18.6906 Y17.0023 
X-18.8010 Y17.1543 
X-18.8863 Y17.3217 
X-18.9444 Y17.5005 
X-18.9491 Y17.5302 
X-19.3894 Y17.9705 
X-21.8567 
Y17.0462 
X-21.8953 Y16.8523 
X-21.9709 Y16.6698 
X-22.0807 Y16.5054 
X-22.2204 Y16.3657 
X-22.3848 Y16.2559 
X-22.5673 Y16.1803 
X-22.7612 Y16.1417 
X-22.9588 
X-23.1527 Y16.1803 
X-23.3352 Y16.2559 
X-23.4996 Y16.3657 
X-23.6393 Y16.5054 
X-23.7491 Y16.6698 
X-23.8247 Y16.8523 
X-23.8633 Y17.0462 
Y17.9705 
X-28.2067 
Y16.4112 
X-28.2453 Y16.2173 
X-28.3209 Y16.0348 
X-28.4307 Y15.8704 
X-28.5704 Y15.7307 
X-28.7348 Y15.6209 
X-28.9173 Y15.5453 
X-29.1112 Y15.5067 
X-29.3088 
X-29.5026 Y15.5453 
X-29.6852 Y15.6209 
X-29.8496 Y15.7307 
X-29.9893 Y15.8704 
X-30.0991 Y16.0348 
X-30.1747 Y16.2173 
X-30.2133 Y16.4112 
Y17.9705 
X-38.1850 
X-38.3528 Y17.9971 
X-38.5144 Y18.0496 
X-38.6658 Y18.1267 
X-38.8032 Y18.2266 
X-38.9234 Y18.3468 
X-39.0233 Y18.4842 
X-39.1004 Y18.6356 
X-39.1529 Y18.7972 
X-39.1795 Y18.9650 
Y45.8050 
X-39.1529 Y45.9728 
X-39.1004 Y46.1344 
X-39.0233 Y46.2858 
X-38.9234 Y46.4232 
X-38.8032 Y46.5434 
X-38.6658 Y46.6433 
X-38.5144 Y46.7204 
X-38.3528 Y46.7729 
X-38.1850 Y46.7995 
X-34.2050 
X-16.5950 
X-12.6150 
X-12.4472 Y46.7729 
X-12.2856 Y46.7204 
X-12.1342 Y46.6433 
X-11.9968 Y46.5434 
X-11.8766 Y46.4232 
X-11.7767 Y46.2858 
X-11.6996 Y46.1344 
X-11.6471 Y45.9728 
X-11.6205 Y45.8050 
Y45.6350 
X-11.6471 Y45.4672 
X-11.6996 Y45.3056 
X-11.7767 Y45.1542 
X-11.8766 Y45.0168 
X-11.9968 Y44.8966 
X-12.1342 Y44.7967 
X-12.2856 Y44.7196 
X-12.4472 Y44.6671 
X-12.6150 Y44.6405 
X-37.0205 
Y31.5595 
X-31.6650 
X-31.4972 Y31.5329 
X-31.3356 Y31.4804 
X-31.1842 Y31.4033 
X-31.0468 Y31.3034 
X-30.9266 Y31.1832 
X-30.8267 Y31.0458 
X-30.7496 Y30.8944 
X-30.6971 Y30.7328 
X-30.6705 Y30.5650 
Y26.5850 
X-30.6971 Y26.4172 
X-30.7496 Y26.2556 
X-30.8267 Y26.1042 
X-30.9266 Y25.9668 
X-31.0468 Y25.8466 
X-31.1842 Y25.7467 
X-31.3356 Y25.6696 
X-31.4972 Y25.6171 
X-31.6650 Y25.5905 
X-31.8350 
X-32.0028 Y25.6171 
X-32.1644 Y25.6696 
X-32.3158 Y25.7467 
X-32.4532 Y25.8466 
X-32.5734 Y25.9668 
X-32.6733 Y26.1042 
X-32.7504 Y26.2556 
X-32.8029 Y26.4172 
X-32.8295 Y26.5850 
Y29.4005 
X-37.0205 
Y20.1295 
X-20.0533 
Y28.0388 
X-20.0147 Y28.2326 
X-19.9391 Y28.4152 
X-19.8293 Y28.5796 
X-19.6896 Y28.7193 
X-19.5252 Y28.8291 
X-19.3426 Y28.9047 
X-19.1488 Y28.9433 
X-18.9512 
X-18.7573 Y28.9047 
X-18.5748 Y28.8291 
X-18.4104 Y28.7193 
X-18.2707 Y28.5796 
X-18.1609 Y28.4152 
X-18.0853 Y28.2326 
X-18.0467 Y28.0388 
Y19.4656 
X-17.5302 Y18.9491 
X-17.5005 Y18.9444 
X-17.3217 Y18.8863 
X-17.1543 Y18.8010 
X-17.0023 Y18.6906 
X-16.8694 Y18.5577 
X-16.7590 Y18.4057 
X-16.6737 Y18.2383 
X-16.6156 Y18.0595 
X-16.5862 Y17.8740 
Y17.6860 
X-16.6156 Y17.5005 
X-16.6737 Y17.3217 
X-16.7590 Y17.1543 
X-16.8694 Y17.0023 
G00 Z2.0000 
G00 X-16.7628 Y24.3471 
G01 Z-0.1500 F254.00 
G01 X-16.9244 Y24.3996 F508.00 
G01 X-17.0758 Y24.4767 
X-17.2132 Y24.5766 
X-17.3334 Y24.6968 
X-17.4333 Y24.8342 
X-17.5104 Y24.9856 
X-17.5629 Y25.1472 
X-17.5895 Y25.3150 
Y28.0250 
X-17.5629 Y28.1928 
X-17.5104 Y28.3544 
X-17.4333 Y28.5058 
X-17.3334 Y28.6432 
X-17.2132 Y28.7634 
X-17.0758 Y28.8633 
X-16.9244 Y28.9404 
X-16.7628 Y28.9929 
X-16.5950 Y29.0195 
X-13.8850 
X-13.7172 Y28.9929 
X-13.5556 Y28.9404 
X-13.4042 Y28.8633 
X-13.2668 Y28.7634 
X-13.1466 Y28.6432 
X-13.0467 Y28.5058 
X-12.9696 Y28.3544 
X-12.9171 Y28.1928 
X-12.8905 Y28.0250 
Y25.3150 
X-12.9171 Y25.1472 
X-12.9696 Y24.9856 
X-13.0467 Y24.8342 
X-13.1466 Y24.6968 
X-13.2668 Y24.5766 
X-13.4042 Y24.4767 
X-13.5556 Y24.3996 
X-13.7172 Y24.3471 
X-13.8850 Y24.3205 
X-15.3250 
X-16.4250 
X-16.5950 
X-16.7628 Y24.3471 
G00 Z2.0000 
G00 X-16.7952 Y29.5397 
G01 Z-0.1500 F254.00 
G01 X-16.9732 Y29.6134 F508.00 
G01 X-17.1334 Y29.7204 
X-17.2696 Y29.8566 
X-17.3766 Y30.0168 
X-17.4503 Y30.1948 
X-17.4879 Y30.3837 
Y30.5763 
X-17.4503 Y30.7652 
X-17.3766 Y30.9432 
X-17.2696 Y31.1034 
X-17.1334 Y31.2396 
X-16.9732 Y31.3466 
X-16.7952 Y31.4203 
X-16.6063 Y31.4579 
X-16.4137 
X-16.2248 Y31.4203 
X-16.0468 Y31.3466 
X-15.8866 Y31.2396 
X-15.7504 Y31.1034 
X-14.5923 
Y40.0177 
X-20.9677 
Y39.3921 
X-20.9649 Y39.3530 
X-20.9677 Y39.3309 
Y39.3087 
X-20.9754 Y39.2702 
X-20.9803 Y39.2314 
X-20.9873 Y39.2103 
X-20.9916 Y39.1885 
X-21.0066 Y39.1523 
X-22.2573 Y35.4003 
X-22.2616 Y35.3785 
X-22.2766 Y35.3423 
X-22.2890 Y35.3051 
X-22.3000 Y35.2858 
X-22.3085 Y35.2652 
X-22.3303 Y35.2326 
X-22.3497 Y35.1986 
X-22.3643 Y35.1818 
X-22.3766 Y35.1633 
X-22.4043 Y35.1356 
X-22.4300 Y35.1060 
X-22.4476 Y35.0923 
X-22.4633 Y35.0766 
X-22.4959 Y35.0549 
X-22.5269 Y35.0308 
X-22.5468 Y35.0209 
X-22.5652 Y35.0085 
X-22.6014 Y34.9935 
X-22.6365 Y34.9760 
X-22.6580 Y34.9701 
X-22.6785 Y34.9616 
X-22.7169 Y34.9540 
X-22.7547 Y34.9436 
X-22.7769 
X-22.7987 Y34.9377 
X-22.8379 
X-22.8770 Y34.9349 
X-22.8991 Y34.9377 
X-26.7313 
X-26.8515 Y34.9616 
X-26.9648 Y35.0085 
X-27.0667 Y35.0766 
X-27.1534 Y35.1633 
X-27.2215 Y35.2652 
X-27.2684 Y35.3785 
X-27.2923 Y35.4987 
Y37.3091 
X-27.3096 Y37.3207 
X-27.4493 Y37.4604 
X-27.5591 Y37.6248 
X-27.6347 Y37.8073 
X-27.6733 Y38.0012 
Y40.7388 
X-27.6347 Y40.9327 
X-27.5591 Y41.1152 
X-27.4493 Y41.2796 
X-27.3096 Y41.4193 
X-27.1452 Y41.5291 
X-26.9627 Y41.6047 
X-26.7688 Y41.6433 
X-26.5712 
X-26.3773 Y41.6047 
X-26.1948 Y41.5291 
X-26.0304 Y41.4193 
X-25.8907 Y41.2796 
X-25.7809 Y41.1152 
X-25.7053 Y40.9327 
X-25.6667 Y40.7388 
Y38.0012 
X-25.7053 Y37.8073 
X-25.7809 Y37.6248 
X-25.8907 Y37.4604 
X-26.0304 Y37.3207 
X-26.0477 Y37.3091 
Y36.1823 
X-23.3085 
X-22.2123 Y39.4710 
Y40.7013 
X-22.1884 Y40.8215 
X-22.1415 Y40.9348 
X-22.0734 Y41.0367 
X-21.9867 Y41.1234 
X-21.8848 Y41.1915 
X-21.7715 Y41.2384 
X-21.6513 Y41.2623 
X-13.9087 
X-13.7885 Y41.2384 
X-13.6752 Y41.1915 
X-13.5733 Y41.1234 
X-13.4866 Y41.0367 
X-13.4185 Y40.9348 
X-13.3716 Y40.8215 
X-13.3477 Y40.7013 
Y30.4187 
X-13.3716 Y30.2985 
X-13.4185 Y30.1852 
X-13.4866 Y30.0833 
X-13.5733 Y29.9966 
X-13.6752 Y29.9285 
X-13.7885 Y29.8816 
X-13.9087 Y29.8577 
X-15.7497 
X-15.8866 Y29.7204 
X-16.0468 Y29.6134 
X-16.2248 Y29.5397 
X-16.4137 Y29.5021 
X-16.6063 
X-16.7952 Y29.5397 
G00 Z2.0000 
G00 X-18.2904 Y29.8566 
G01 Z-0.1500 F254.00 
G01 X-18.4266 Y29.7204 F508.00 
G01 X-18.5868 Y29.6134 
X-18.7648 Y29.5397 
X-18.9537 Y29.5021 
X-19.1463 
X-19.3352 Y29.5397 
X-19.5132 Y29.6134 
X-19.6734 Y29.7204 
X-19.8096 Y29.8566 
X-21.6513 
X-21.7715 Y29.8816 
X-21.8848 Y29.9285 
X-21.9867 Y29.9966 
X-22.0734 Y30.0833 
X-22.1415 Y30.1852 
X-22.1884 Y30.2985 
X-22.2123 Y30.4187 
Y32.3977 
X-31.8113 
X-31.9315 Y32.4216 
X-32.0448 Y32.4685 
X-32.1467 Y32.5366 
X-32.2334 Y32.6233 
X-32.3015 Y32.7252 
X-32.3484 Y32.8385 
X-32.3723 Y32.9587 
Y37.2178 
X-32.4532 Y37.2766 
X-32.5734 Y37.3968 
X-32.6733 Y37.5342 
X-32.7504 Y37.6856 
X-32.8029 Y37.8472 
X-32.8295 Y38.0150 
Y40.7250 
X-32.8029 Y40.8928 
X-32.7504 Y41.0544 
X-32.6733 Y41.2058 
X-32.5734 Y41.3432 
X-32.4532 Y41.4634 
X-32.3158 Y41.5633 
X-32.1644 Y41.6404 
X-32.0028 Y41.6929 
X-31.8350 Y41.7195 
X-31.6650 
X-31.4972 Y41.6929 
X-31.3356 Y41.6404 
X-31.1842 Y41.5633 
X-31.0468 Y41.4634 
X-30.9266 Y41.3432 
X-30.8267 Y41.2058 
X-30.7496 Y41.0544 
X-30.6971 Y40.8928 
X-30.6705 Y40.7250 
Y38.0150 
X-30.6971 Y37.8472 
X-30.7496 Y37.6856 
X-30.8267 Y37.5342 
X-30.9266 Y37.3968 
X-31.0468 Y37.2766 
X-31.1277 Y37.2178 
Y33.6423 
X-21.5287 
X-21.4085 Y33.6184 
X-21.2952 Y33.5715 
X-21.1933 Y33.5034 
X-21.1066 Y33.4167 
X-21.0385 Y33.3148 
X-20.9916 Y33.2015 
X-20.9677 Y33.0813 
Y31.1023 
X-19.8103 
X-19.6734 Y31.2396 
X-19.5132 Y31.3466 
X-19.3352 Y31.4203 
X-19.1463 Y31.4579 
X-18.9537 
X-18.7648 Y31.4203 
X-18.5868 Y31.3466 
X-18.4266 Y31.2396 
X-18.2904 Y31.1034 
X-18.1834 Y30.9432 
X-18.1097 Y30.7652 
X-18.0721 Y30.5763 
Y30.3837 
X-18.1097 Y30.1948 
X-18.1834 Y30.0168 
X-18.2904 Y29.8566 
G00 Z2.0000 
G00 X-18.3468 Y32.1966 
G01 Z-0.1500 F254.00 
G01 X-18.4842 Y32.0967 F508.00 
G01 X-18.6356 Y32.0196 
X-18.7972 Y31.9671 
X-18.9650 Y31.9405 
X-19.1350 
X-19.3028 Y31.9671 
X-19.4644 Y32.0196 
X-19.6158 Y32.0967 
X-19.7532 Y32.1966 
X-19.8734 Y32.3168 
X-19.9733 Y32.4542 
X-20.0504 Y32.6056 
X-20.1029 Y32.7672 
X-20.1295 Y32.9350 
Y35.6450 
X-20.1029 Y35.8128 
X-20.0504 Y35.9744 
X-19.9733 Y36.1258 
X-19.8734 Y36.2632 
X-19.7532 Y36.3834 
X-19.6158 Y36.4833 
X-19.4644 Y36.5604 
X-19.3028 Y36.6129 
X-19.1350 Y36.6395 
X-18.9650 
X-18.7972 Y36.6129 
X-18.6356 Y36.5604 
X-18.4842 Y36.4833 
X-18.3468 Y36.3834 
X-18.2266 Y36.2632 
X-18.1267 Y36.1258 
X-18.0496 Y35.9744 
X-17.9971 Y35.8128 
X-17.9705 Y35.6450 
Y32.9350 
X-17.9971 Y32.7672 
X-18.0496 Y32.6056 
X-18.1267 Y32.4542 
X-18.2266 Y32.3168 
X-18.3468 Y32.1966 
G00 Z2.0000 
G00 X-17.1334 Y32.2604 
G01 Z-0.1500 F254.00 
G01 X-17.2696 Y32.3966 F508.00 
G01 X-17.3766 Y32.5568 
X-17.4503 Y32.7348 
X-17.4879 Y32.9237 
Y33.1163 
X-17.4503 Y33.3052 
X-17.3766 Y33.4832 
X-17.2696 Y33.6434 
X-17.1334 Y33.7796 
Y37.4777 
X-19.8715 
X-20.9873 Y34.1303 
X-20.9916 Y34.1085 
X-21.0066 Y34.0723 
X-21.0190 Y34.0351 
X-21.0300 Y34.0157 
X-21.0385 Y33.9952 
X-21.0603 Y33.9626 
X-21.0797 Y33.9286 
X-21.0943 Y33.9118 
X-21.1066 Y33.8933 
X-21.1343 Y33.8656 
X-21.1600 Y33.8360 
X-21.1776 Y33.8223 
X-21.1933 Y33.8066 
X-21.2259 Y33.7849 
X-21.2569 Y33.7608 
X-21.2768 Y33.7509 
X-21.2952 Y33.7385 
X-21.3315 Y33.7235 
X-21.3665 Y33.7060 
X-21.3880 Y33.7001 
X-21.4085 Y33.6916 
X-21.4469 Y33.6840 
X-21.4847 Y33.6736 
X-21.5069 
X-21.5287 Y33.6677 
X-21.5679 
X-21.6070 Y33.6649 
X-21.6291 Y33.6677 
X-29.2713 
X-29.3915 Y33.6916 
X-29.5048 Y33.7385 
X-29.6067 Y33.8066 
X-29.6934 Y33.8933 
X-29.7615 Y33.9952 
X-29.8084 Y34.1085 
X-29.8323 Y34.2287 
Y37.2178 
X-29.9132 Y37.2766 
X-30.0334 Y37.3968 
X-30.1333 Y37.5342 
X-30.2104 Y37.6856 
X-30.2629 Y37.8472 
X-30.2895 Y38.0150 
Y40.7250 
X-30.2629 Y40.8928 
X-30.2104 Y41.0544 
X-30.1333 Y41.2058 
X-30.0334 Y41.3432 
X-29.9132 Y41.4634 
X-29.7758 Y41.5633 
X-29.6244 Y41.6404 
X-29.4628 Y41.6929 
X-29.2950 Y41.7195 
X-29.1250 
X-28.9572 Y41.6929 
X-28.7956 Y41.6404 
X-28.6442 Y41.5633 
X-28.5068 Y41.4634 
X-28.3866 Y41.3432 
X-28.2867 Y41.2058 
X-28.2096 Y41.0544 
X-28.1571 Y40.8928 
X-28.1305 Y40.7250 
Y38.0150 
X-28.1571 Y37.8472 
X-28.2096 Y37.6856 
X-28.2867 Y37.5342 
X-28.3866 Y37.3968 
X-28.5068 Y37.2766 
X-28.5877 Y37.2178 
Y34.9123 
X-22.0385 
X-20.9227 Y38.2597 
X-20.9184 Y38.2815 
X-20.9034 Y38.3177 
X-20.8910 Y38.3549 
X-20.8800 Y38.3742 
X-20.8715 Y38.3948 
X-20.8497 Y38.4274 
X-20.8303 Y38.4614 
X-20.8157 Y38.4782 
X-20.8034 Y38.4967 
X-20.7757 Y38.5244 
X-20.7500 Y38.5540 
X-20.7324 Y38.5677 
X-20.7167 Y38.5834 
X-20.6841 Y38.6051 
X-20.6531 Y38.6292 
X-20.6332 Y38.6391 
X-20.6148 Y38.6515 
X-20.5785 Y38.6665 
X-20.5435 Y38.6840 
X-20.5220 Y38.6899 
X-20.5015 Y38.6984 
X-20.4631 Y38.7060 
X-20.4252 Y38.7164 
X-20.4031 
X-20.3813 Y38.7223 
X-20.3421 
X-20.3030 Y38.7251 
X-20.2809 Y38.7223 
X-16.4487 
X-16.3285 Y38.6984 
X-16.2152 Y38.6515 
X-16.1133 Y38.5834 
X-16.0266 Y38.4967 
X-15.9585 Y38.3948 
X-15.9116 Y38.2815 
X-15.8877 Y38.1613 
Y33.7803 
X-15.7504 Y33.6434 
X-15.6434 Y33.4832 
X-15.5697 Y33.3052 
X-15.5321 Y33.1163 
Y32.9237 
X-15.5697 Y32.7348 
X-15.6434 Y32.5568 
X-15.7504 Y32.3966 
X-15.8866 Y32.2604 
X-16.0468 Y32.1534 
X-16.2248 Y32.0797 
X-16.4137 Y32.0421 
X-16.6063 
X-16.7952 Y32.0797 
X-16.9732 Y32.1534 
X-17.1334 Y32.2604 
G00 Z2.0000 
G00 X-23.4268 Y31.3034 
G01 Z-0.1500 F254.00 
G01 X-23.3066 Y31.1832 F508.00 
G01 X-23.2067 Y31.0458 
X-23.1296 Y30.8944 
X-23.0771 Y30.7328 
X-23.0505 Y30.5650 
Y25.3150 
X-23.0771 Y25.1472 
X-23.1296 Y24.9856 
X-23.2067 Y24.8342 
X-23.3066 Y24.6968 
X-23.4268 Y24.5766 
X-23.5642 Y24.4767 
X-23.7156 Y24.3996 
X-23.8772 Y24.3471 
X-24.0450 Y24.3205 
X-24.2150 
X-24.3828 Y24.3471 
X-24.5444 Y24.3996 
X-24.6958 Y24.4767 
X-24.8332 Y24.5766 
X-24.9534 Y24.6968 
X-25.0533 Y24.8342 
X-25.1304 Y24.9856 
X-25.1829 Y25.1472 
X-25.2095 Y25.3150 
Y30.5650 
X-25.1829 Y30.7328 
X-25.1304 Y30.8944 
X-25.0533 Y31.0458 
X-24.9534 Y31.1832 
X-24.8332 Y31.3034 
X-24.6958 Y31.4033 
X-24.5444 Y31.4804 
X-24.3828 Y31.5329 
X-24.2150 Y31.5595 
X-24.0450 
X-23.8772 Y31.5329 
X-23.7156 Y31.4804 
X-23.5642 Y31.4033 
X-23.4268 Y31.3034 
G00 Z2.0000 
G00 X-25.9668 Y31.3034 
G01 Z-0.1500 F254.00 
G01 X-25.8466 Y31.1832 F508.00 
G01 X-25.7467 Y31.0458 
X-25.6696 Y30.8944 
X-25.6171 Y30.7328 
X-25.5905 Y30.5650 
Y21.5050 
X-25.6171 Y21.3372 
X-25.6696 Y21.1756 
X-25.7467 Y21.0242 
X-25.8466 Y20.8868 
X-25.9668 Y20.7666 
X-26.1042 Y20.6667 
X-26.2556 Y20.5896 
X-26.4172 Y20.5371 
X-26.5850 Y20.5105 
X-26.7550 
X-26.9228 Y20.5371 
X-27.0844 Y20.5896 
X-27.2358 Y20.6667 
X-27.3732 Y20.7666 
X-27.4934 Y20.8868 
X-27.5933 Y21.0242 
X-27.6704 Y21.1756 
X-27.7229 Y21.3372 
X-27.7495 Y21.5050 
Y26.7550 
Y30.5650 
X-27.7229 Y30.7328 
X-27.6704 Y30.8944 
X-27.5933 Y31.0458 
X-27.4934 Y31.1832 
X-27.3732 Y31.3034 
X-27.2358 Y31.4033 
X-27.0844 Y31.4804 
X-26.9228 Y31.5329 
X-26.7550 Y31.5595 
X-26.5850 
X-26.4172 Y31.5329 
X-26.2556 Y31.4804 
X-26.1042 Y31.4033 
X-25.9668 Y31.3034 
G00 Z2.0000 
G00 X-28.5068 Y31.3034 
G01 Z-0.1500 F254.00 
G01 X-28.3866 Y31.1832 F508.00 
G01 X-28.2867 Y31.0458 
X-28.2096 Y30.8944 
X-28.1571 Y30.7328 
X-28.1305 Y30.5650 
Y21.5050 
X-28.1571 Y21.3372 
X-28.2096 Y21.1756 
X-28.2867 Y21.0242 
X-28.3866 Y20.8868 
X-28.5068 Y20.7666 
X-28.6442 Y20.6667 
X-28.7956 Y20.5896 
X-28.9572 Y20.5371 
X-29.1250 Y20.5105 
X-35.0491 
X-35.1017 Y20.4837 
X-35.2805 Y20.4256 
X-35.4660 Y20.3962 
X-35.6540 
X-35.8395 Y20.4256 
X-36.0183 Y20.4837 
X-36.1857 Y20.5690 
X-36.3377 Y20.6794 
X-36.4706 Y20.8123 
X-36.5810 Y20.9643 
X-36.6663 Y21.1317 
X-36.7244 Y21.3104 
X-36.7538 Y21.4960 
Y21.6840 
X-36.7244 Y21.8695 
X-36.6663 Y22.0483 
X-36.6395 Y22.1009 
Y25.4850 
X-36.6129 Y25.6528 
X-36.5604 Y25.8144 
X-36.4833 Y25.9658 
X-36.3834 Y26.1032 
X-36.2632 Y26.2234 
X-36.1258 Y26.3233 
X-35.9744 Y26.4004 
X-35.8128 Y26.4529 
X-35.6450 Y26.4795 
X-35.4750 
X-35.3072 Y26.4529 
X-35.1456 Y26.4004 
X-34.9942 Y26.3233 
X-34.8568 Y26.2234 
X-34.7366 Y26.1032 
X-34.6367 Y25.9658 
X-34.5596 Y25.8144 
X-34.5071 Y25.6528 
X-34.4805 Y25.4850 
Y22.6695 
X-30.2895 
Y30.5650 
X-30.2629 Y30.7328 
X-30.2104 Y30.8944 
X-30.1333 Y31.0458 
X-30.0334 Y31.1832 
X-29.9132 Y31.3034 
X-29.7758 Y31.4033 
X-29.6244 Y31.4804 
X-29.4628 Y31.5329 
X-29.2950 Y31.5595 
X-29.1250 
X-28.9572 Y31.5329 
X-28.7956 Y31.4804 
X-28.6442 Y31.4033 
X-28.5068 Y31.3034 
G00 Z2.0000 
G00 X-25.0406 Y22.3677 
G01 Z-0.1500 F254.00 
G01 X-24.9077 Y22.5006 F508.00 
G01 X-24.7557 Y22.6110 
X-24.5883 Y22.6963 
X-24.4095 Y22.7544 
X-24.2240 Y22.7838 
X-24.0360 
X-23.8504 Y22.7544 
X-23.6717 Y22.6963 
X-23.6191 Y22.6695 
X-22.1009 
X-22.0483 Y22.6963 
X-21.8695 Y22.7544 
X-21.6840 Y22.7838 
X-21.4960 
X-21.3104 Y22.7544 
X-21.1317 Y22.6963 
X-20.9643 Y22.6110 
X-20.8123 Y22.5006 
X-20.6794 Y22.3677 
X-20.5690 Y22.2157 
X-20.4837 Y22.0483 
X-20.4256 Y21.8695 
X-20.3962 Y21.6840 
Y21.4960 
X-20.4256 Y21.3104 
X-20.4837 Y21.1317 
X-20.5690 Y20.9643 
X-20.6794 Y20.8123 
X-20.8123 Y20.6794 
X-20.9643 Y20.5690 
X-21.1317 Y20.4837 
X-21.3104 Y20.4256 
X-21.4960 Y20.3962 
X-21.6840 
X-21.8695 Y20.4256 
X-22.0483 Y20.4837 
X-22.1009 Y20.5105 
X-23.6191 
X-23.6717 Y20.4837 
X-23.8504 Y20.4256 
X-24.0360 Y20.3962 
X-24.2240 
X-24.4095 Y20.4256 
X-24.5883 Y20.4837 
X-24.7557 Y20.5690 
X-24.9077 Y20.6794 
X-25.0406 Y20.8123 
X-25.1510 Y20.9643 
X-25.2363 Y21.1317 
X-25.2944 Y21.3104 
X-25.3238 Y21.4960 
Y21.6840 
X-25.2944 Y21.8695 
X-25.2363 Y22.0483 
X-25.1510 Y22.2157 
X-25.0406 Y22.3677 
G00 Z2.0000 
G00 X-26.7688 Y47.2567 
G01 Z-0.1500 F254.00 
G01 X-26.9627 Y47.2953 F508.00 
G01 X-27.1452 Y47.3709 
X-27.3096 Y47.4807 
X-27.4493 Y47.6204 
X-27.5591 Y47.7848 
X-27.6347 Y47.9673 
X-27.6733 Y48.1612 
Y48.3588 
X-27.6347 Y48.5526 
X-27.5591 Y48.7352 
X-27.4493 Y48.8996 
X-27.3096 Y49.0393 
X-27.1452 Y49.1491 
X-26.9627 Y49.2247 
X-26.7688 Y49.2633 
X-21.4912 
X-21.2973 Y49.2247 
X-21.1148 Y49.1491 
X-20.9504 Y49.0393 
X-20.8107 Y48.8996 
X-20.7009 Y48.7352 
X-20.6253 Y48.5526 
X-20.5867 Y48.3588 
Y48.1612 
X-20.6253 Y47.9673 
X-20.7009 Y47.7848 
X-20.8107 Y47.6204 
X-20.9504 Y47.4807 
X-21.1148 Y47.3709 
X-21.2973 Y47.2953 
X-21.4912 Y47.2567 
X-26.7688 
G00 Z2.0000 
G00 X-28.4307 Y47.6204 
G01 Z-0.1500 F254.00 
G01 X-28.5704 Y47.4807 F508.00 
G01 X-28.7348 Y47.3709 
X-28.9173 Y47.2953 
X-29.1112 Y47.2567 
X-29.3088 
X-29.5026 Y47.2953 
X-29.6852 Y47.3709 
X-29.8496 Y47.4807 
X-29.9893 Y47.6204 
X-30.0991 Y47.7848 
X-30.1747 Y47.9673 
X-30.2133 Y48.1612 
Y50.8988 
X-30.1747 Y51.0926 
X-30.0991 Y51.2752 
X-29.9893 Y51.4396 
X-29.8496 Y51.5793 
X-29.6852 Y51.6891 
X-29.5026 Y51.7647 
X-29.3088 Y51.8033 
X-18.9512 
X-18.7573 Y51.7647 
X-18.5748 Y51.6891 
X-18.4104 Y51.5793 
X-18.2707 Y51.4396 
X-18.1609 Y51.2752 
X-18.0853 Y51.0926 
X-18.0467 Y50.8988 
Y49.2633 
X-16.9155 
X-16.7628 Y49.3129 
X-16.5950 Y49.3395 
X-12.6150 
X-12.4472 Y49.3129 
X-12.2856 Y49.2604 
X-12.1342 Y49.1833 
X-11.9968 Y49.0834 
X-11.8766 Y48.9632 
X-11.7767 Y48.8258 
X-11.6996 Y48.6744 
X-11.6471 Y48.5128 
X-11.6205 Y48.3450 
Y48.1750 
X-11.6471 Y48.0072 
X-11.6996 Y47.8456 
X-11.7767 Y47.6942 
X-11.8766 Y47.5568 
X-11.9968 Y47.4366 
X-12.1342 Y47.3367 
X-12.2856 Y47.2596 
X-12.4472 Y47.2071 
X-12.6150 Y47.1805 
X-16.5950 
X-16.7628 Y47.2071 
X-16.9155 Y47.2567 
X-19.1488 
X-19.3426 Y47.2953 
X-19.5252 Y47.3709 
X-19.6896 Y47.4807 
X-19.8293 Y47.6204 
X-19.9391 Y47.7848 
X-20.0147 Y47.9673 
X-20.0533 Y48.1612 
Y49.7967 
X-28.2067 
Y48.1612 
X-28.2453 Y47.9673 
X-28.3209 Y47.7848 
X-28.4307 Y47.6204 
G00 Z2.0000 
G00 X-30.8267 Y47.6942 
G01 Z-0.1500 F254.00 
G01 X-30.9266 Y47.5568 F508.00 
G01 X-31.0468 Y47.4366 
X-31.1842 Y47.3367 
X-31.3356 Y47.2596 
X-31.4972 Y47.2071 
X-31.6650 Y47.1805 
X-38.1850 
X-38.3528 Y47.2071 
X-38.5144 Y47.2596 
X-38.6658 Y47.3367 
X-38.8032 Y47.4366 
X-38.9234 Y47.5568 
X-39.0233 Y47.6942 
X-39.1004 Y47.8456 
X-39.1529 Y48.0072 
X-39.1795 Y48.1750 
Y48.3450 
X-39.1529 Y48.5128 
X-39.1004 Y48.6744 
X-39.0233 Y48.8258 
X-38.9234 Y48.9632 
X-38.8032 Y49.0834 
X-38.6658 Y49.1833 
X-38.5144 Y49.2604 
X-38.3528 Y49.3129 
X-38.1850 Y49.3395 
X-34.2050 
X-31.6650 
X-31.4972 Y49.3129 
X-31.3356 Y49.2604 
X-31.1842 Y49.1833 
X-31.0468 Y49.0834 
X-30.9266 Y48.9632 
X-30.8267 Y48.8258 
X-30.7496 Y48.6744 
X-30.6971 Y48.5128 
X-30.6705 Y48.3450 
Y48.1750 
X-30.6971 Y48.0072 
X-30.7496 Y47.8456 
X-30.8267 Y47.6942 
G00 Z2.0000 
G00 X-33.4666 Y50.0968 
G01 Z-0.1500 F254.00 
G01 X-33.5868 Y49.9766 F508.00 
G01 X-33.7242 Y49.8767 
X-33.8756 Y49.7996 
X-34.0372 Y49.7471 
X-34.2050 Y49.7205 
X-37.5891 
X-37.6417 Y49.6937 
X-37.8205 Y49.6356 
X-38.0060 Y49.6062 
X-38.1940 
X-38.3795 Y49.6356 
X-38.5583 Y49.6937 
X-38.7257 Y49.7790 
X-38.8777 Y49.8894 
X-39.0106 Y50.0223 
X-39.1210 Y50.1743 
X-39.2063 Y50.3417 
X-39.2644 Y50.5204 
X-39.2938 Y50.7060 
Y50.8940 
X-39.2644 Y51.0795 
X-39.2063 Y51.2583 
X-39.1210 Y51.4257 
X-39.0106 Y51.5777 
X-38.8777 Y51.7106 
X-38.7257 Y51.8210 
X-38.5583 Y51.9063 
X-38.3795 Y51.9644 
X-38.1940 Y51.9938 
X-38.0060 
X-37.8205 Y51.9644 
X-37.6417 Y51.9063 
X-37.5891 Y51.8795 
X-34.2050 
X-34.0372 Y51.8529 
X-33.8756 Y51.8004 
X-33.7242 Y51.7233 
X-33.5868 Y51.6234 
X-33.4666 Y51.5032 
X-33.3667 Y51.3658 
X-33.2896 Y51.2144 
X-33.2371 Y51.0528 
X-33.2105 Y50.8850 
Y50.7150 
X-33.2371 Y50.5472 
X-33.2896 Y50.3856 
X-33.3667 Y50.2342 
X-33.4666 Y50.0968 
G00 Z2.0000 
G00 X-17.5310 Y50.1743 
G01 Z-0.1500 F254.00 
G01 X-17.6163 Y50.3417 F508.00 
G01 X-17.6744 Y50.5204 
X-17.7038 Y50.7060 
Y50.8940 
X-17.6744 Y51.0795 
X-17.6163 Y51.2583 
X-17.5310 Y51.4257 
X-17.4206 Y51.5777 
X-17.2877 Y51.7106 
X-17.1357 Y51.8210 
X-16.9683 Y51.9063 
X-16.7895 Y51.9644 
X-16.6040 Y51.9938 
X-16.4160 
X-16.2305 Y51.9644 
X-16.0517 Y51.9063 
X-15.9991 Y51.8795 
X-12.6150 
X-12.4472 Y51.8529 
X-12.2856 Y51.8004 
X-12.1342 Y51.7233 
X-11.9968 Y51.6234 
X-11.8766 Y51.5032 
X-11.7767 Y51.3658 
X-11.6996 Y51.2144 
X-11.6471 Y51.0528 
X-11.6205 Y50.8850 
Y50.7150 
X-11.6471 Y50.5472 
X-11.6996 Y50.3856 
X-11.7767 Y50.2342 
X-11.8766 Y50.0968 
X-11.9968 Y49.9766 
X-12.1342 Y49.8767 
X-12.2856 Y49.7996 
X-12.4472 Y49.7471 
X-12.6150 Y49.7205 
X-15.9991 
X-16.0517 Y49.6937 
X-16.2305 Y49.6356 
X-16.4160 Y49.6062 
X-16.6040 
X-16.7895 Y49.6356 
X-16.9683 Y49.6937 
X-17.1357 Y49.7790 
X-17.2877 Y49.8894 
X-17.4206 Y50.0223 
X-17.5310 Y50.1743 
G00 Z2.0000 
G00 X-8.0279 Y11.9637 
G01 Z-0.1500 F254.00 
G01 X-8.1537 Y11.8379 F508.00 
G01 X-8.2976 Y11.7333 
X-8.4561 Y11.6525 
X-8.6253 Y11.5975 
X-8.8010 Y11.5697 
X-24.2190 
X-24.3947 Y11.5975 
X-24.5639 Y11.6525 
X-24.7224 Y11.7333 
X-24.8663 Y11.8379 
X-24.9792 Y11.9507 
X-36.9038 
X-37.0486 Y11.9795 
X-37.1849 Y12.0360 
X-37.3077 Y12.1180 
X-37.4120 Y12.2223 
X-37.4940 Y12.3451 
X-37.5505 Y12.4814 
X-37.5793 Y12.6262 
Y13.3004 
X-37.6093 Y13.3304 
X-37.7191 Y13.4948 
X-37.7947 Y13.6773 
X-37.8333 Y13.8712 
Y14.0688 
X-37.7947 Y14.2627 
X-37.7191 Y14.4452 
X-37.6093 Y14.6096 
X-37.4696 Y14.7493 
X-37.3052 Y14.8591 
X-37.1227 Y14.9347 
X-36.9288 Y14.9733 
X-36.7312 
X-36.5373 Y14.9347 
X-36.3548 Y14.8591 
X-36.1904 Y14.7493 
X-36.0507 Y14.6096 
X-35.9409 Y14.4452 
X-35.8653 Y14.2627 
X-35.8267 Y14.0688 
Y13.8712 
X-35.8653 Y13.6773 
X-35.9409 Y13.4948 
X-35.9713 Y13.4493 
X-30.1135 
X-30.1751 Y13.5702 
X-30.2258 Y13.7261 
X-30.2514 Y13.8880 
Y14.0520 
X-30.2258 Y14.2139 
X-30.1751 Y14.3698 
X-30.1007 Y14.5158 
X-30.0043 Y14.6484 
X-29.8884 Y14.7643 
X-29.7558 Y14.8607 
X-29.6098 Y14.9351 
X-29.4539 Y14.9858 
X-29.2920 Y15.0114 
X-29.1280 
X-28.9661 Y14.9858 
X-28.8102 Y14.9351 
X-28.6642 Y14.8607 
X-28.5316 Y14.7643 
X-28.4157 Y14.6484 
X-28.3193 Y14.5158 
X-28.2449 Y14.3698 
X-28.1942 Y14.2139 
X-28.1686 Y14.0520 
Y13.8880 
X-28.1942 Y13.7261 
X-28.2449 Y13.5702 
X-28.3065 Y13.4493 
X-25.2603 
Y15.3290 
X-25.2325 Y15.5047 
X-25.1775 Y15.6739 
X-25.0967 Y15.8324 
X-24.9921 Y15.9763 
X-24.8663 Y16.1021 
X-24.7224 Y16.2067 
X-24.5639 Y16.2875 
X-24.3947 Y16.3425 
X-24.2190 Y16.3703 
X-24.0410 
X-23.8653 Y16.3425 
X-23.6961 Y16.2875 
X-23.5376 Y16.2067 
X-23.3937 Y16.1021 
X-23.2679 Y15.9763 
X-23.1633 Y15.8324 
X-23.0825 Y15.6739 
X-23.0275 Y15.5047 
X-22.9997 Y15.3290 
Y13.8303 
X-10.0203 
Y17.0890 
X-10.1140 Y17.2730 
X-10.1783 Y17.4707 
X-10.2108 Y17.6760 
Y17.8839 
X-10.1783 Y18.0893 
X-10.1140 Y18.2870 
X-10.0203 Y18.4710 
Y52.2097 
X-25.9790 
X-26.1630 Y52.1160 
X-26.3607 Y52.0517 
X-26.5660 Y52.0192 
X-26.7739 
X-26.9793 Y52.0517 
X-27.1770 Y52.1160 
X-27.3610 Y52.2097 
X-37.4090 
X-37.5930 Y52.1160 
X-37.7345 Y52.0700 
X-37.5930 Y52.0240 
X-37.5586 Y52.0065 
X-34.1950 
X-34.0075 Y51.9768 
X-33.8269 Y51.9181 
X-33.6577 Y51.8319 
X-33.5040 Y51.7203 
X-33.3697 Y51.5860 
X-33.2581 Y51.4323 
X-33.1719 Y51.2631 
X-33.1132 Y51.0825 
X-33.0835 Y50.8950 
Y50.7050 
X-33.1132 Y50.5175 
X-33.1719 Y50.3369 
X-33.2581 Y50.1677 
X-33.3697 Y50.0140 
X-33.5040 Y49.8797 
X-33.6577 Y49.7681 
X-33.8269 Y49.6819 
X-34.0075 Y49.6232 
X-34.1950 Y49.5935 
X-37.5586 
X-37.5930 Y49.5760 
X-37.7907 Y49.5117 
X-37.9960 Y49.4792 
X-38.2039 
X-38.4093 Y49.5117 
X-38.6070 Y49.5760 
X-38.7923 Y49.6703 
X-38.9604 Y49.7925 
X-39.1074 Y49.9396 
X-39.2296 Y50.1077 
X-39.3240 Y50.2930 
X-39.3883 Y50.4907 
X-39.4208 Y50.6960 
Y50.9040 
X-39.3883 Y51.1093 
X-39.3240 Y51.3070 
X-39.2296 Y51.4922 
X-39.1074 Y51.6604 
X-38.9604 Y51.8074 
X-38.7923 Y51.9296 
X-38.6070 Y52.0240 
X-38.4655 Y52.0700 
X-38.6070 Y52.1160 
X-38.7923 Y52.2103 
X-38.9604 Y52.3325 
X-39.1074 Y52.4796 
X-39.2296 Y52.6477 
X-39.3240 Y52.8330 
X-39.3883 Y53.0307 
X-39.4208 Y53.2360 
Y53.4440 
X-39.3883 Y53.6493 
X-39.3240 Y53.8470 
X-39.2296 Y54.0322 
X-39.1074 Y54.2004 
X-38.9604 Y54.3474 
X-38.7923 Y54.4696 
X-38.6070 Y54.5640 
X-38.4093 Y54.6283 
X-38.2039 Y54.6608 
X-37.9960 
X-37.7907 Y54.6283 
X-37.5930 Y54.5640 
X-37.4090 Y54.4703 
X-27.3610 
X-27.1770 Y54.5640 
X-26.9793 Y54.6283 
X-26.7739 Y54.6608 
X-26.5660 
X-26.3607 Y54.6283 
X-26.1630 Y54.5640 
X-25.9790 Y54.4703 
X-8.8010 
X-8.6253 Y54.4425 
X-8.4561 Y54.3875 
X-8.2976 Y54.3067 
X-8.1537 Y54.2021 
X-8.0279 Y54.0763 
X-7.9233 Y53.9324 
X-7.8425 Y53.7739 
X-7.7875 Y53.6047 
X-7.7597 Y53.4290 
Y18.4710 
X-7.6660 Y18.2870 
X-7.6017 Y18.0893 
X-7.5692 Y17.8839 
Y17.6760 
X-7.6017 Y17.4707 
X-7.6660 Y17.2730 
X-7.7597 Y17.0890 
Y12.6110 
X-7.7875 Y12.4353 
X-7.8425 Y12.2661 
X-7.9233 Y12.1076 
X-8.0279 Y11.9637 
G00 Z2.0000 
G00 X-13.1079 Y14.5037 
G01 Z-0.1500 F254.00 
G01 X-13.2337 Y14.3779 F508.00 
G01 X-13.3776 Y14.2733 
X-13.5361 Y14.1925 
X-13.7053 Y14.1375 
X-13.8810 Y14.1097 
X-14.0590 
X-21.6790 
X-21.8547 Y14.1375 
X-22.0239 Y14.1925 
X-22.1824 Y14.2733 
X-22.3263 Y14.3779 
X-22.4521 Y14.5037 
X-22.5567 Y14.6476 
X-22.6375 Y14.8061 
X-22.6925 Y14.9753 
X-22.7203 Y15.1510 
Y15.3290 
X-22.6925 Y15.5047 
X-22.6375 Y15.6739 
X-22.5567 Y15.8324 
X-22.4521 Y15.9763 
X-22.3263 Y16.1021 
X-22.1824 Y16.2067 
X-22.0239 Y16.2875 
X-21.8547 Y16.3425 
X-21.6790 Y16.3703 
X-15.1003 
Y21.6790 
X-15.0725 Y21.8547 
X-15.0175 Y22.0239 
X-14.9367 Y22.1824 
X-14.8321 Y22.3263 
X-14.7063 Y22.4521 
X-14.5624 Y22.5567 
X-14.4039 Y22.6375 
X-14.2347 Y22.6925 
X-14.0590 Y22.7203 
X-12.6365 
Y25.4950 
X-12.6068 Y25.6825 
X-12.5603 Y25.8256 
Y42.0497 
X-22.9997 
Y38.0110 
X-23.0275 Y37.8353 
X-23.0825 Y37.6661 
X-23.1633 Y37.5076 
X-23.2679 Y37.3637 
X-23.3937 Y37.2379 
X-23.5376 Y37.1333 
X-23.6961 Y37.0525 
X-23.8653 Y36.9975 
X-24.0410 Y36.9697 
X-24.2190 
X-24.3947 Y36.9975 
X-24.5639 Y37.0525 
X-24.7224 Y37.1333 
X-24.8663 Y37.2379 
X-24.9921 Y37.3637 
X-25.0967 Y37.5076 
X-25.1775 Y37.6661 
X-25.2325 Y37.8353 
X-25.2603 Y38.0110 
Y42.0497 
X-34.4297 
Y36.7410 
X-34.4575 Y36.5653 
X-34.5125 Y36.3961 
X-34.5933 Y36.2376 
X-34.6979 Y36.0937 
X-34.8237 Y35.9679 
X-34.9676 Y35.8633 
X-35.1261 Y35.7825 
X-35.2953 Y35.7275 
X-35.4710 Y35.6997 
X-35.6490 
X-35.8247 Y35.7275 
X-35.9939 Y35.7825 
X-36.1524 Y35.8633 
X-36.2963 Y35.9679 
X-36.4221 Y36.0937 
X-36.5267 Y36.2376 
X-36.6075 Y36.3961 
X-36.6625 Y36.5653 
X-36.6903 Y36.7410 
Y43.2690 
X-36.6625 Y43.4447 
X-36.6075 Y43.6139 
X-36.5267 Y43.7724 
X-36.4221 Y43.9163 
X-36.2963 Y44.0421 
X-36.1524 Y44.1467 
X-35.9939 Y44.2275 
X-35.8247 Y44.2825 
X-35.6490 Y44.3103 
X-11.3410 
X-11.1653 Y44.2825 
X-10.9961 Y44.2275 
X-10.8376 Y44.1467 
X-10.6937 Y44.0421 
X-10.5679 Y43.9163 
X-10.4633 Y43.7724 
X-10.3825 Y43.6139 
X-10.3275 Y43.4447 
X-10.2997 Y43.2690 
Y25.8256 
X-10.2532 Y25.6825 
X-10.2235 Y25.4950 
Y21.4950 
X-10.2532 Y21.3075 
X-10.3119 Y21.1269 
X-10.3981 Y20.9577 
X-10.5097 Y20.8040 
X-10.6440 Y20.6697 
X-10.7977 Y20.5581 
X-10.9669 Y20.4719 
X-11.1475 Y20.4132 
X-11.3350 Y20.3835 
X-11.5250 
X-11.7125 Y20.4132 
X-11.8556 Y20.4597 
X-12.8397 
Y15.1510 
X-12.8675 Y14.9753 
X-12.9225 Y14.8061 
X-13.0033 Y14.6476 
X-13.1079 Y14.5037 
G00 Z2.0000 
G00 X-16.7725 Y16.9196 
G01 Z-0.1500 F254.00 
G01 X-16.9196 Y16.7725 F508.00 
G01 X-17.0877 Y16.6503 
X-17.2730 Y16.5560 
X-17.4707 Y16.4917 
X-17.6760 Y16.4592 
X-17.8839 
X-18.0893 Y16.4917 
X-18.2870 Y16.5560 
X-18.4722 Y16.6503 
X-18.6404 Y16.7725 
X-18.7874 Y16.9196 
X-18.9096 Y17.0877 
X-19.0040 Y17.2730 
X-19.0678 Y17.4694 
X-19.4420 Y17.8435 
X-21.7297 
Y17.0560 
X-21.7575 Y16.8803 
X-21.8125 Y16.7111 
X-21.8933 Y16.5526 
X-21.9979 Y16.4087 
X-22.1237 Y16.2829 
X-22.2676 Y16.1783 
X-22.4261 Y16.0975 
X-22.5953 Y16.0425 
X-22.7710 Y16.0147 
X-22.9490 
X-23.1247 Y16.0425 
X-23.2939 Y16.0975 
X-23.4524 Y16.1783 
X-23.5963 Y16.2829 
X-23.7221 Y16.4087 
X-23.8267 Y16.5526 
X-23.9075 Y16.7111 
X-23.9625 Y16.8803 
X-23.9903 Y17.0560 
Y17.8435 
X-28.0797 
Y16.4210 
X-28.1075 Y16.2453 
X-28.1625 Y16.0761 
X-28.2433 Y15.9176 
X-28.3479 Y15.7737 
X-28.4737 Y15.6479 
X-28.6176 Y15.5433 
X-28.7761 Y15.4625 
X-28.9453 Y15.4075 
X-29.1210 Y15.3797 
X-29.2990 
X-29.4747 Y15.4075 
X-29.6439 Y15.4625 
X-29.8024 Y15.5433 
X-29.9463 Y15.6479 
X-30.0721 Y15.7737 
X-30.1767 Y15.9176 
X-30.2575 Y16.0761 
X-30.3125 Y16.2453 
X-30.3403 Y16.4210 
Y17.8435 
X-38.1950 
X-38.3825 Y17.8732 
X-38.5631 Y17.9319 
X-38.7323 Y18.0181 
X-38.8860 Y18.1297 
X-39.0203 Y18.2640 
X-39.1319 Y18.4177 
X-39.2181 Y18.5869 
X-39.2768 Y18.7675 
X-39.3065 Y18.9550 
Y45.8150 
X-39.2768 Y46.0025 
X-39.2181 Y46.1831 
X-39.1319 Y46.3523 
X-39.0203 Y46.5060 
X-38.8860 Y46.6403 
X-38.7323 Y46.7519 
X-38.5631 Y46.8381 
X-38.3825 Y46.8968 
X-38.1950 Y46.9265 
X-34.1950 
X-16.6050 
X-12.6050 
X-12.4175 Y46.8968 
X-12.2369 Y46.8381 
X-12.0677 Y46.7519 
X-11.9140 Y46.6403 
X-11.7797 Y46.5060 
X-11.6681 Y46.3523 
X-11.5819 Y46.1831 
X-11.5232 Y46.0025 
X-11.4935 Y45.8150 
Y45.6250 
X-11.5232 Y45.4375 
X-11.5819 Y45.2569 
X-11.6681 Y45.0877 
X-11.7797 Y44.9340 
X-11.9140 Y44.7997 
X-12.0677 Y44.6881 
X-12.2369 Y44.6019 
X-12.4175 Y44.5432 
X-12.6050 Y44.5135 
X-36.8935 
Y31.6865 
X-31.6550 
X-31.4675 Y31.6568 
X-31.2869 Y31.5981 
X-31.1177 Y31.5119 
X-30.9640 Y31.4003 
X-30.8297 Y31.2660 
X-30.7181 Y31.1123 
X-30.6319 Y30.9431 
X-30.5732 Y30.7625 
X-30.5435 Y30.5750 
Y26.5750 
X-30.5732 Y26.3875 
X-30.6319 Y26.2069 
X-30.7181 Y26.0377 
X-30.8297 Y25.8840 
X-30.9640 Y25.7497 
X-31.1177 Y25.6381 
X-31.2869 Y25.5519 
X-31.4675 Y25.4932 
X-31.6550 Y25.4635 
X-31.8450 
X-32.0325 Y25.4932 
X-32.2131 Y25.5519 
X-32.3823 Y25.6381 
X-32.5360 Y25.7497 
X-32.6703 Y25.8840 
X-32.7819 Y26.0377 
X-32.8681 Y26.2069 
X-32.9268 Y26.3875 
X-32.9565 Y26.5750 
Y29.2735 
X-36.8935 
Y20.2565 
X-20.1803 
Y28.0290 
X-20.1525 Y28.2047 
X-20.0975 Y28.3739 
X-20.0167 Y28.5324 
X-19.9121 Y28.6763 
X-19.7863 Y28.8021 
X-19.6424 Y28.9067 
X-19.4839 Y28.9875 
X-19.3147 Y29.0425 
X-19.1390 Y29.0703 
X-18.9610 
X-18.7853 Y29.0425 
X-18.6161 Y28.9875 
X-18.4576 Y28.9067 
X-18.3137 Y28.8021 
X-18.1879 Y28.6763 
X-18.0833 Y28.5324 
X-18.0025 Y28.3739 
X-17.9475 Y28.2047 
X-17.9197 Y28.0290 
Y19.5182 
X-17.4694 Y19.0678 
X-17.2730 Y19.0040 
X-17.0877 Y18.9096 
X-16.9196 Y18.7874 
X-16.7725 Y18.6404 
X-16.6503 Y18.4722 
X-16.5560 Y18.2870 
X-16.4917 Y18.0893 
X-16.4592 Y17.8839 
Y17.6760 
X-16.4917 Y17.4707 
X-16.5560 Y17.2730 
X-16.6503 Y17.0877 
X-16.7725 Y16.9196 
G00 Z2.0000 
G00 X-16.7925 Y24.2232 
G01 Z-0.1500 F254.00 
G01 X-16.9731 Y24.2819 F508.00 
G01 X-17.1423 Y24.3681 
X-17.2960 Y24.4797 
X-17.4303 Y24.6140 
X-17.5419 Y24.7677 
X-17.6281 Y24.9369 
X-17.6868 Y25.1175 
X-17.7165 Y25.3050 
Y28.0350 
X-17.6868 Y28.2225 
X-17.6281 Y28.4031 
X-17.5419 Y28.5723 
X-17.4303 Y28.7260 
X-17.2960 Y28.8603 
X-17.1423 Y28.9719 
X-16.9731 Y29.0581 
X-16.7925 Y29.1168 
X-16.6050 Y29.1465 
X-13.8750 
X-13.6875 Y29.1168 
X-13.5069 Y29.0581 
X-13.3377 Y28.9719 
X-13.1840 Y28.8603 
X-13.0497 Y28.7260 
X-12.9381 Y28.5723 
X-12.8519 Y28.4031 
X-12.7932 Y28.2225 
X-12.7635 Y28.0350 
Y25.3050 
X-12.7932 Y25.1175 
X-12.8519 Y24.9369 
X-12.9381 Y24.7677 
X-13.0497 Y24.6140 
X-13.1840 Y24.4797 
X-13.3377 Y24.3681 
X-13.5069 Y24.2819 
X-13.6875 Y24.2232 
X-13.8750 Y24.1935 
X-15.3350 
X-16.4150 
X-16.6050 
X-16.7925 Y24.2232 
G00 Z2.0000 
G00 X-16.7687 Y29.4023 
G01 Z-0.1500 F254.00 
G01 X-16.9341 Y29.4561 F508.00 
G01 X-17.0891 Y29.5350 
X-17.2298 Y29.6372 
X-17.3528 Y29.7602 
X-17.4550 Y29.9009 
X-17.5339 Y30.0559 
X-17.5877 Y30.2213 
X-17.6149 Y30.3930 
Y30.5670 
X-17.5877 Y30.7387 
X-17.5339 Y30.9041 
X-17.4550 Y31.0591 
X-17.3528 Y31.1998 
X-17.2298 Y31.3228 
X-17.0891 Y31.4250 
X-16.9341 Y31.5039 
X-16.7687 Y31.5577 
X-16.5970 Y31.5849 
X-16.4230 
X-16.2513 Y31.5577 
X-16.0859 Y31.5039 
X-15.9309 Y31.4250 
X-15.7902 Y31.3228 
X-15.6967 Y31.2293 
X-14.7193 
Y39.8907 
X-20.8407 
Y39.3966 
X-20.8374 Y39.3495 
X-20.8407 Y39.3229 
Y39.2962 
X-20.8499 Y39.2499 
X-20.8558 Y39.2031 
X-20.8643 Y39.1777 
X-20.8695 Y39.1514 
X-20.8876 Y39.1078 
X-22.1343 Y35.3677 
X-22.1395 Y35.3414 
X-22.1576 Y35.2978 
X-22.1725 Y35.2530 
X-22.1857 Y35.2298 
X-22.1960 Y35.2051 
X-22.2222 Y35.1658 
X-22.2456 Y35.1248 
X-22.2631 Y35.1046 
X-22.2780 Y35.0823 
X-22.3114 Y35.0490 
X-22.3197 Y35.0393 
X-22.1301 
X-21.0457 Y38.2923 
X-21.0405 Y38.3186 
X-21.0224 Y38.3622 
X-21.0075 Y38.4070 
X-20.9943 Y38.4302 
X-20.9840 Y38.4549 
X-20.9578 Y38.4942 
X-20.9344 Y38.5352 
X-20.9169 Y38.5554 
X-20.9020 Y38.5776 
X-20.8686 Y38.6110 
X-20.8377 Y38.6467 
X-20.8166 Y38.6631 
X-20.7977 Y38.6820 
X-20.7584 Y38.7082 
X-20.7211 Y38.7372 
X-20.6972 Y38.7492 
X-20.6749 Y38.7640 
X-20.6313 Y38.7821 
X-20.5891 Y38.8032 
X-20.5633 Y38.8103 
X-20.5386 Y38.8205 
X-20.4923 Y38.8297 
X-20.4467 Y38.8422 
X-20.4200 
X-20.3938 Y38.8493 
X-20.3466 
X-20.2995 Y38.8526 
X-20.2730 Y38.8493 
X-16.4362 
X-16.2914 Y38.8205 
X-16.1551 Y38.7640 
X-16.0323 Y38.6820 
X-15.9280 Y38.5776 
X-15.8460 Y38.4549 
X-15.7895 Y38.3186 
X-15.7607 Y38.1738 
Y33.8333 
X-15.6672 Y33.7398 
X-15.5650 Y33.5991 
X-15.4861 Y33.4441 
X-15.4323 Y33.2787 
X-15.4051 Y33.1070 
Y32.9330 
X-15.4323 Y32.7613 
X-15.4861 Y32.5959 
X-15.5650 Y32.4409 
X-15.6672 Y32.3002 
X-15.7902 Y32.1772 
X-15.9309 Y32.0750 
X-16.0859 Y31.9961 
X-16.2513 Y31.9423 
X-16.4230 Y31.9151 
X-16.5970 
X-16.7687 Y31.9423 
X-16.9341 Y31.9961 
X-17.0891 Y32.0750 
X-17.2298 Y32.1772 
X-17.3528 Y32.3002 
X-17.4550 Y32.4409 
X-17.5339 Y32.5959 
X-17.5877 Y32.7613 
X-17.6149 Y32.9330 
Y33.1070 
X-17.5877 Y33.2787 
X-17.5339 Y33.4441 
X-17.4550 Y33.5991 
X-17.3528 Y33.7398 
X-17.2593 Y33.8333 
Y37.3507 
X-19.7799 
X-20.8643 Y34.0977 
X-20.8695 Y34.0714 
X-20.8876 Y34.0278 
X-20.9025 Y33.9830 
X-20.9157 Y33.9598 
X-20.9260 Y33.9351 
X-20.9522 Y33.8958 
X-20.9756 Y33.8548 
X-20.9931 Y33.8346 
X-21.0080 Y33.8123 
X-21.0414 Y33.7790 
X-21.0723 Y33.7433 
X-21.0934 Y33.7269 
X-21.1123 Y33.7080 
X-21.1516 Y33.6818 
X-21.1886 Y33.6530 
X-21.1123 Y33.6020 
X-21.0080 Y33.4977 
X-20.9260 Y33.3749 
X-20.8695 Y33.2386 
X-20.8407 Y33.0938 
Y31.2293 
X-19.8633 
X-19.7698 Y31.3228 
X-19.6291 Y31.4250 
X-19.4741 Y31.5039 
X-19.3087 Y31.5577 
X-19.1370 Y31.5849 
X-18.9630 
X-18.7913 Y31.5577 
X-18.6259 Y31.5039 
X-18.4709 Y31.4250 
X-18.3302 Y31.3228 
X-18.2072 Y31.1998 
X-18.1050 Y31.0591 
X-18.0261 Y30.9041 
X-17.9723 Y30.7387 
X-17.9451 Y30.5670 
Y30.3930 
X-17.9723 Y30.2213 
X-18.0261 Y30.0559 
X-18.1050 Y29.9009 
X-18.2072 Y29.7602 
X-18.3302 Y29.6372 
X-18.4709 Y29.5350 
X-18.6259 Y29.4561 
X-18.7913 Y29.4023 
X-18.9630 Y29.3751 
X-19.1370 
X-19.3087 Y29.4023 
X-19.4741 Y29.4561 
X-19.6291 Y29.5350 
X-19.7698 Y29.6372 
X-19.8633 Y29.7307 
X-21.6638 
X-21.8086 Y29.7595 
X-21.9449 Y29.8160 
X-22.0677 Y29.8980 
X-22.1720 Y30.0023 
X-22.2540 Y30.1251 
X-22.3105 Y30.2614 
X-22.3393 Y30.4062 
Y32.2707 
X-31.8238 
X-31.9686 Y32.2995 
X-32.1049 Y32.3560 
X-32.2276 Y32.4380 
X-32.3320 Y32.5423 
X-32.4140 Y32.6651 
X-32.4705 Y32.8014 
X-32.4993 Y32.9462 
Y37.1531 
X-32.5360 Y37.1797 
X-32.6703 Y37.3140 
X-32.7819 Y37.4677 
X-32.8681 Y37.6369 
X-32.9268 Y37.8175 
X-32.9565 Y38.0050 
Y40.7350 
X-32.9268 Y40.9225 
X-32.8681 Y41.1031 
X-32.7819 Y41.2723 
X-32.6703 Y41.4260 
X-32.5360 Y41.5603 
X-32.3823 Y41.6719 
X-32.2131 Y41.7581 
X-32.0325 Y41.8168 
X-31.8450 Y41.8465 
X-31.6550 
X-31.4675 Y41.8168 
X-31.2869 Y41.7581 
X-31.1177 Y41.6719 
X-30.9640 Y41.5603 
X-30.8297 Y41.4260 
X-30.7181 Y41.2723 
X-30.6319 Y41.1031 
X-30.5732 Y40.9225 
X-30.5435 Y40.7350 
Y38.0050 
X-30.5732 Y37.8175 
X-30.6319 Y37.6369 
X-30.7181 Y37.4677 
X-30.8297 Y37.3140 
X-30.9640 Y37.1797 
X-31.0007 Y37.1531 
Y33.7693 
X-29.7490 
X-29.7920 Y33.8123 
X-29.8740 Y33.9351 
X-29.9305 Y34.0714 
X-29.9593 Y34.2162 
Y37.1531 
X-29.9960 Y37.1797 
X-30.1303 Y37.3140 
X-30.2419 Y37.4677 
X-30.3281 Y37.6369 
X-30.3868 Y37.8175 
X-30.4165 Y38.0050 
Y40.7350 
X-30.3868 Y40.9225 
X-30.3281 Y41.1031 
X-30.2419 Y41.2723 
X-30.1303 Y41.4260 
X-29.9960 Y41.5603 
X-29.8423 Y41.6719 
X-29.6731 Y41.7581 
X-29.4925 Y41.8168 
X-29.3050 Y41.8465 
X-29.1150 
X-28.9275 Y41.8168 
X-28.7469 Y41.7581 
X-28.5777 Y41.6719 
X-28.4240 Y41.5603 
X-28.2897 Y41.4260 
X-28.1781 Y41.2723 
X-28.0919 Y41.1031 
X-28.0332 Y40.9225 
X-28.0035 Y40.7350 
Y38.0050 
X-28.0332 Y37.8175 
X-28.0919 Y37.6369 
X-28.1781 Y37.4677 
X-28.2897 Y37.3140 
X-28.4240 Y37.1797 
X-28.4607 Y37.1531 
Y35.0393 
X-27.2090 
X-27.2520 Y35.0823 
X-27.3340 Y35.2051 
X-27.3905 Y35.3414 
X-27.4193 Y35.4862 
Y37.2508 
X-27.5321 Y37.3637 
X-27.6367 Y37.5076 
X-27.7175 Y37.6661 
X-27.7725 Y37.8353 
X-27.8003 Y38.0110 
Y40.7290 
X-27.7725 Y40.9047 
X-27.7175 Y41.0739 
X-27.6367 Y41.2324 
X-27.5321 Y41.3763 
X-27.4063 Y41.5021 
X-27.2624 Y41.6067 
X-27.1039 Y41.6875 
X-26.9347 Y41.7425 
X-26.7590 Y41.7703 
X-26.5810 
X-26.4053 Y41.7425 
X-26.2361 Y41.6875 
X-26.0776 Y41.6067 
X-25.9337 Y41.5021 
X-25.8079 Y41.3763 
X-25.7033 Y41.2324 
X-25.6225 Y41.0739 
X-25.5675 Y40.9047 
X-25.5397 Y40.7290 
Y38.0110 
X-25.5675 Y37.8353 
X-25.6225 Y37.6661 
X-25.7033 Y37.5076 
X-25.8079 Y37.3637 
X-25.9207 Y37.2508 
Y36.3093 
X-23.4001 
X-22.3393 Y39.4916 
Y40.7138 
X-22.3105 Y40.8586 
X-22.2540 Y40.9949 
X-22.1720 Y41.1176 
X-22.0677 Y41.2220 
X-21.9449 Y41.3040 
X-21.8086 Y41.3605 
X-21.6638 Y41.3893 
X-13.8962 
X-13.7514 Y41.3605 
X-13.6151 Y41.3040 
X-13.4923 Y41.2220 
X-13.3880 Y41.1176 
X-13.3060 Y40.9949 
X-13.2495 Y40.8586 
X-13.2207 Y40.7138 
Y30.4062 
X-13.2495 Y30.2614 
X-13.3060 Y30.1251 
X-13.3880 Y30.0023 
X-13.4923 Y29.8980 
X-13.6151 Y29.8160 
X-13.7514 Y29.7595 
X-13.8962 Y29.7307 
X-15.6967 
X-15.7902 Y29.6372 
X-15.9309 Y29.5350 
X-16.0859 Y29.4561 
X-16.2513 Y29.4023 
X-16.4230 Y29.3751 
X-16.5970 
X-16.7687 Y29.4023 
G00 Z2.0000 
G00 X-18.1297 Y32.2340 
G01 Z-0.1500 F254.00 
G01 X-18.2640 Y32.0997 F508.00 
G01 X-18.4177 Y31.9881 
X-18.5869 Y31.9019 
X-18.7675 Y31.8432 
X-18.9550 Y31.8135 
X-19.1450 
X-19.3325 Y31.8432 
X-19.5131 Y31.9019 
X-19.6823 Y31.9881 
X-19.8360 Y32.0997 
X-19.9703 Y32.2340 
X-20.0819 Y32.3877 
X-20.1681 Y32.5569 
X-20.2268 Y32.7375 
X-20.2565 Y32.9250 
Y35.6550 
X-20.2268 Y35.8425 
X-20.1681 Y36.0231 
X-20.0819 Y36.1923 
X-19.9703 Y36.3460 
X-19.8360 Y36.4803 
X-19.6823 Y36.5919 
X-19.5131 Y36.6781 
X-19.3325 Y36.7368 
X-19.1450 Y36.7665 
X-18.9550 
X-18.7675 Y36.7368 
X-18.5869 Y36.6781 
X-18.4177 Y36.5919 
X-18.2640 Y36.4803 
X-18.1297 Y36.3460 
X-18.0181 Y36.1923 
X-17.9319 Y36.0231 
X-17.8732 Y35.8425 
X-17.8435 Y35.6550 
Y32.9250 
X-17.8732 Y32.7375 
X-17.9319 Y32.5569 
X-18.0181 Y32.3877 
X-18.1297 Y32.2340 
G00 Z2.0000 
G00 X-23.3440 Y31.4003 
G01 Z-0.1500 F254.00 
G01 X-23.2097 Y31.2660 F508.00 
G01 X-23.0981 Y31.1123 
X-23.0119 Y30.9431 
X-22.9532 Y30.7625 
X-22.9235 Y30.5750 
Y25.3050 
X-22.9532 Y25.1175 
X-23.0119 Y24.9369 
X-23.0981 Y24.7677 
X-23.2097 Y24.6140 
X-23.3440 Y24.4797 
X-23.4977 Y24.3681 
X-23.6669 Y24.2819 
X-23.8475 Y24.2232 
X-24.0350 Y24.1935 
X-24.2250 
X-24.4125 Y24.2232 
X-24.5931 Y24.2819 
X-24.7623 Y24.3681 
X-24.9160 Y24.4797 
X-25.0503 Y24.6140 
X-25.1619 Y24.7677 
X-25.2481 Y24.9369 
X-25.3068 Y25.1175 
X-25.3365 Y25.3050 
Y30.5750 
X-25.3068 Y30.7625 
X-25.2481 Y30.9431 
X-25.1619 Y31.1123 
X-25.0503 Y31.2660 
X-24.9160 Y31.4003 
X-24.7623 Y31.5119 
X-24.5931 Y31.5981 
X-24.4125 Y31.6568 
X-24.2250 Y31.6865 
X-24.0350 
X-23.8475 Y31.6568 
X-23.6669 Y31.5981 
X-23.4977 Y31.5119 
X-23.3440 Y31.4003 
G00 Z2.0000 
G00 X-25.8840 Y31.4003 
G01 Z-0.1500 F254.00 
G01 X-25.7497 Y31.2660 F508.00 
G01 X-25.6381 Y31.1123 
X-25.5519 Y30.9431 
X-25.4932 Y30.7625 
X-25.4635 Y30.5750 
Y21.4950 
X-25.4932 Y21.3075 
X-25.5519 Y21.1269 
X-25.6381 Y20.9577 
X-25.7497 Y20.8040 
X-25.8840 Y20.6697 
X-26.0377 Y20.5581 
X-26.2069 Y20.4719 
X-26.3875 Y20.4132 
X-26.5750 Y20.3835 
X-26.7650 
X-26.9525 Y20.4132 
X-27.1331 Y20.4719 
X-27.3023 Y20.5581 
X-27.4560 Y20.6697 
X-27.5903 Y20.8040 
X-27.7019 Y20.9577 
X-27.7881 Y21.1269 
X-27.8468 Y21.3075 
X-27.8765 Y21.4950 
Y26.7650 
Y30.5750 
X-27.8468 Y30.7625 
X-27.7881 Y30.9431 
X-27.7019 Y31.1123 
X-27.5903 Y31.2660 
X-27.4560 Y31.4003 
X-27.3023 Y31.5119 
X-27.1331 Y31.5981 
X-26.9525 Y31.6568 
X-26.7650 Y31.6865 
X-26.5750 
X-26.3875 Y31.6568 
X-26.2069 Y31.5981 
X-26.0377 Y31.5119 
X-25.8840 Y31.4003 
G00 Z2.0000 
G00 X-28.4240 Y31.4003 
G01 Z-0.1500 F254.00 
G01 X-28.2897 Y31.2660 F508.00 
G01 X-28.1781 Y31.1123 
X-28.0919 Y30.9431 
X-28.0332 Y30.7625 
X-28.0035 Y30.5750 
Y21.4950 
X-28.0332 Y21.3075 
X-28.0919 Y21.1269 
X-28.1781 Y20.9577 
X-28.2897 Y20.8040 
X-28.4240 Y20.6697 
X-28.5777 Y20.5581 
X-28.7469 Y20.4719 
X-28.9275 Y20.4132 
X-29.1150 Y20.3835 
X-35.0186 
X-35.0530 Y20.3660 
X-35.2507 Y20.3017 
X-35.4560 Y20.2692 
X-35.6639 
X-35.8693 Y20.3017 
X-36.0670 Y20.3660 
X-36.2522 Y20.4603 
X-36.4204 Y20.5826 
X-36.5674 Y20.7296 
X-36.6896 Y20.8977 
X-36.7840 Y21.0830 
X-36.8483 Y21.2807 
X-36.8808 Y21.4860 
Y21.6940 
X-36.8483 Y21.8993 
X-36.7840 Y22.0970 
X-36.7665 Y22.1314 
Y25.4950 
X-36.7368 Y25.6825 
X-36.6781 Y25.8631 
X-36.5919 Y26.0323 
X-36.4803 Y26.1860 
X-36.3460 Y26.3203 
X-36.1923 Y26.4319 
X-36.0231 Y26.5181 
X-35.8425 Y26.5768 
X-35.6550 Y26.6065 
X-35.4650 
X-35.2775 Y26.5768 
X-35.0969 Y26.5181 
X-34.9277 Y26.4319 
X-34.7740 Y26.3203 
X-34.6397 Y26.1860 
X-34.5281 Y26.0323 
X-34.4419 Y25.8631 
X-34.3832 Y25.6825 
X-34.3535 Y25.4950 
Y22.7965 
X-30.4165 
Y30.5750 
X-30.3868 Y30.7625 
X-30.3281 Y30.9431 
X-30.2419 Y31.1123 
X-30.1303 Y31.2660 
X-29.9960 Y31.4003 
X-29.8423 Y31.5119 
X-29.6731 Y31.5981 
X-29.4925 Y31.6568 
X-29.3050 Y31.6865 
X-29.1150 
X-28.9275 Y31.6568 
X-28.7469 Y31.5981 
X-28.5777 Y31.5119 
X-28.4240 Y31.4003 
G00 Z2.0000 
G00 X-25.1374 Y22.4504 
G01 Z-0.1500 F254.00 
G01 X-24.9904 Y22.5974 F508.00 
G01 X-24.8223 Y22.7196 
X-24.6370 Y22.8140 
X-24.4393 Y22.8783 
X-24.2340 Y22.9108 
X-24.0260 
X-23.8207 Y22.8783 
X-23.6230 Y22.8140 
X-23.5886 Y22.7965 
X-22.1314 
X-22.0970 Y22.8140 
X-21.8993 Y22.8783 
X-21.6940 Y22.9108 
X-21.4860 
X-21.2807 Y22.8783 
X-21.0830 Y22.8140 
X-20.8977 Y22.7196 
X-20.7296 Y22.5974 
X-20.5826 Y22.4504 
X-20.4603 Y22.2823 
X-20.3660 Y22.0970 
X-20.3017 Y21.8993 
X-20.2692 Y21.6940 
Y21.4860 
X-20.3017 Y21.2807 
X-20.3660 Y21.0830 
X-20.4603 Y20.8977 
X-20.5826 Y20.7296 
X-20.7296 Y20.5826 
X-20.8977 Y20.4603 
X-21.0830 Y20.3660 
X-21.2807 Y20.3017 
X-21.4860 Y20.2692 
X-21.6940 
X-21.8993 Y20.3017 
X-22.0970 Y20.3660 
X-22.1314 Y20.3835 
X-23.5886 
X-23.6230 Y20.3660 
X-23.8207 Y20.3017 
X-24.0260 Y20.2692 
X-24.2340 
X-24.4393 Y20.3017 
X-24.6370 Y20.3660 
X-24.8223 Y20.4603 
X-24.9904 Y20.5826 
X-25.1374 Y20.7296 
X-25.2596 Y20.8977 
X-25.3540 Y21.0830 
X-25.4183 Y21.2807 
X-25.4508 Y21.4860 
Y21.6940 
X-25.4183 Y21.8993 
X-25.3540 Y22.0970 
X-25.2596 Y22.2823 
X-25.1374 Y22.4504 
G00 Z2.0000 
G00 X-26.7590 Y47.1297 
G01 Z-0.1500 F254.00 
G01 X-26.9347 Y47.1575 F508.00 
G01 X-27.1039 Y47.2125 
X-27.2624 Y47.2933 
X-27.4063 Y47.3979 
X-27.5321 Y47.5237 
X-27.6367 Y47.6676 
X-27.7175 Y47.8261 
X-27.7725 Y47.9953 
X-27.8003 Y48.1710 
Y48.3490 
X-27.7725 Y48.5247 
X-27.7175 Y48.6939 
X-27.6367 Y48.8524 
X-27.5321 Y48.9963 
X-27.4063 Y49.1221 
X-27.2624 Y49.2267 
X-27.1039 Y49.3075 
X-26.9347 Y49.3625 
X-26.7590 Y49.3903 
X-21.5010 
X-21.3253 Y49.3625 
X-21.1561 Y49.3075 
X-20.9976 Y49.2267 
X-20.8537 Y49.1221 
X-20.7279 Y48.9963 
X-20.6233 Y48.8524 
X-20.5425 Y48.6939 
X-20.4875 Y48.5247 
X-20.4597 Y48.3490 
Y48.1710 
X-20.4875 Y47.9953 
X-20.5425 Y47.8261 
X-20.6233 Y47.6676 
X-20.7279 Y47.5237 
X-20.8537 Y47.3979 
X-20.9976 Y47.2933 
X-21.1561 Y47.2125 
X-21.3253 Y47.1575 
X-21.5010 Y47.1297 
X-26.7590 
G00 Z2.0000 
G00 X-28.3479 Y47.5237 
G01 Z-0.1500 F254.00 
G01 X-28.4737 Y47.3979 F508.00 
G01 X-28.6176 Y47.2933 
X-28.7761 Y47.2125 
X-28.9453 Y47.1575 
X-29.1210 Y47.1297 
X-29.2990 
X-29.4747 Y47.1575 
X-29.6439 Y47.2125 
X-29.8024 Y47.2933 
X-29.9463 Y47.3979 
X-30.0721 Y47.5237 
X-30.1767 Y47.6676 
X-30.2575 Y47.8261 
X-30.3125 Y47.9953 
X-30.3403 Y48.1710 
Y50.8890 
X-30.3125 Y51.0647 
X-30.2575 Y51.2339 
X-30.1767 Y51.3924 
X-30.0721 Y51.5363 
X-29.9463 Y51.6621 
X-29.8024 Y51.7667 
X-29.6439 Y51.8475 
X-29.4747 Y51.9025 
X-29.2990 Y51.9303 
X-18.9610 
X-18.7853 Y51.9025 
X-18.6161 Y51.8475 
X-18.4576 Y51.7667 
X-18.3137 Y51.6621 
X-18.1879 Y51.5363 
X-18.0833 Y51.3924 
X-18.0025 Y51.2339 
X-17.9475 Y51.0647 
X-17.9197 Y50.8890 
Y49.3903 
X-16.9356 
X-16.7925 Y49.4368 
X-16.6050 Y49.4665 
X-12.6050 
X-12.4175 Y49.4368 
X-12.2369 Y49.3781 
X-12.0677 Y49.2919 
X-11.9140 Y49.1803 
X-11.7797 Y49.0460 
X-11.6681 Y48.8923 
X-11.5819 Y48.7231 
X-11.5232 Y48.5425 
X-11.4935 Y48.3550 
Y48.1650 
X-11.5232 Y47.9775 
X-11.5819 Y47.7969 
X-11.6681 Y47.6277 
X-11.7797 Y47.4740 
X-11.9140 Y47.3397 
X-12.0677 Y47.2281 
X-12.2369 Y47.1419 
X-12.4175 Y47.0832 
X-12.6050 Y47.0535 
X-16.6050 
X-16.7925 Y47.0832 
X-16.9356 Y47.1297 
X-19.1390 
X-19.3147 Y47.1575 
X-19.4839 Y47.2125 
X-19.6424 Y47.2933 
X-19.7863 Y47.3979 
X-19.9121 Y47.5237 
X-20.0167 Y47.6676 
X-20.0975 Y47.8261 
X-20.1525 Y47.9953 
X-20.1803 Y48.1710 
Y49.6697 
X-28.0797 
Y48.1710 
X-28.1075 Y47.9953 
X-28.1625 Y47.8261 
X-28.2433 Y47.6676 
X-28.3479 Y47.5237 
G00 Z2.0000 
G00 X-30.7181 Y47.6277 
G01 Z-0.1500 F254.00 
G01 X-30.8297 Y47.4740 F508.00 
G01 X-30.9640 Y47.3397 
X-31.1177 Y47.2281 
X-31.2869 Y47.1419 
X-31.4675 Y47.0832 
X-31.6550 Y47.0535 
X-38.1950 
X-38.3825 Y47.0832 
X-38.5631 Y47.1419 
X-38.7323 Y47.2281 
X-38.8860 Y47.3397 
X-39.0203 Y47.4740 
X-39.1319 Y47.6277 
X-39.2181 Y47.7969 
X-39.2768 Y47.9775 
X-39.3065 Y48.1650 
Y48.3550 
X-39.2768 Y48.5425 
X-39.2181 Y48.7231 
X-39.1319 Y48.8923 
X-39.0203 Y49.0460 
X-38.8860 Y49.1803 
X-38.7323 Y49.2919 
X-38.5631 Y49.3781 
X-38.3825 Y49.4368 
X-38.1950 Y49.4665 
X-34.1950 
X-31.6550 
X-31.4675 Y49.4368 
X-31.2869 Y49.3781 
X-31.1177 Y49.2919 
X-30.9640 Y49.1803 
X-30.8297 Y49.0460 
X-30.7181 Y48.8923 
X-30.6319 Y48.7231 
X-30.5732 Y48.5425 
X-30.5435 Y48.3550 
Y48.1650 
X-30.5732 Y47.9775 
X-30.6319 Y47.7969 
X-30.7181 Y47.6277 
G00 Z2.0000 
G00 X-17.3704 Y49.7925 
G01 Z-0.1500 F254.00 
G01 X-17.5174 Y49.9396 F508.00 
G01 X-17.6396 Y50.1077 
X-17.7340 Y50.2930 
X-17.7983 Y50.4907 
X-17.8308 Y50.6960 
Y50.9040 
X-17.7983 Y51.1093 
X-17.7340 Y51.3070 
X-17.6396 Y51.4922 
X-17.5174 Y51.6604 
X-17.3704 Y51.8074 
X-17.2022 Y51.9296 
X-17.0170 Y52.0240 
X-16.8193 Y52.0883 
X-16.6139 Y52.1208 
X-16.4060 
X-16.2007 Y52.0883 
X-16.0030 Y52.0240 
X-15.9686 Y52.0065 
X-12.6050 
X-12.4175 Y51.9768 
X-12.2369 Y51.9181 
X-12.0677 Y51.8319 
X-11.9140 Y51.7203 
X-11.7797 Y51.5860 
X-11.6681 Y51.4323 
X-11.5819 Y51.2631 
X-11.5232 Y51.0825 
X-11.4935 Y50.8950 
Y50.7050 
X-11.5232 Y50.5175 
X-11.5819 Y50.3369 
X-11.6681 Y50.1677 
X-11.7797 Y50.0140 
X-11.9140 Y49.8797 
X-12.0677 Y49.7681 
X-12.2369 Y49.6819 
X-12.4175 Y49.6232 
X-12.6050 Y49.5935 
X-15.9686 
X-16.0030 Y49.5760 
X-16.2007 Y49.5117 
X-16.4060 Y49.4792 
X-16.6139 
X-16.8193 Y49.5117 
X-17.0170 Y49.5760 
X-17.2022 Y49.6703 
X-17.3704 Y49.7925 
G00 Z2.0000 
G00 X-7.9310 Y11.8809 
G01 Z-0.1500 F254.00 
G01 X-8.0709 Y11.7410 F508.00 
G01 X-8.2310 Y11.6247 
X-8.4074 Y11.5348 
X-8.5956 Y11.4737 
X-8.7910 Y11.4427 
X-24.2290 
X-24.4244 Y11.4737 
X-24.6126 Y11.5348 
X-24.7890 Y11.6247 
X-24.9491 Y11.7410 
X-25.0318 Y11.8237 
X-36.9163 
X-37.0856 Y11.8574 
X-37.2451 Y11.9234 
X-37.3886 Y12.0193 
X-37.5107 Y12.1414 
X-37.6066 Y12.2849 
X-37.6726 Y12.4444 
X-37.7063 Y12.6137 
Y13.2531 
X-37.7967 Y13.3776 
X-37.8775 Y13.5361 
X-37.9325 Y13.7053 
X-37.9603 Y13.8810 
Y14.0590 
X-37.9325 Y14.2347 
X-37.8775 Y14.4039 
X-37.7967 Y14.5624 
X-37.6921 Y14.7063 
X-37.5663 Y14.8321 
X-37.4224 Y14.9367 
X-37.2639 Y15.0175 
X-37.0947 Y15.0725 
X-36.9190 Y15.1003 
X-36.7410 
X-36.5653 Y15.0725 
X-36.3961 Y15.0175 
X-36.2376 Y14.9367 
X-36.0937 Y14.8321 
X-35.9679 Y14.7063 
X-35.8633 Y14.5624 
X-35.7825 Y14.4039 
X-35.7275 Y14.2347 
X-35.6997 Y14.0590 
Y13.8810 
X-35.7275 Y13.7053 
X-35.7695 Y13.5763 
X-30.3106 
X-30.3496 Y13.6964 
X-30.3784 Y13.8780 
Y14.0620 
X-30.3496 Y14.2436 
X-30.2928 Y14.4185 
X-30.2093 Y14.5824 
X-30.1012 Y14.7312 
X-29.9712 Y14.8612 
X-29.8224 Y14.9693 
X-29.6585 Y15.0528 
X-29.4836 Y15.1096 
X-29.3020 Y15.1384 
X-29.1180 
X-28.9364 Y15.1096 
X-28.7615 Y15.0528 
X-28.5976 Y14.9693 
X-28.4488 Y14.8612 
X-28.3188 Y14.7312 
X-28.2107 Y14.5824 
X-28.1272 Y14.4185 
X-28.0704 Y14.2436 
X-28.0416 Y14.0620 
Y13.8780 
X-28.0704 Y13.6964 
X-28.1094 Y13.5763 
X-25.3873 
Y15.3390 
X-25.3563 Y15.5344 
X-25.2952 Y15.7226 
X-25.2053 Y15.8990 
X-25.0890 Y16.0591 
X-24.9491 Y16.1990 
X-24.7890 Y16.3153 
X-24.6126 Y16.4052 
X-24.4244 Y16.4663 
X-24.2290 Y16.4973 
X-24.0310 
X-23.9321 Y16.4816 
X-23.9353 Y16.4860 
X-24.0252 Y16.6624 
X-24.0863 Y16.8506 
X-24.1173 Y17.0460 
Y17.7165 
X-27.9527 
Y16.4110 
X-27.9837 Y16.2156 
X-28.0448 Y16.0274 
X-28.1347 Y15.8510 
X-28.2510 Y15.6909 
X-28.3909 Y15.5510 
X-28.5510 Y15.4347 
X-28.7274 Y15.3448 
X-28.9156 Y15.2837 
X-29.1110 Y15.2527 
X-29.3089 
X-29.5044 Y15.2837 
X-29.6926 Y15.3448 
X-29.8690 Y15.4347 
X-30.0291 Y15.5510 
X-30.1690 Y15.6909 
X-30.2853 Y15.8510 
X-30.3752 Y16.0274 
X-30.4363 Y16.2156 
X-30.4673 Y16.4110 
Y17.7165 
X-38.2049 
X-38.4123 Y17.7493 
X-38.6119 Y17.8142 
X-38.7989 Y17.9095 
X-38.9687 Y18.0329 
X-39.1171 Y18.1813 
X-39.2405 Y18.3511 
X-39.3358 Y18.5381 
X-39.4007 Y18.7377 
X-39.4335 Y18.9450 
Y45.8250 
X-39.4007 Y46.0323 
X-39.3358 Y46.2319 
X-39.2405 Y46.4189 
X-39.1171 Y46.5887 
X-38.9687 Y46.7371 
X-38.7989 Y46.8605 
X-38.6119 Y46.9558 
X-38.5066 Y46.9900 
X-38.6119 Y47.0242 
X-38.7989 Y47.1195 
X-38.9687 Y47.2429 
X-39.1171 Y47.3913 
X-39.2405 Y47.5611 
X-39.3358 Y47.7481 
X-39.4007 Y47.9477 
X-39.4335 Y48.1550 
Y48.3650 
X-39.4007 Y48.5723 
X-39.3358 Y48.7719 
X-39.2405 Y48.9589 
X-39.1171 Y49.1287 
X-38.9687 Y49.2771 
X-38.7989 Y49.4005 
X-38.6706 Y49.4659 
X-38.8588 Y49.5617 
X-39.0432 Y49.6957 
X-39.2043 Y49.8568 
X-39.3383 Y50.0412 
X-39.4417 Y50.2442 
X-39.5121 Y50.4610 
X-39.5478 Y50.6861 
Y50.9139 
X-39.5121 Y51.1390 
X-39.4417 Y51.3558 
X-39.3383 Y51.5588 
X-39.2043 Y51.7432 
X-39.0432 Y51.9043 
X-38.8588 Y52.0383 
X-38.7965 Y52.0700 
X-38.8588 Y52.1017 
X-39.0432 Y52.2357 
X-39.2043 Y52.3968 
X-39.3383 Y52.5812 
X-39.4417 Y52.7842 
X-39.5121 Y53.0010 
X-39.5478 Y53.2261 
Y53.4539 
X-39.5121 Y53.6790 
X-39.4417 Y53.8958 
X-39.3383 Y54.0988 
X-39.2043 Y54.2832 
X-39.0432 Y54.4443 
X-38.8588 Y54.5783 
X-38.6558 Y54.6817 
X-38.4390 Y54.7521 
X-38.2139 Y54.7878 
X-37.9861 
X-37.7610 Y54.7521 
X-37.5442 Y54.6817 
X-37.3785 Y54.5973 
X-27.3915 
X-27.2258 Y54.6817 
X-27.0090 Y54.7521 
X-26.7839 Y54.7878 
X-26.5561 
X-26.3310 Y54.7521 
X-26.1142 Y54.6817 
X-25.9485 Y54.5973 
X-8.7910 
X-8.5956 Y54.5663 
X-8.4074 Y54.5052 
X-8.2310 Y54.4153 
X-8.0709 Y54.2990 
X-7.9310 Y54.1591 
X-7.8147 Y53.9990 
X-7.7248 Y53.8226 
X-7.6637 Y53.6344 
X-7.6327 Y53.4389 
Y18.5015 
X-7.5483 Y18.3358 
X-7.4779 Y18.1190 
X-7.4422 Y17.8939 
Y17.6661 
X-7.4779 Y17.4410 
X-7.5483 Y17.2242 
X-7.6327 Y17.0585 
Y12.6010 
X-7.6637 Y12.4056 
X-7.7248 Y12.2174 
X-7.8147 Y12.0410 
X-7.9310 Y11.8809 
G00 Z2.0000 
G00 X-10.1473 Y13.9573 
G01 Z-0.1500 F254.00 
G01 X-10.1473 Y17.0585 F508.00 
G01 X-10.2317 Y17.2242 
X-10.3021 Y17.4410 
X-10.3378 Y17.6661 
Y17.8939 
X-10.3021 Y18.1190 
X-10.2317 Y18.3358 
X-10.1473 Y18.5015 
Y21.2225 
X-10.1942 Y21.0781 
X-10.2895 Y20.8911 
X-10.4129 Y20.7213 
X-10.5613 Y20.5729 
X-10.7311 Y20.4495 
X-10.9181 Y20.3542 
X-11.1177 Y20.2893 
X-11.3250 Y20.2565 
X-11.5350 
X-11.7423 Y20.2893 
X-11.8757 Y20.3327 
X-12.7127 
Y15.1410 
X-12.7437 Y14.9456 
X-12.8048 Y14.7574 
X-12.8947 Y14.5810 
X-13.0110 Y14.4209 
X-13.1509 Y14.2810 
X-13.3110 Y14.1647 
X-13.4874 Y14.0748 
X-13.6756 Y14.0137 
X-13.8710 Y13.9827 
X-21.6889 
X-21.8844 Y14.0137 
X-22.0726 Y14.0748 
X-22.2490 Y14.1647 
X-22.4091 Y14.2810 
X-22.5490 Y14.4209 
X-22.6653 Y14.5810 
X-22.7552 Y14.7574 
X-22.8163 Y14.9456 
X-22.8473 Y15.1410 
Y15.3390 
X-22.8163 Y15.5344 
X-22.7552 Y15.7226 
X-22.6653 Y15.8990 
X-22.6621 Y15.9034 
X-22.7610 Y15.8877 
X-22.9590 
X-23.0579 Y15.9034 
X-23.0547 Y15.8990 
X-22.9648 Y15.7226 
X-22.9037 Y15.5344 
X-22.8727 Y15.3390 
Y13.9573 
X-10.1473 
G00 Z2.0000 
G00 X-15.2273 Y16.4973 
G01 Z-0.1500 F254.00 
G01 X-15.2273 Y21.6889 F508.00 
G01 X-15.1963 Y21.8844 
X-15.1352 Y22.0726 
X-15.0453 Y22.2490 
X-14.9290 Y22.4091 
X-14.7891 Y22.5490 
X-14.6290 Y22.6653 
X-14.4526 Y22.7552 
X-14.2644 Y22.8163 
X-14.0689 Y22.8473 
X-12.7635 
Y24.8306 
X-12.8295 Y24.7011 
X-12.9529 Y24.5313 
X-13.1013 Y24.3829 
X-13.2711 Y24.2595 
X-13.4581 Y24.1642 
X-13.6577 Y24.0993 
X-13.8650 Y24.0665 
X-16.6150 
X-16.8223 Y24.0993 
X-17.0219 Y24.1642 
X-17.2089 Y24.2595 
X-17.3787 Y24.3829 
X-17.5271 Y24.5313 
X-17.6505 Y24.7011 
X-17.7458 Y24.8881 
X-17.7927 Y25.0325 
Y21.4910 
Y19.5708 
X-17.4011 Y19.1792 
X-17.2242 Y19.1217 
X-17.0212 Y19.0183 
X-16.8368 Y18.8843 
X-16.6757 Y18.7232 
X-16.5417 Y18.5388 
X-16.4383 Y18.3358 
X-16.3679 Y18.1190 
X-16.3322 Y17.8939 
Y17.6661 
X-16.3679 Y17.4410 
X-16.4383 Y17.2242 
X-16.5417 Y17.0212 
X-16.6757 Y16.8368 
X-16.8368 Y16.6757 
X-17.0212 Y16.5417 
X-17.1084 Y16.4973 
X-15.2273 
G00 Z2.0000 
G00 X-18.4516 Y16.4973 
G01 Z-0.1500 F254.00 
G01 X-18.5388 Y16.5417 F508.00 
G01 X-18.7232 Y16.6757 
X-18.8843 Y16.8368 
X-19.0183 Y17.0212 
X-19.1217 Y17.2242 
X-19.1792 Y17.4011 
X-19.4946 Y17.7165 
X-21.6027 
Y17.0460 
X-21.6337 Y16.8506 
X-21.6948 Y16.6624 
X-21.7847 Y16.4860 
X-21.7879 Y16.4816 
X-21.6889 Y16.4973 
X-18.4516 
G00 Z2.0000 
G00 X-20.3073 Y20.3835 
G01 Z-0.1500 F254.00 
G01 X-20.3073 Y20.9184 F508.00 
G01 X-20.3517 Y20.8312 
X-20.4857 Y20.6468 
X-20.6468 Y20.4857 
X-20.7875 Y20.3835 
X-20.3073 
G00 Z2.0000 
G00 X-20.3073 Y22.2616 
G01 Z-0.1500 F254.00 
G01 X-20.3073 Y28.0389 F508.00 
G01 X-20.2763 Y28.2344 
X-20.2152 Y28.4226 
X-20.1253 Y28.5990 
X-20.0090 Y28.7591 
X-19.8691 Y28.8990 
X-19.7090 Y29.0153 
X-19.5326 Y29.1052 
X-19.3444 Y29.1663 
X-19.1489 Y29.1973 
X-18.9510 
X-18.7556 Y29.1663 
X-18.5674 Y29.1052 
X-18.3910 Y29.0153 
X-18.2309 Y28.8990 
X-18.0910 Y28.7591 
X-17.9747 Y28.5990 
X-17.8848 Y28.4226 
X-17.8237 Y28.2344 
X-17.8186 Y28.2023 
X-17.8107 Y28.2523 
X-17.7458 Y28.4519 
X-17.6505 Y28.6389 
X-17.5271 Y28.8087 
X-17.3787 Y28.9571 
X-17.2089 Y29.0805 
X-17.0219 Y29.1758 
X-16.8223 Y29.2407 
X-16.6911 Y29.2614 
X-16.7985 Y29.2784 
X-16.9829 Y29.3384 
X-17.1557 Y29.4264 
X-17.3125 Y29.5404 
X-17.4496 Y29.6775 
X-17.5636 Y29.8343 
X-17.6516 Y30.0071 
X-17.7116 Y30.1915 
X-17.7419 Y30.3830 
Y30.5770 
X-17.7116 Y30.7685 
X-17.6516 Y30.9529 
X-17.5636 Y31.1257 
X-17.4496 Y31.2825 
X-17.3125 Y31.4196 
X-17.1557 Y31.5336 
X-16.9829 Y31.6216 
X-16.7985 Y31.6816 
X-16.6070 Y31.7119 
X-16.4130 
X-16.2215 Y31.6816 
X-16.0371 Y31.6216 
X-15.8643 Y31.5336 
X-15.7075 Y31.4196 
X-15.6441 Y31.3563 
X-14.8463 
Y39.7637 
X-20.7137 
Y39.4011 
X-20.7098 Y39.3460 
X-20.7137 Y39.3150 
Y39.2837 
X-20.7245 Y39.2295 
X-20.7314 Y39.1748 
X-20.7413 Y39.1451 
X-20.7474 Y39.1144 
X-20.7685 Y39.0634 
X-20.8582 Y38.7943 
X-20.8327 Y38.8113 
X-20.7891 Y38.8452 
X-20.7611 Y38.8592 
X-20.7351 Y38.8766 
X-20.6841 Y38.8977 
X-20.6347 Y38.9224 
X-20.6045 Y38.9306 
X-20.5756 Y38.9426 
X-20.5215 Y38.9534 
X-20.4682 Y38.9680 
X-20.4370 
X-20.4063 Y38.9763 
X-20.3511 
X-20.2960 Y38.9802 
X-20.2650 Y38.9763 
X-16.4237 
X-16.2544 Y38.9426 
X-16.0949 Y38.8766 
X-15.9514 Y38.7807 
X-15.8293 Y38.6586 
X-15.7334 Y38.5151 
X-15.6674 Y38.3556 
X-15.6337 Y38.1863 
Y33.8859 
X-15.5704 Y33.8225 
X-15.4564 Y33.6657 
X-15.3684 Y33.4929 
X-15.3084 Y33.3085 
X-15.2781 Y33.1170 
Y32.9230 
X-15.3084 Y32.7315 
X-15.3684 Y32.5471 
X-15.4564 Y32.3743 
X-15.5704 Y32.2175 
X-15.7075 Y32.0804 
X-15.8643 Y31.9664 
X-16.0371 Y31.8784 
X-16.2215 Y31.8184 
X-16.4130 Y31.7881 
X-16.6070 
X-16.7985 Y31.8184 
X-16.9829 Y31.8784 
X-17.1557 Y31.9664 
X-17.3125 Y32.0804 
X-17.4496 Y32.2175 
X-17.5636 Y32.3743 
X-17.6516 Y32.5471 
X-17.7116 Y32.7315 
X-17.7286 Y32.8389 
X-17.7493 Y32.7077 
X-17.8142 Y32.5081 
X-17.9095 Y32.3211 
X-18.0329 Y32.1513 
X-18.1813 Y32.0029 
X-18.3511 Y31.8795 
X-18.5381 Y31.7842 
X-18.7377 Y31.7193 
X-18.8689 Y31.6986 
X-18.7615 Y31.6816 
X-18.5771 Y31.6216 
X-18.4043 Y31.5336 
X-18.2475 Y31.4196 
X-18.1104 Y31.2825 
X-17.9964 Y31.1257 
X-17.9084 Y30.9529 
X-17.8484 Y30.7685 
X-17.8181 Y30.5770 
Y30.3830 
X-17.8484 Y30.1915 
X-17.9084 Y30.0071 
X-17.9964 Y29.8343 
X-18.1104 Y29.6775 
X-18.2475 Y29.5404 
X-18.4043 Y29.4264 
X-18.5771 Y29.3384 
X-18.7615 Y29.2784 
X-18.9530 Y29.2481 
X-19.1470 
X-19.3385 Y29.2784 
X-19.5229 Y29.3384 
X-19.6957 Y29.4264 
X-19.8525 Y29.5404 
X-19.9159 Y29.6037 
X-21.6763 
X-21.8456 Y29.6374 
X-22.0051 Y29.7034 
X-22.1486 Y29.7993 
X-22.2707 Y29.9214 
X-22.3666 Y30.0649 
X-22.4326 Y30.2244 
X-22.4663 Y30.3937 
Y32.1437 
X-31.8363 
X-32.0056 Y32.1774 
X-32.1651 Y32.2434 
X-32.3086 Y32.3393 
X-32.4307 Y32.4614 
X-32.5266 Y32.6049 
X-32.5926 Y32.7644 
X-32.6263 Y32.9337 
Y37.0904 
X-32.7671 Y37.2313 
X-32.8905 Y37.4011 
X-32.9858 Y37.5881 
X-33.0507 Y37.7877 
X-33.0835 Y37.9950 
Y40.7450 
X-33.0507 Y40.9523 
X-32.9858 Y41.1519 
X-32.8905 Y41.3389 
X-32.7671 Y41.5087 
X-32.6187 Y41.6571 
X-32.4489 Y41.7805 
X-32.2619 Y41.8758 
X-32.1175 Y41.9227 
X-34.3027 
Y36.7310 
X-34.3337 Y36.5356 
X-34.3948 Y36.3474 
X-34.4847 Y36.1710 
X-34.6010 Y36.0109 
X-34.7409 Y35.8710 
X-34.9010 Y35.7547 
X-35.0774 Y35.6648 
X-35.2656 Y35.6037 
X-35.4610 Y35.5727 
X-35.6589 
X-35.8544 Y35.6037 
X-36.0426 Y35.6648 
X-36.2190 Y35.7547 
X-36.3791 Y35.8710 
X-36.5190 Y36.0109 
X-36.6353 Y36.1710 
X-36.7252 Y36.3474 
X-36.7665 Y36.4745 
Y31.8135 
X-31.6450 
X-31.4377 Y31.7807 
X-31.2381 Y31.7158 
X-31.0511 Y31.6205 
X-30.8813 Y31.4971 
X-30.7329 Y31.3487 
X-30.6095 Y31.1789 
X-30.5142 Y30.9919 
X-30.4800 Y30.8866 
X-30.4458 Y30.9919 
X-30.3505 Y31.1789 
X-30.2271 Y31.3487 
X-30.0787 Y31.4971 
X-29.9089 Y31.6205 
X-29.7219 Y31.7158 
X-29.5223 Y31.7807 
X-29.3149 Y31.8135 
X-29.1050 
X-28.8977 Y31.7807 
X-28.6981 Y31.7158 
X-28.5111 Y31.6205 
X-28.3413 Y31.4971 
X-28.1929 Y31.3487 
X-28.0695 Y31.1789 
X-27.9742 Y30.9919 
X-27.9400 Y30.8866 
X-27.9058 Y30.9919 
X-27.8105 Y31.1789 
X-27.6871 Y31.3487 
X-27.5387 Y31.4971 
X-27.3689 Y31.6205 
X-27.1819 Y31.7158 
X-26.9823 Y31.7807 
X-26.7750 Y31.8135 
X-26.5650 
X-26.3577 Y31.7807 
X-26.1581 Y31.7158 
X-25.9711 Y31.6205 
X-25.8013 Y31.4971 
X-25.6529 Y31.3487 
X-25.5295 Y31.1789 
X-25.4342 Y30.9919 
X-25.4000 Y30.8866 
X-25.3658 Y30.9919 
X-25.2705 Y31.1789 
X-25.1471 Y31.3487 
X-24.9987 Y31.4971 
X-24.8289 Y31.6205 
X-24.6419 Y31.7158 
X-24.4423 Y31.7807 
X-24.2350 Y31.8135 
X-24.0250 
X-23.8177 Y31.7807 
X-23.6181 Y31.7158 
X-23.4311 Y31.6205 
X-23.2613 Y31.4971 
X-23.1129 Y31.3487 
X-22.9895 Y31.1789 
X-22.8942 Y30.9919 
X-22.8293 Y30.7923 
X-22.7965 Y30.5849 
Y25.2950 
X-22.8293 Y25.0877 
X-22.8942 Y24.8881 
X-22.9895 Y24.7011 
X-23.1129 Y24.5313 
X-23.2613 Y24.3829 
X-23.4311 Y24.2595 
X-23.6181 Y24.1642 
X-23.8177 Y24.0993 
X-24.0250 Y24.0665 
X-24.2350 
X-24.4423 Y24.0993 
X-24.6419 Y24.1642 
X-24.8289 Y24.2595 
X-24.9987 Y24.3829 
X-25.1471 Y24.5313 
X-25.2705 Y24.7011 
X-25.3365 Y24.8306 
Y22.3925 
X-25.2343 Y22.5332 
X-25.0732 Y22.6943 
X-24.8888 Y22.8283 
X-24.6858 Y22.9317 
X-24.4690 Y23.0021 
X-24.2439 Y23.0378 
X-24.0161 
X-23.7910 Y23.0021 
X-23.5742 Y22.9317 
X-23.5581 Y22.9235 
X-22.1619 
X-22.1458 Y22.9317 
X-21.9290 Y23.0021 
X-21.7039 Y23.0378 
X-21.4761 
X-21.2510 Y23.0021 
X-21.0342 Y22.9317 
X-20.8312 Y22.8283 
X-20.6468 Y22.6943 
X-20.4857 Y22.5332 
X-20.3517 Y22.3488 
X-20.3073 Y22.2616 
G00 Z2.0000 
G00 X-25.4641 Y21.0193 
G01 Z-0.1500 F254.00 
G01 X-25.5295 Y20.8911 F508.00 
G01 X-25.6529 Y20.7213 
X-25.8013 Y20.5729 
X-25.9711 Y20.4495 
X-26.1006 Y20.3835 
X-24.9325 
X-25.0732 Y20.4857 
X-25.2343 Y20.6468 
X-25.3683 Y20.8312 
X-25.4641 Y21.0193 
G00 Z2.0000 
G00 X-27.2394 Y20.3835 
G01 Z-0.1500 F254.00 
G01 X-27.3689 Y20.4495 F508.00 
G01 X-27.5387 Y20.5729 
X-27.6871 Y20.7213 
X-27.8105 Y20.8911 
X-27.9058 Y21.0781 
X-27.9400 Y21.1834 
X-27.9742 Y21.0781 
X-28.0695 Y20.8911 
X-28.1929 Y20.7213 
X-28.3413 Y20.5729 
X-28.5111 Y20.4495 
X-28.6406 Y20.3835 
X-27.2394 
G00 Z2.0000 
G00 X-30.5435 Y22.9235 
G01 Z-0.1500 F254.00 
G01 X-30.5435 Y26.1006 F508.00 
G01 X-30.6095 Y25.9711 
X-30.7329 Y25.8013 
X-30.8813 Y25.6529 
X-31.0511 Y25.5295 
X-31.2381 Y25.4342 
X-31.4377 Y25.3693 
X-31.6450 Y25.3365 
X-31.8549 
X-32.0623 Y25.3693 
X-32.2619 Y25.4342 
X-32.4489 Y25.5295 
X-32.6187 Y25.6529 
X-32.7671 Y25.8013 
X-32.8905 Y25.9711 
X-32.9858 Y26.1581 
X-33.0507 Y26.3577 
X-33.0835 Y26.5650 
Y29.1465 
X-36.7665 
Y25.9694 
X-36.7005 Y26.0989 
X-36.5771 Y26.2687 
X-36.4287 Y26.4171 
X-36.2589 Y26.5405 
X-36.0719 Y26.6358 
X-35.8723 Y26.7007 
X-35.6649 Y26.7335 
X-35.4550 
X-35.2477 Y26.7007 
X-35.0481 Y26.6358 
X-34.8611 Y26.5405 
X-34.6913 Y26.4171 
X-34.5429 Y26.2687 
X-34.4195 Y26.0989 
X-34.3242 Y25.9119 
X-34.2593 Y25.7123 
X-34.2265 Y25.5050 
Y22.9235 
X-30.5435 
G00 Z2.0000 
G00 X-36.3625 Y20.3835 
G01 Z-0.1500 F254.00 
G01 X-36.5032 Y20.4857 F508.00 
G01 X-36.6643 Y20.6468 
X-36.7665 Y20.7875 
Y20.3835 
X-36.7250 
X-36.3625 
G00 Z2.0000 
G00 X-30.8737 Y33.8963 
G01 Z-0.1500 F254.00 
G01 X-29.9954 Y33.8963 F508.00 
G01 X-30.0526 Y34.0344 
X-30.0863 Y34.2037 
Y37.0904 
X-30.2271 Y37.2313 
X-30.3505 Y37.4011 
X-30.4458 Y37.5881 
X-30.4800 Y37.6934 
X-30.5142 Y37.5881 
X-30.6095 Y37.4011 
X-30.7329 Y37.2313 
X-30.8737 Y37.0904 
Y33.8963 
G00 Z2.0000 
G00 X-28.3337 Y35.1663 
G01 Z-0.1500 F254.00 
G01 X-27.4554 Y35.1663 F508.00 
G01 X-27.5126 Y35.3044 
X-27.5463 Y35.4737 
Y37.1982 
X-27.6290 Y37.2809 
X-27.7453 Y37.4410 
X-27.8352 Y37.6174 
X-27.8963 Y37.8056 
X-27.9014 Y37.8377 
X-27.9093 Y37.7877 
X-27.9742 Y37.5881 
X-28.0695 Y37.4011 
X-28.1929 Y37.2313 
X-28.3337 Y37.0904 
Y35.1663 
G00 Z2.0000 
G00 X-25.7937 Y36.4363 
G01 Z-0.1500 F254.00 
G01 X-23.4916 Y36.4363 F508.00 
G01 X-23.2296 Y37.2223 
X-23.3109 Y37.1410 
X-23.4710 Y37.0247 
X-23.6474 Y36.9348 
X-23.8356 Y36.8737 
X-24.0310 Y36.8427 
X-24.2290 
X-24.4244 Y36.8737 
X-24.6126 Y36.9348 
X-24.7890 Y37.0247 
X-24.9491 Y37.1410 
X-25.0890 Y37.2809 
X-25.2053 Y37.4410 
X-25.2952 Y37.6174 
X-25.3563 Y37.8056 
X-25.3873 Y38.0010 
Y41.9227 
X-28.8425 
X-28.6981 Y41.8758 
X-28.5111 Y41.7805 
X-28.3413 Y41.6571 
X-28.1929 Y41.5087 
X-28.0695 Y41.3389 
X-27.9742 Y41.1519 
X-27.9093 Y40.9523 
X-27.9014 Y40.9023 
X-27.8963 Y40.9344 
X-27.8352 Y41.1226 
X-27.7453 Y41.2990 
X-27.6290 Y41.4591 
X-27.4891 Y41.5990 
X-27.3290 Y41.7153 
X-27.1526 Y41.8052 
X-26.9644 Y41.8663 
X-26.7690 Y41.8973 
X-26.5710 
X-26.3756 Y41.8663 
X-26.1874 Y41.8052 
X-26.0110 Y41.7153 
X-25.8509 Y41.5990 
X-25.7110 Y41.4591 
X-25.5947 Y41.2990 
X-25.5048 Y41.1226 
X-25.4437 Y40.9344 
X-25.4127 Y40.7390 
Y38.0010 
X-25.4437 Y37.8056 
X-25.5048 Y37.6174 
X-25.5947 Y37.4410 
X-25.7110 Y37.2809 
X-25.7937 Y37.1982 
Y36.4363 
G00 Z2.0000 
G00 X-22.8727 Y38.2930 
G01 Z-0.1500 F254.00 
G01 X-22.4663 Y39.5122 F508.00 
G01 X-22.4663 Y40.7263 
X-22.4326 Y40.8956 
X-22.3666 Y41.0551 
X-22.2707 Y41.1986 
X-22.1486 Y41.3207 
X-22.0051 Y41.4166 
X-21.8456 Y41.4826 
X-21.6763 Y41.5163 
X-13.8837 
X-13.7144 Y41.4826 
X-13.5549 Y41.4166 
X-13.4114 Y41.3207 
X-13.2893 Y41.1986 
X-13.1934 Y41.0551 
X-13.1274 Y40.8956 
X-13.0937 Y40.7263 
Y30.3937 
X-13.1274 Y30.2244 
X-13.1934 Y30.0649 
X-13.2893 Y29.9214 
X-13.4114 Y29.7993 
X-13.5549 Y29.7034 
X-13.7144 Y29.6374 
X-13.8837 Y29.6037 
X-15.6441 
X-15.7075 Y29.5404 
X-15.8643 Y29.4264 
X-16.0371 Y29.3384 
X-16.2215 Y29.2784 
X-16.2527 Y29.2735 
X-13.8650 
X-13.6577 Y29.2407 
X-13.4581 Y29.1758 
X-13.2711 Y29.0805 
X-13.1013 Y28.9571 
X-12.9529 Y28.8087 
X-12.8295 Y28.6389 
X-12.7342 Y28.4519 
X-12.6873 Y28.3075 
Y41.9227 
X-22.8727 
Y38.2930 
G00 Z2.0000 
G00 X-19.6884 Y37.2237 
G01 Z-0.1500 F254.00 
G01 X-19.8992 Y36.5913 F508.00 
G01 X-19.7489 Y36.7005 
X-19.5619 Y36.7958 
X-19.3623 Y36.8607 
X-19.1549 Y36.8935 
X-18.9450 
X-18.7377 Y36.8607 
X-18.5381 Y36.7958 
X-18.3511 Y36.7005 
X-18.1813 Y36.5771 
X-18.0329 Y36.4287 
X-17.9095 Y36.2589 
X-17.8142 Y36.0719 
X-17.7493 Y35.8723 
X-17.7165 Y35.6649 
Y33.2773 
X-17.7116 Y33.3085 
X-17.6516 Y33.4929 
X-17.5636 Y33.6657 
X-17.4496 Y33.8225 
X-17.3863 Y33.8859 
Y37.2237 
X-19.6884 
G00 Z2.0000 
G00 X-20.3835 Y35.1384 
G01 Z-0.1500 F254.00 
G01 X-20.7413 Y34.0651 F508.00 
G01 X-20.7474 Y34.0344 
X-20.7685 Y33.9834 
X-20.7860 Y33.9310 
X-20.8015 Y33.9038 
X-20.8134 Y33.8749 
X-20.8441 Y33.8290 
X-20.8714 Y33.7810 
X-20.8919 Y33.7574 
X-20.9093 Y33.7314 
X-20.9484 Y33.6923 
X-20.9831 Y33.6523 
X-20.9093 Y33.5786 
X-20.8134 Y33.4351 
X-20.7474 Y33.2756 
X-20.7137 Y33.1063 
Y31.3563 
X-19.9159 
X-19.8525 Y31.4196 
X-19.6957 Y31.5336 
X-19.5229 Y31.6216 
X-19.3385 Y31.6816 
X-19.2311 Y31.6986 
X-19.3623 Y31.7193 
X-19.5619 Y31.7842 
X-19.7489 Y31.8795 
X-19.9187 Y32.0029 
X-20.0671 Y32.1513 
X-20.1905 Y32.3211 
X-20.2858 Y32.5081 
X-20.3507 Y32.7077 
X-20.3835 Y32.9150 
Y35.1384 
G00 Z2.0000 
G00 X-20.6310 Y47.4409 
G01 Z-0.1500 F254.00 
G01 X-20.7709 Y47.3010 F508.00 
G01 X-20.9310 Y47.1847 
X-21.1074 Y47.0948 
X-21.2345 Y47.0535 
X-19.4055 
X-19.5326 Y47.0948 
X-19.7090 Y47.1847 
X-19.8691 Y47.3010 
X-20.0090 Y47.4409 
X-20.1253 Y47.6010 
X-20.2152 Y47.7774 
X-20.2763 Y47.9656 
X-20.3073 Y48.1610 
Y49.5427 
X-27.9527 
Y48.1610 
X-27.9837 Y47.9656 
X-28.0448 Y47.7774 
X-28.1347 Y47.6010 
X-28.2510 Y47.4409 
X-28.3909 Y47.3010 
X-28.5510 Y47.1847 
X-28.7274 Y47.0948 
X-28.8545 Y47.0535 
X-27.0255 
X-27.1526 Y47.0948 
X-27.3290 Y47.1847 
X-27.4891 Y47.3010 
X-27.6290 Y47.4409 
X-27.7453 Y47.6010 
X-27.8352 Y47.7774 
X-27.8963 Y47.9656 
X-27.9273 Y48.1610 
Y48.3590 
X-27.8963 Y48.5544 
X-27.8352 Y48.7426 
X-27.7453 Y48.9190 
X-27.6290 Y49.0791 
X-27.4891 Y49.2190 
X-27.3290 Y49.3353 
X-27.1526 Y49.4252 
X-26.9644 Y49.4863 
X-26.7690 Y49.5173 
X-21.4910 
X-21.2956 Y49.4863 
X-21.1074 Y49.4252 
X-20.9310 Y49.3353 
X-20.7709 Y49.2190 
X-20.6310 Y49.0791 
X-20.5147 Y48.9190 
X-20.4248 Y48.7426 
X-20.3637 Y48.5544 
X-20.3327 Y48.3590 
Y48.1610 
X-20.3637 Y47.9656 
X-20.4248 Y47.7774 
X-20.5147 Y47.6010 
X-20.6310 Y47.4409 
G00 Z2.0000 
G00 X-17.7927 Y49.5173 
G01 Z-0.1500 F254.00 
G01 X-17.1816 Y49.5173 F508.00 
G01 X-17.2688 Y49.5617 
X-17.4532 Y49.6957 
X-17.6143 Y49.8568 
X-17.7483 Y50.0412 
X-17.7927 Y50.1284 
Y49.5173 
G00 Z2.0000 
G00 X-17.8802 Y51.2683 
G01 Z-0.1500 F254.00 
G01 X-17.8517 Y51.3558 F508.00 
G01 X-17.7483 Y51.5588 
X-17.6143 Y51.7432 
X-17.4532 Y51.9043 
X-17.2688 Y52.0383 
X-17.1816 Y52.0827 
X-25.9485 
X-25.9984 Y52.0573 
X-18.9510 
X-18.7556 Y52.0263 
X-18.5674 Y51.9652 
X-18.3910 Y51.8753 
X-18.2309 Y51.7590 
X-18.0910 Y51.6191 
X-17.9747 Y51.4590 
X-17.8848 Y51.2826 
X-17.8802 Y51.2683 
G00 Z2.0000 
G00 X-12.3325 Y52.0827 
G01 Z-0.1500 F254.00 
G01 X-12.1881 Y52.0358 F508.00 
G01 X-12.0011 Y51.9405 
X-11.8313 Y51.8171 
X-11.6829 Y51.6687 
X-11.5595 Y51.4989 
X-11.4642 Y51.3119 
X-11.3993 Y51.1123 
X-11.3665 Y50.9049 
Y50.6950 
X-11.3993 Y50.4877 
X-11.4642 Y50.2881 
X-11.5595 Y50.1011 
X-11.6829 Y49.9313 
X-11.8313 Y49.7829 
X-12.0011 Y49.6595 
X-12.1881 Y49.5642 
X-12.2934 Y49.5300 
X-12.1881 Y49.4958 
X-12.0011 Y49.4005 
X-11.8313 Y49.2771 
X-11.6829 Y49.1287 
X-11.5595 Y48.9589 
X-11.4642 Y48.7719 
X-11.3993 Y48.5723 
X-11.3665 Y48.3650 
Y48.1550 
X-11.3993 Y47.9477 
X-11.4642 Y47.7481 
X-11.5595 Y47.5611 
X-11.6829 Y47.3913 
X-11.8313 Y47.2429 
X-12.0011 Y47.1195 
X-12.1881 Y47.0242 
X-12.2934 Y46.9900 
X-12.1881 Y46.9558 
X-12.0011 Y46.8605 
X-11.8313 Y46.7371 
X-11.6829 Y46.5887 
X-11.5595 Y46.4189 
X-11.4642 Y46.2319 
X-11.3993 Y46.0323 
X-11.3665 Y45.8250 
Y45.6150 
X-11.3993 Y45.4077 
X-11.4642 Y45.2081 
X-11.5595 Y45.0211 
X-11.6829 Y44.8513 
X-11.8313 Y44.7029 
X-12.0011 Y44.5795 
X-12.1881 Y44.4842 
X-12.3325 Y44.4373 
X-11.3310 
X-11.1356 Y44.4063 
X-10.9474 Y44.3452 
X-10.7710 Y44.2553 
X-10.6109 Y44.1390 
X-10.4710 Y43.9991 
X-10.3547 Y43.8390 
X-10.2648 Y43.6626 
X-10.2037 Y43.4744 
X-10.1727 Y43.2790 
Y25.8457 
X-10.1473 Y25.7675 
Y52.0827 
X-12.3325 
G00 Z2.0000 
G00 X-27.3416 Y52.0573 
G01 Z-0.1500 F254.00 
G01 X-27.3915 Y52.0827 F508.00 
G01 X-33.9225 Y52.0827 
X-33.7781 Y52.0358 
X-33.5911 Y51.9405 
X-33.4213 Y51.8171 
X-33.2729 Y51.6687 
X-33.1495 Y51.4989 
X-33.0542 Y51.3119 
X-32.9893 Y51.1123 
X-32.9565 Y50.9049 
Y50.6950 
X-32.9893 Y50.4877 
X-33.0542 Y50.2881 
X-33.1495 Y50.1011 
X-33.2729 Y49.9313 
X-33.4213 Y49.7829 
X-33.5911 Y49.6595 
X-33.7206 Y49.5935 
X-31.6450 
X-31.4377 Y49.5607 
X-31.2381 Y49.4958 
X-31.0511 Y49.4005 
X-30.8813 Y49.2771 
X-30.7329 Y49.1287 
X-30.6095 Y48.9589 
X-30.5142 Y48.7719 
X-30.4673 Y48.6275 
Y50.8989 
X-30.4363 Y51.0944 
X-30.3752 Y51.2826 
X-30.2853 Y51.4590 
X-30.1690 Y51.6191 
X-30.0291 Y51.7590 
X-29.8690 Y51.8753 
X-29.6926 Y51.9652 
X-29.5044 Y52.0263 
X-29.3089 Y52.0573 
X-27.3416 
G00 Z2.0000 
G00 X-30.4414 Y47.9977 
G01 Z-0.1500 F254.00 
G01 X-30.4493 Y47.9477 F508.00 
G01 X-30.5142 Y47.7481 
X-30.6095 Y47.5611 
X-30.7329 Y47.3913 
X-30.8813 Y47.2429 
X-31.0511 Y47.1195 
X-31.1806 Y47.0535 
X-29.5655 
X-29.6926 Y47.0948 
X-29.8690 Y47.1847 
X-30.0291 Y47.3010 
X-30.1690 Y47.4409 
X-30.2853 Y47.6010 
X-30.3752 Y47.7774 
X-30.4363 Y47.9656 
X-30.4414 Y47.9977 
G00 Z2.0000 
G00 X-30.2271 Y41.5087 
G01 Z-0.1500 F254.00 
G01 X-30.0787 Y41.6571 F508.00 
G01 X-29.9089 Y41.7805 
X-29.7219 Y41.8758 
X-29.5775 Y41.9227 
X-31.3825 
X-31.2381 Y41.8758 
X-31.0511 Y41.7805 
X-30.8813 Y41.6571 
X-30.7329 Y41.5087 
X-30.6095 Y41.3389 
X-30.5142 Y41.1519 
X-30.4800 Y41.0466 
X-30.4458 Y41.1519 
X-30.3505 Y41.3389 
X-30.2271 Y41.5087 
G00 Z2.0000 
G00 X-36.7665 Y43.5355 
G01 Z-0.1500 F254.00 
G01 X-36.7252 Y43.6626 F508.00 
G01 X-36.6353 Y43.8390 
X-36.5190 Y43.9991 
X-36.3791 Y44.1390 
X-36.2190 Y44.2553 
X-36.0426 Y44.3452 
X-35.9155 Y44.3865 
X-36.7665 
Y43.5355 
G00 Z2.0000 
G00 X-7.8341 Y11.7982 
G01 Z-0.1500 F254.00 
G01 X-7.9882 Y11.6441 F508.00 
G01 X-8.1645 Y11.5160 
X-8.3586 Y11.4171 
X-8.5658 Y11.3498 
X-8.7811 Y11.3157 
X-24.2389 
X-24.4542 Y11.3498 
X-24.6614 Y11.4171 
X-24.8555 Y11.5160 
X-25.0318 Y11.6441 
X-25.0844 Y11.6967 
X-36.9288 
X-37.1227 Y11.7353 
X-37.3052 Y11.8109 
X-37.4696 Y11.9207 
X-37.6093 Y12.0604 
X-37.7191 Y12.2248 
X-37.7947 Y12.4073 
X-37.8333 Y12.6012 
Y13.2119 
X-37.9053 Y13.3110 
X-37.9952 Y13.4874 
X-38.0563 Y13.6756 
X-38.0873 Y13.8710 
Y14.0689 
X-38.0563 Y14.2644 
X-37.9952 Y14.4526 
X-37.9053 Y14.6290 
X-37.7890 Y14.7891 
X-37.6491 Y14.9290 
X-37.4890 Y15.0453 
X-37.3126 Y15.1352 
X-37.1244 Y15.1963 
X-36.9290 Y15.2273 
X-36.7310 
X-36.5356 Y15.1963 
X-36.3474 Y15.1352 
X-36.1710 Y15.0453 
X-36.0109 Y14.9290 
X-35.8710 Y14.7891 
X-35.7547 Y14.6290 
X-35.6648 Y14.4526 
X-35.6037 Y14.2644 
X-35.5727 Y14.0689 
Y13.8710 
X-35.5993 Y13.7033 
X-30.4793 
X-30.5054 Y13.8680 
Y14.0719 
X-30.4735 Y14.2733 
X-30.4105 Y14.4673 
X-30.3179 Y14.6489 
X-30.1981 Y14.8139 
X-30.0539 Y14.9581 
X-29.8889 Y15.0779 
X-29.7073 Y15.1705 
X-29.6372 Y15.1933 
X-29.7414 Y15.2271 
X-29.9355 Y15.3260 
X-30.1118 Y15.4541 
X-30.2659 Y15.6082 
X-30.3940 Y15.7845 
X-30.4929 Y15.9786 
X-30.5602 Y16.1858 
X-30.5943 Y16.4011 
Y17.5895 
X-38.2149 
X-38.4420 Y17.6255 
X-38.6606 Y17.6965 
X-38.8655 Y17.8009 
X-39.0515 Y17.9360 
X-39.2140 Y18.0985 
X-39.3491 Y18.2845 
X-39.4535 Y18.4894 
X-39.5245 Y18.7080 
X-39.5605 Y18.9351 
Y45.8349 
X-39.5245 Y46.0620 
X-39.4535 Y46.2806 
X-39.3491 Y46.4855 
X-39.2140 Y46.6715 
X-39.0515 Y46.8340 
X-38.8655 Y46.9691 
X-38.8245 Y46.9900 
X-38.8655 Y47.0109 
X-39.0515 Y47.1460 
X-39.2140 Y47.3085 
X-39.3491 Y47.4945 
X-39.4535 Y47.6994 
X-39.5245 Y47.9180 
X-39.5605 Y48.1451 
Y48.3749 
X-39.5245 Y48.6020 
X-39.4535 Y48.8206 
X-39.3491 Y49.0255 
X-39.2140 Y49.2114 
X-39.0515 Y49.3740 
X-38.9340 Y49.4594 
X-39.1259 Y49.5988 
X-39.3012 Y49.7741 
X-39.4469 Y49.9746 
X-39.5594 Y50.1955 
X-39.6360 Y50.4312 
X-39.6748 Y50.6761 
Y50.9239 
X-39.6360 Y51.1688 
X-39.5594 Y51.4045 
X-39.4469 Y51.6254 
X-39.3012 Y51.8259 
X-39.1259 Y52.0012 
X-39.0312 Y52.0700 
X-39.1259 Y52.1388 
X-39.3012 Y52.3141 
X-39.4469 Y52.5146 
X-39.5594 Y52.7355 
X-39.6360 Y52.9712 
X-39.6748 Y53.2161 
Y53.4639 
X-39.6360 Y53.7088 
X-39.5594 Y53.9445 
X-39.4469 Y54.1654 
X-39.3012 Y54.3659 
X-39.1259 Y54.5412 
X-38.9254 Y54.6869 
X-38.7045 Y54.7994 
X-38.4688 Y54.8760 
X-38.2239 Y54.9148 
X-37.9761 
X-37.7312 Y54.8760 
X-37.4955 Y54.7994 
X-37.3480 Y54.7243 
X-27.4219 
X-27.2745 Y54.7994 
X-27.0388 Y54.8760 
X-26.7939 Y54.9148 
X-26.5461 
X-26.3012 Y54.8760 
X-26.0655 Y54.7994 
X-25.9180 Y54.7243 
X-8.7811 
X-8.5658 Y54.6902 
X-8.3586 Y54.6229 
X-8.1645 Y54.5240 
X-7.9882 Y54.3959 
X-7.8341 Y54.2418 
X-7.7060 Y54.0655 
X-7.6071 Y53.8714 
X-7.5398 Y53.6642 
X-7.5057 Y53.4489 
Y18.5319 
X-7.4306 Y18.3845 
X-7.3540 Y18.1488 
X-7.3152 Y17.9039 
Y17.6561 
X-7.3540 Y17.4112 
X-7.4306 Y17.1755 
X-7.5057 Y17.0280 
Y12.5910 
X-7.5398 Y12.3758 
X-7.6071 Y12.1686 
X-7.7060 Y11.9745 
X-7.8341 Y11.7982 
G00 Z2.0000 
G00 X-10.2743 Y14.0843 
G01 Z-0.1500 F254.00 
G01 X-10.2743 Y17.0280 F508.00 
G01 X-10.3494 Y17.1755 
X-10.4260 Y17.4112 
X-10.4648 Y17.6561 
Y17.9039 
X-10.4260 Y18.1488 
X-10.3494 Y18.3845 
X-10.2743 Y18.5319 
Y20.6959 
X-10.3160 Y20.6385 
X-10.4785 Y20.4760 
X-10.6645 Y20.3409 
X-10.8694 Y20.2365 
X-11.0880 Y20.1655 
X-11.3151 Y20.1295 
X-11.5449 
X-11.7720 Y20.1655 
X-11.8958 Y20.2057 
X-12.5857 
Y15.1311 
X-12.6198 Y14.9158 
X-12.6871 Y14.7086 
X-12.7860 Y14.5145 
X-12.9141 Y14.3382 
X-13.0682 Y14.1841 
X-13.2056 Y14.0843 
X-10.2743 
G00 Z2.0000 
G00 X-15.3543 Y16.6243 
G01 Z-0.1500 F254.00 
G01 X-15.3543 Y21.6989 F508.00 
G01 X-15.3202 Y21.9142 
X-15.2529 Y22.1214 
X-15.1540 Y22.3155 
X-15.0259 Y22.4918 
X-14.8718 Y22.6459 
X-14.6955 Y22.7740 
X-14.5014 Y22.8729 
X-14.2942 Y22.9402 
X-14.0789 Y22.9743 
X-12.8905 
Y24.4140 
X-13.0185 Y24.2860 
X-13.2045 Y24.1509 
X-13.4094 Y24.0465 
X-13.6280 Y23.9755 
X-13.8551 Y23.9395 
X-16.6249 
X-16.8520 Y23.9755 
X-17.0706 Y24.0465 
X-17.2755 Y24.1509 
X-17.4614 Y24.2860 
X-17.6240 Y24.4485 
X-17.6657 Y24.5059 
Y21.4810 
Y19.6234 
X-17.3329 Y19.2906 
X-17.1755 Y19.2394 
X-16.9546 Y19.1269 
X-16.7541 Y18.9812 
X-16.5788 Y18.8059 
X-16.4331 Y18.6054 
X-16.3206 Y18.3845 
X-16.2440 Y18.1488 
X-16.2052 Y17.9039 
Y17.6561 
X-16.2440 Y17.4112 
X-16.3206 Y17.1755 
X-16.4331 Y16.9546 
X-16.5788 Y16.7541 
X-16.7086 Y16.6243 
X-15.3543 
G00 Z2.0000 
G00 X-18.8514 Y16.6243 
G01 Z-0.1500 F254.00 
G01 X-18.9812 Y16.7541 F508.00 
G01 X-19.1269 Y16.9546 
X-19.2394 Y17.1755 
X-19.2906 Y17.3329 
X-19.5472 Y17.5895 
X-21.4757 
Y17.0360 
X-21.5098 Y16.8208 
X-21.5737 Y16.6243 
X-18.8514 
G00 Z2.0000 
G00 X-24.1463 Y16.6243 
G01 Z-0.1500 F254.00 
G01 X-24.2102 Y16.8208 F508.00 
G01 X-24.2443 Y17.0360 
Y17.5895 
X-27.8257 
Y16.4011 
X-27.8598 Y16.1858 
X-27.9271 Y15.9786 
X-28.0260 Y15.7845 
X-28.1541 Y15.6082 
X-28.3082 Y15.4541 
X-28.4845 Y15.3260 
X-28.6786 Y15.2271 
X-28.7828 Y15.1933 
X-28.7127 Y15.1705 
X-28.5311 Y15.0779 
X-28.3661 Y14.9581 
X-28.2219 Y14.8139 
X-28.1021 Y14.6489 
X-28.0095 Y14.4673 
X-27.9465 Y14.2733 
X-27.9146 Y14.0719 
Y13.8680 
X-27.9407 Y13.7033 
X-25.5143 
Y15.3489 
X-25.4802 Y15.5642 
X-25.4129 Y15.7714 
X-25.3140 Y15.9655 
X-25.1859 Y16.1418 
X-25.0318 Y16.2959 
X-24.8555 Y16.4240 
X-24.6614 Y16.5229 
X-24.4542 Y16.5902 
X-24.2389 Y16.6243 
X-24.1463 
G00 Z2.0000 
G00 X-22.7457 Y14.4756 
G01 Z-0.1500 F254.00 
G01 X-22.7457 Y14.0843 F508.00 
G01 X-22.3544 Y14.0843 
X-22.4918 Y14.1841 
X-22.6459 Y14.3382 
X-22.7457 Y14.4756 
G00 Z2.0000 
G00 X-20.4424 Y20.5105 
G01 Z-0.1500 F254.00 
G01 X-20.4343 Y20.5105 F508.00 
G01 X-20.4343 Y20.5186 
X-20.4424 Y20.5105 
G00 Z2.0000 
G00 X-20.4343 Y22.6614 
G01 Z-0.1500 F254.00 
G01 X-20.4343 Y28.0489 F508.00 
G01 X-20.4002 Y28.2642 
X-20.3329 Y28.4714 
X-20.2340 Y28.6655 
X-20.1059 Y28.8418 
X-19.9518 Y28.9959 
X-19.7755 Y29.1240 
X-19.5814 Y29.2229 
X-19.5781 
X-19.7622 Y29.3178 
X-19.9353 Y29.4435 
X-19.9685 Y29.4767 
X-21.6888 
X-21.8827 Y29.5153 
X-22.0652 Y29.5909 
X-22.2296 Y29.7007 
X-22.3693 Y29.8404 
X-22.4791 Y30.0048 
X-22.5547 Y30.1873 
X-22.5933 Y30.3812 
Y32.0167 
X-31.8488 
X-32.0427 Y32.0553 
X-32.2252 Y32.1309 
X-32.3896 Y32.2407 
X-32.5293 Y32.3804 
X-32.6391 Y32.5448 
X-32.7147 Y32.7273 
X-32.7533 Y32.9212 
Y37.0378 
X-32.8640 Y37.1485 
X-32.9991 Y37.3345 
X-33.1035 Y37.5394 
X-33.1745 Y37.7580 
X-33.2105 Y37.9851 
Y40.7549 
X-33.1745 Y40.9820 
X-33.1035 Y41.2006 
X-32.9991 Y41.4055 
X-32.8640 Y41.5915 
X-32.7015 Y41.7540 
X-32.6441 Y41.7957 
X-34.1757 
Y36.7210 
X-34.2098 Y36.5058 
X-34.2771 Y36.2986 
X-34.3760 Y36.1045 
X-34.5041 Y35.9282 
X-34.6582 Y35.7741 
X-34.8345 Y35.6460 
X-35.0286 Y35.5471 
X-35.2358 Y35.4798 
X-35.4511 Y35.4457 
X-35.6689 
X-35.8842 Y35.4798 
X-36.0914 Y35.5471 
X-36.2855 Y35.6460 
X-36.4618 Y35.7741 
X-36.6159 Y35.9282 
X-36.6395 Y35.9607 
Y31.9405 
X-31.6351 
X-31.4080 Y31.9045 
X-31.1894 Y31.8335 
X-30.9845 Y31.7291 
X-30.7985 Y31.5940 
X-30.6360 Y31.4315 
X-30.5009 Y31.2455 
X-30.4800 Y31.2045 
X-30.4591 Y31.2455 
X-30.3240 Y31.4315 
X-30.1614 Y31.5940 
X-29.9755 Y31.7291 
X-29.7706 Y31.8335 
X-29.5520 Y31.9045 
X-29.3249 Y31.9405 
X-29.0951 
X-28.8680 Y31.9045 
X-28.6494 Y31.8335 
X-28.4445 Y31.7291 
X-28.2585 Y31.5940 
X-28.0960 Y31.4315 
X-27.9609 Y31.2455 
X-27.9400 Y31.2045 
X-27.9191 Y31.2455 
X-27.7840 Y31.4315 
X-27.6214 Y31.5940 
X-27.4355 Y31.7291 
X-27.2306 Y31.8335 
X-27.0120 Y31.9045 
X-26.7849 Y31.9405 
X-26.5551 
X-26.3280 Y31.9045 
X-26.1094 Y31.8335 
X-25.9045 Y31.7291 
X-25.7185 Y31.5940 
X-25.5560 Y31.4315 
X-25.4209 Y31.2455 
X-25.4000 Y31.2045 
X-25.3791 Y31.2455 
X-25.2440 Y31.4315 
X-25.0815 Y31.5940 
X-24.8955 Y31.7291 
X-24.6906 Y31.8335 
X-24.4720 Y31.9045 
X-24.2449 Y31.9405 
X-24.0151 
X-23.7880 Y31.9045 
X-23.5694 Y31.8335 
X-23.3645 Y31.7291 
X-23.1785 Y31.5940 
X-23.0160 Y31.4315 
X-22.8809 Y31.2455 
X-22.7765 Y31.0406 
X-22.7055 Y30.8220 
X-22.6695 Y30.5949 
Y25.2851 
X-22.7055 Y25.0580 
X-22.7765 Y24.8394 
X-22.8809 Y24.6345 
X-23.0160 Y24.4485 
X-23.1785 Y24.2860 
X-23.3645 Y24.1509 
X-23.5694 Y24.0465 
X-23.7880 Y23.9755 
X-24.0151 Y23.9395 
X-24.2449 
X-24.4720 Y23.9755 
X-24.6906 Y24.0465 
X-24.8955 Y24.1509 
X-25.0815 Y24.2860 
X-25.2095 Y24.4140 
Y22.7376 
X-25.1559 Y22.7912 
X-24.9554 Y22.9369 
X-24.7345 Y23.0494 
X-24.4988 Y23.1260 
X-24.2539 Y23.1648 
X-24.0061 
X-23.7612 Y23.1260 
X-23.5288 Y23.0505 
X-22.1912 
X-21.9588 Y23.1260 
X-21.7139 Y23.1648 
X-21.4661 
X-21.2212 Y23.1260 
X-20.9855 Y23.0494 
X-20.7646 Y22.9369 
X-20.5641 Y22.7912 
X-20.4343 Y22.6614 
G00 Z2.0000 
G00 X-25.4706 Y20.7560 
G01 Z-0.1500 F254.00 
G01 X-25.5560 Y20.6385 F508.00 
G01 X-25.6840 Y20.5105 
X-25.2776 
X-25.3312 Y20.5641 
X-25.4706 Y20.7560 
G00 Z2.0000 
G00 X-27.6560 Y20.5105 
G01 Z-0.1500 F254.00 
G01 X-27.7840 Y20.6385 F508.00 
G01 X-27.9191 Y20.8245 
X-27.9400 Y20.8655 
X-27.9609 Y20.8245 
X-28.0960 Y20.6385 
X-28.2240 Y20.5105 
X-27.6560 
G00 Z2.0000 
G00 X-30.6705 Y23.0505 
G01 Z-0.1500 F254.00 
G01 X-30.6705 Y25.6840 F508.00 
G01 X-30.7985 Y25.5560 
X-30.9845 Y25.4209 
X-31.1894 Y25.3165 
X-31.4080 Y25.2455 
X-31.6351 Y25.2095 
X-31.8649 
X-32.0920 Y25.2455 
X-32.3106 Y25.3165 
X-32.5155 Y25.4209 
X-32.7015 Y25.5560 
X-32.8640 Y25.7185 
X-32.9991 Y25.9045 
X-33.1035 Y26.1094 
X-33.1745 Y26.3280 
X-33.2105 Y26.5551 
Y29.0195 
X-36.6395 
Y26.3860 
X-36.5115 Y26.5140 
X-36.3255 Y26.6491 
X-36.1206 Y26.7535 
X-35.9020 Y26.8245 
X-35.6749 Y26.8605 
X-35.4451 
X-35.2180 Y26.8245 
X-34.9994 Y26.7535 
X-34.7945 Y26.6491 
X-34.6085 Y26.5140 
X-34.4460 Y26.3514 
X-34.3109 Y26.1655 
X-34.2065 Y25.9606 
X-34.1355 Y25.7420 
X-34.0995 Y25.5149 
Y23.0505 
X-30.6705 
G00 Z2.0000 
G00 X-30.7467 Y34.0233 
G01 Z-0.1500 F254.00 
G01 X-30.1799 Y34.0233 F508.00 
G01 X-30.2133 Y34.1912 
Y37.0378 
X-30.3240 Y37.1485 
X-30.4591 Y37.3345 
X-30.4800 Y37.3755 
X-30.5009 Y37.3345 
X-30.6360 Y37.1485 
X-30.7467 Y37.0378 
Y34.0233 
G00 Z2.0000 
G00 X-28.2067 Y35.2933 
G01 Z-0.1500 F254.00 
G01 X-27.6399 Y35.2933 F508.00 
G01 X-27.6733 Y35.4612 
Y37.1456 
X-27.7259 Y37.1982 
X-27.8540 Y37.3745 
X-27.8972 Y37.4594 
X-27.9609 Y37.3345 
X-28.0960 Y37.1485 
X-28.2067 Y37.0378 
Y35.2933 
G00 Z2.0000 
G00 X-25.6667 Y36.5633 
G01 Z-0.1500 F254.00 
G01 X-23.5831 Y36.5633 F508.00 
G01 X-23.4780 Y36.8785 
X-23.5986 Y36.8171 
X-23.8058 Y36.7498 
X-24.0210 Y36.7157 
X-24.2389 
X-24.4542 Y36.7498 
X-24.6614 Y36.8171 
X-24.8555 Y36.9160 
X-25.0318 Y37.0441 
X-25.1859 Y37.1982 
X-25.3140 Y37.3745 
X-25.4000 Y37.5433 
X-25.4860 Y37.3745 
X-25.6141 Y37.1982 
X-25.6667 Y37.1456 
Y36.5633 
G00 Z2.0000 
G00 X-25.5143 Y41.4044 
G01 Z-0.1500 F254.00 
G01 X-25.5143 Y41.7957 F508.00 
G01 X-25.9056 Y41.7957 
X-25.7682 Y41.6959 
X-25.6141 Y41.5418 
X-25.5143 Y41.4044 
G00 Z2.0000 
G00 X-27.4344 Y41.7957 
G01 Z-0.1500 F254.00 
G01 X-28.3159 Y41.7957 F508.00 
G01 X-28.2585 Y41.7540 
X-28.0960 Y41.5915 
X-27.9609 Y41.4055 
X-27.8972 Y41.2806 
X-27.8540 Y41.3655 
X-27.7259 Y41.5418 
X-27.5718 Y41.6959 
X-27.4344 Y41.7957 
G00 Z2.0000 
G00 X-30.1041 Y41.7957 
G01 Z-0.1500 F254.00 
G01 X-30.8559 Y41.7957 F508.00 
G01 X-30.7985 Y41.7540 
X-30.6360 Y41.5915 
X-30.5009 Y41.4055 
X-30.4800 Y41.3645 
X-30.4591 Y41.4055 
X-30.3240 Y41.5915 
X-30.1614 Y41.7540 
X-30.1041 Y41.7957 
G00 Z2.0000 
G00 X-30.0793 Y47.1805 
G01 Z-0.1500 F254.00 
G01 X-30.1118 Y47.2041 F508.00 
G01 X-30.2659 Y47.3582 
X-30.3940 Y47.5345 
X-30.4372 Y47.6194 
X-30.5009 Y47.4945 
X-30.6360 Y47.3085 
X-30.7640 Y47.1805 
X-30.0793 
G00 Z2.0000 
G00 X-28.3407 Y47.1805 
G01 Z-0.1500 F254.00 
G01 X-27.5393 Y47.1805 F508.00 
G01 X-27.5718 Y47.2041 
X-27.7259 Y47.3582 
X-27.8540 Y47.5345 
X-27.9400 Y47.7033 
X-28.0260 Y47.5345 
X-28.1541 Y47.3582 
X-28.3082 Y47.2041 
X-28.3407 Y47.1805 
G00 Z2.0000 
G00 X-27.8257 Y49.0244 
G01 Z-0.1500 F254.00 
G01 X-27.7259 Y49.1618 F508.00 
G01 X-27.5718 Y49.3159 
X-27.4344 Y49.4157 
X-27.8257 
Y49.0244 
G00 Z2.0000 
G00 X-30.5943 Y49.1541 
G01 Z-0.1500 F254.00 
G01 X-30.5943 Y50.9089 F508.00 
G01 X-30.5602 Y51.1242 
X-30.4929 Y51.3314 
X-30.3940 Y51.5255 
X-30.2659 Y51.7018 
X-30.1118 Y51.8559 
X-29.9744 Y51.9557 
X-33.3959 
X-33.3385 Y51.9140 
X-33.1760 Y51.7514 
X-33.0409 Y51.5655 
X-32.9365 Y51.3606 
X-32.8655 Y51.1420 
X-32.8295 Y50.9149 
Y50.6851 
X-32.8655 Y50.4580 
X-32.9365 Y50.2394 
X-33.0409 Y50.0345 
X-33.1760 Y49.8485 
X-33.3040 Y49.7205 
X-31.6351 
X-31.4080 Y49.6845 
X-31.1894 Y49.6135 
X-30.9845 Y49.5091 
X-30.7985 Y49.3740 
X-30.6360 Y49.2114 
X-30.5943 Y49.1541 
G00 Z2.0000 
G00 X-20.8256 Y49.4157 
G01 Z-0.1500 F254.00 
G01 X-20.6882 Y49.3159 F508.00 
G01 X-20.5341 Y49.1618 
X-20.4343 Y49.0244 
Y49.4157 
X-20.8256 
G00 Z2.0000 
G00 X-20.3200 Y47.7033 
G01 Z-0.1500 F254.00 
G01 X-20.4060 Y47.5345 F508.00 
G01 X-20.5341 Y47.3582 
X-20.6882 Y47.2041 
X-20.7207 Y47.1805 
X-19.9193 
X-19.9518 Y47.2041 
X-20.1059 Y47.3582 
X-20.2340 Y47.5345 
X-20.3200 Y47.7033 
G00 Z2.0000 
G00 X-17.6657 Y49.6443 
G01 Z-0.1500 F254.00 
G01 X-17.5814 Y49.6443 F508.00 
G01 X-17.6657 Y49.7286 
Y49.6443 
G00 Z2.0000 
G00 X-17.8906 Y51.5593 
G01 Z-0.1500 F254.00 
G01 X-17.8569 Y51.6254 F508.00 
G01 X-17.7112 Y51.8259 
X-17.5814 Y51.9557 
X-18.2856 
X-18.1482 Y51.8559 
X-17.9941 Y51.7018 
X-17.8906 Y51.5593 
G00 Z2.0000 
G00 X-11.4509 Y51.5655 
G01 Z-0.1500 F254.00 
G01 X-11.3465 Y51.3606 F508.00 
G01 X-11.2755 Y51.1420 
X-11.2395 Y50.9149 
Y50.6851 
X-11.2755 Y50.4580 
X-11.3465 Y50.2394 
X-11.4509 Y50.0345 
X-11.5860 Y49.8485 
X-11.7485 Y49.6860 
X-11.9345 Y49.5509 
X-11.9755 Y49.5300 
X-11.9345 Y49.5091 
X-11.7485 Y49.3740 
X-11.5860 Y49.2114 
X-11.4509 Y49.0255 
X-11.3465 Y48.8206 
X-11.2755 Y48.6020 
X-11.2395 Y48.3749 
Y48.1451 
X-11.2755 Y47.9180 
X-11.3465 Y47.6994 
X-11.4509 Y47.4945 
X-11.5860 Y47.3085 
X-11.7485 Y47.1460 
X-11.9345 Y47.0109 
X-11.9755 Y46.9900 
X-11.9345 Y46.9691 
X-11.7485 Y46.8340 
X-11.5860 Y46.6715 
X-11.4509 Y46.4855 
X-11.3465 Y46.2806 
X-11.2755 Y46.0620 
X-11.2395 Y45.8349 
Y45.6051 
X-11.2755 Y45.3780 
X-11.3465 Y45.1594 
X-11.4509 Y44.9545 
X-11.5860 Y44.7685 
X-11.7485 Y44.6060 
X-11.8059 Y44.5643 
X-11.3210 
X-11.1058 Y44.5302 
X-10.8986 Y44.4629 
X-10.7045 Y44.3640 
X-10.5282 Y44.2359 
X-10.3741 Y44.0818 
X-10.2743 Y43.9444 
Y51.9557 
X-11.8059 
X-11.7485 Y51.9140 
X-11.5860 Y51.7514 
X-11.4509 Y51.5655 
G00 Z2.0000 
G00 X-12.8143 Y41.7957 
G01 Z-0.1500 F254.00 
G01 X-22.7457 Y41.7957 F508.00 
G01 X-22.7457 Y39.0756 
X-22.5933 Y39.5328 
Y40.7388 
X-22.5547 Y40.9327 
X-22.4791 Y41.1152 
X-22.3693 Y41.2796 
X-22.2296 Y41.4193 
X-22.0652 Y41.5291 
X-21.8827 Y41.6047 
X-21.6888 Y41.6433 
X-13.8712 
X-13.6773 Y41.6047 
X-13.4948 Y41.5291 
X-13.3304 Y41.4193 
X-13.1907 Y41.2796 
X-13.0809 Y41.1152 
X-13.0053 Y40.9327 
X-12.9667 Y40.7388 
Y30.3812 
X-13.0053 Y30.1873 
X-13.0809 Y30.0048 
X-13.1907 Y29.8404 
X-13.3304 Y29.7007 
X-13.4948 Y29.5909 
X-13.6773 Y29.5153 
X-13.8712 Y29.4767 
X-15.5915 
X-15.6247 Y29.4435 
X-15.6839 Y29.4005 
X-13.8551 
X-13.6280 Y29.3645 
X-13.4094 Y29.2935 
X-13.2045 Y29.1891 
X-13.0185 Y29.0540 
X-12.8560 Y28.8914 
X-12.8143 Y28.8341 
Y41.7957 
G00 Z2.0000 
G00 X-14.9733 Y39.6367 
G01 Z-0.1500 F254.00 
G01 X-20.5867 Y39.6367 F508.00 
G01 X-20.5867 Y39.4056 
X-20.5822 Y39.3426 
X-20.5867 Y39.3070 
Y39.2712 
X-20.5990 Y39.2092 
X-20.6069 Y39.1465 
X-20.6183 Y39.1125 
X-20.6253 Y39.0773 
X-20.6342 Y39.0558 
X-20.6126 Y39.0647 
X-20.5507 Y39.0771 
X-20.4897 Y39.0938 
X-20.4539 Y39.0963 
X-20.4188 Y39.1033 
X-20.3556 
X-20.2926 Y39.1078 
X-20.2570 Y39.1033 
X-16.4112 
X-16.2173 Y39.0647 
X-16.0348 Y38.9891 
X-15.8704 Y38.8793 
X-15.7307 Y38.7396 
X-15.6209 Y38.5752 
X-15.5453 Y38.3927 
X-15.5067 Y38.1988 
Y33.9385 
X-15.4735 Y33.9053 
X-15.3478 Y33.7322 
X-15.2507 Y33.5416 
X-15.1846 Y33.3382 
X-15.1511 Y33.1269 
Y32.9130 
X-15.1846 Y32.7018 
X-15.2507 Y32.4984 
X-15.3478 Y32.3078 
X-15.4735 Y32.1347 
X-15.6247 Y31.9835 
X-15.7978 Y31.8578 
X-15.9884 Y31.7607 
X-16.0212 Y31.7500 
X-15.9884 Y31.7393 
X-15.7978 Y31.6422 
X-15.6247 Y31.5165 
X-15.5915 Y31.4833 
X-14.9733 
Y39.6367 
G00 Z2.0000 
G00 X-17.5133 Y37.0967 
G01 Z-0.1500 F254.00 
G01 X-19.5969 Y37.0967 F508.00 
G01 X-19.6676 Y36.8845 
X-19.6106 Y36.9135 
X-19.3920 Y36.9845 
X-19.1649 Y37.0205 
X-18.9351 
X-18.7080 Y36.9845 
X-18.4894 Y36.9135 
X-18.2845 Y36.8091 
X-18.0985 Y36.6740 
X-17.9360 Y36.5115 
X-17.8009 Y36.3255 
X-17.6965 Y36.1206 
X-17.6255 Y35.9020 
X-17.5895 Y35.6749 
Y33.8461 
X-17.5465 Y33.9053 
X-17.5133 Y33.9385 
Y37.0967 
G00 Z2.0000 
G00 X-17.7230 Y32.4074 
G01 Z-0.1500 F254.00 
G01 X-17.8009 Y32.2545 F508.00 
G01 X-17.9360 Y32.0685 
X-18.0985 Y31.9060 
X-18.2845 Y31.7709 
X-18.4374 Y31.6930 
X-18.3378 Y31.6422 
X-18.1647 Y31.5165 
X-18.0135 Y31.3653 
X-17.8878 Y31.1922 
X-17.7907 Y31.0016 
X-17.7800 Y30.9688 
X-17.7693 Y31.0016 
X-17.6722 Y31.1922 
X-17.5465 Y31.3653 
X-17.3953 Y31.5165 
X-17.2222 Y31.6422 
X-17.0316 Y31.7393 
X-16.9988 Y31.7500 
X-17.0316 Y31.7607 
X-17.2222 Y31.8578 
X-17.3953 Y31.9835 
X-17.5465 Y32.1347 
X-17.6722 Y32.3078 
X-17.7230 Y32.4074 
G00 Z2.0000 
G00 X-17.7800 Y29.9912 
G01 Z-0.1500 F254.00 
G01 X-17.7907 Y29.9584 F508.00 
G01 X-17.8878 Y29.7678 
X-18.0135 Y29.5947 
X-18.1647 Y29.4435 
X-18.3378 Y29.3178 
X-18.5219 Y29.2239 
X-18.5186 
X-18.3245 Y29.1240 
X-18.1482 Y28.9959 
X-17.9941 Y28.8418 
X-17.8660 Y28.6655 
X-17.8228 Y28.5806 
X-17.7591 Y28.7055 
X-17.6240 Y28.8914 
X-17.4614 Y29.0540 
X-17.2755 Y29.1891 
X-17.1226 Y29.2670 
X-17.2222 Y29.3178 
X-17.3953 Y29.4435 
X-17.5465 Y29.5947 
X-17.6722 Y29.7678 
X-17.7693 Y29.9584 
X-17.7800 Y29.9912 
G00 Z2.0000 
G00 X-19.6626 Y31.6930 
G01 Z-0.1500 F254.00 
G01 X-19.8155 Y31.7709 F508.00 
G01 X-20.0014 Y31.9060 
X-20.1640 Y32.0685 
X-20.2991 Y32.2545 
X-20.4035 Y32.4594 
X-20.4745 Y32.6780 
X-20.5105 Y32.9051 
Y34.3558 
X-20.6183 Y34.0325 
X-20.6253 Y33.9973 
X-20.6494 Y33.9390 
X-20.6694 Y33.8790 
X-20.6872 Y33.8479 
X-20.7009 Y33.8148 
X-20.7360 Y33.7622 
X-20.7673 Y33.7073 
X-20.7908 Y33.6802 
X-20.8076 Y33.6550 
X-20.7009 Y33.4952 
X-20.6253 Y33.3126 
X-20.5867 Y33.1188 
Y31.4833 
X-19.9685 
X-19.9353 Y31.5165 
X-19.7622 Y31.6422 
X-19.6626 Y31.6930 
G00 Z2.0000 
G00 X-36.6395 Y44.0493 
G01 Z-0.1500 F254.00 
G01 X-36.6159 Y44.0818 F508.00 
G01 X-36.4618 Y44.2359 
X-36.4293 Y44.2595 
X-36.6395 
Y44.0493 
G00 Z2.0000 
G00 X-7.7372 Y11.7155 
G01 Z-0.1500 F254.00 
G01 X-7.9055 Y11.5472 F508.00 
G01 X-8.0979 Y11.4074 
X-8.3099 Y11.2994 
X-8.5361 Y11.2259 
X-8.7711 Y11.1887 
X-24.2489 
X-24.4839 Y11.2259 
X-24.7101 Y11.2994 
X-24.9221 Y11.4074 
X-25.1145 Y11.5472 
X-25.1370 Y11.5697 
X-36.9190 
X-37.0947 Y11.5975 
X-37.2639 Y11.6525 
X-37.4224 Y11.7333 
X-37.5663 Y11.8379 
X-37.6921 Y11.9637 
X-37.7967 Y12.1076 
X-37.8775 Y12.2661 
X-37.9325 Y12.4353 
X-37.9603 Y12.6110 
Y13.1706 
X-38.0140 Y13.2445 
X-38.1129 Y13.4386 
X-38.1802 Y13.6458 
X-38.2143 Y13.8611 
Y14.0789 
X-38.1802 Y14.2942 
X-38.1129 Y14.5014 
X-38.0140 Y14.6955 
X-37.8859 Y14.8718 
X-37.7318 Y15.0259 
X-37.5555 Y15.1540 
X-37.3614 Y15.2529 
X-37.1542 Y15.3202 
X-36.9389 Y15.3543 
X-36.7210 
X-36.5058 Y15.3202 
X-36.2986 Y15.2529 
X-36.1045 Y15.1540 
X-35.9282 Y15.0259 
X-35.7741 Y14.8718 
X-35.6460 Y14.6955 
X-35.5471 Y14.5014 
X-35.4798 Y14.2942 
X-35.4457 Y14.0789 
Y13.8611 
X-35.4506 Y13.8303 
X-30.6280 
X-30.6324 Y13.8581 
Y14.0819 
X-30.5974 Y14.3031 
X-30.5282 Y14.5160 
X-30.4265 Y14.7155 
X-30.2949 Y14.8966 
X-30.1366 Y15.0549 
X-29.9555 Y15.1865 
X-29.9485 Y15.1901 
X-30.0021 Y15.2174 
X-30.1945 Y15.3572 
X-30.3628 Y15.5255 
X-30.5026 Y15.7179 
X-30.6106 Y15.9299 
X-30.6841 Y16.1561 
X-30.7213 Y16.3911 
Y17.4625 
X-38.2249 
X-38.4717 Y17.5016 
X-38.7094 Y17.5788 
X-38.9320 Y17.6922 
X-39.1342 Y17.8391 
X-39.3109 Y18.0158 
X-39.4577 Y18.2180 
X-39.5712 Y18.4406 
X-39.6484 Y18.6783 
X-39.6875 Y18.9251 
Y45.8449 
X-39.6484 Y46.0917 
X-39.5712 Y46.3294 
X-39.4577 Y46.5520 
X-39.3109 Y46.7542 
X-39.1342 Y46.9309 
X-39.0528 Y46.9900 
X-39.1342 Y47.0491 
X-39.3109 Y47.2258 
X-39.4577 Y47.4280 
X-39.5712 Y47.6506 
X-39.6484 Y47.8883 
X-39.6875 Y48.1351 
Y48.3849 
X-39.6484 Y48.6317 
X-39.5712 Y48.8694 
X-39.4577 Y49.0920 
X-39.3109 Y49.2942 
X-39.1469 Y49.4582 
X-39.2245 Y49.5178 
X-39.3822 Y49.6755 
X-39.5180 Y49.8525 
X-39.6296 Y50.0457 
X-39.7149 Y50.2518 
X-39.7727 Y50.4673 
X-39.8018 Y50.6885 
Y50.9115 
X-39.7727 Y51.1327 
X-39.7149 Y51.3482 
X-39.6296 Y51.5543 
X-39.5180 Y51.7475 
X-39.3822 Y51.9245 
X-39.2367 Y52.0700 
X-39.3822 Y52.2155 
X-39.5180 Y52.3925 
X-39.6296 Y52.5857 
X-39.7149 Y52.7918 
X-39.7727 Y53.0073 
X-39.8018 Y53.2285 
Y53.4515 
X-39.7727 Y53.6727 
X-39.7149 Y53.8882 
X-39.6296 Y54.0943 
X-39.5180 Y54.2875 
X-39.3822 Y54.4645 
X-39.2245 Y54.6222 
X-39.0475 Y54.7580 
X-38.8543 Y54.8696 
X-38.6482 Y54.9549 
X-38.4327 Y55.0127 
X-38.2115 Y55.0418 
X-37.9885 
X-37.7673 Y55.0127 
X-37.5518 Y54.9549 
X-37.3457 Y54.8696 
X-37.3141 Y54.8513 
X-27.4559 
X-27.4243 Y54.8696 
X-27.2182 Y54.9549 
X-27.0027 Y55.0127 
X-26.7815 Y55.0418 
X-26.5585 
X-26.3373 Y55.0127 
X-26.1218 Y54.9549 
X-25.9157 Y54.8696 
X-25.8841 Y54.8513 
X-8.7711 
X-8.5361 Y54.8141 
X-8.3099 Y54.7406 
X-8.0979 Y54.6326 
X-7.9055 Y54.4928 
X-7.7372 Y54.3245 
X-7.5974 Y54.1321 
X-7.4894 Y53.9201 
X-7.4159 Y53.6939 
X-7.3787 Y53.4589 
Y18.5659 
X-7.3604 Y18.5343 
X-7.2751 Y18.3282 
X-7.2173 Y18.1127 
X-7.1882 Y17.8915 
Y17.6685 
X-7.2173 Y17.4473 
X-7.2751 Y17.2318 
X-7.3604 Y17.0257 
X-7.3787 Y16.9941 
Y12.5811 
X-7.4159 Y12.3461 
X-7.4894 Y12.1199 
X-7.5974 Y11.9079 
X-7.7372 Y11.7155 
G00 Z2.0000 
G00 X-10.4013 Y14.2113 
G01 Z-0.1500 F254.00 
G01 X-10.4013 Y16.9941 F508.00 
G01 X-10.4196 Y17.0257 
X-10.5049 Y17.2318 
X-10.5627 Y17.4473 
X-10.5918 Y17.6685 
Y17.8915 
X-10.5627 Y18.1127 
X-10.5049 Y18.3282 
X-10.4196 Y18.5343 
X-10.4013 Y18.5659 
Y20.3751 
X-10.5980 Y20.2322 
X-10.8206 Y20.1188 
X-11.0583 Y20.0416 
X-11.3051 Y20.0025 
X-11.5549 
X-11.8017 Y20.0416 
X-11.9160 Y20.0787 
X-12.4587 
Y15.1211 
X-12.4959 Y14.8861 
X-12.5694 Y14.6599 
X-12.6774 Y14.4479 
X-12.8172 Y14.2555 
X-12.8614 Y14.2113 
X-10.4013 
G00 Z2.0000 
G00 X-15.4813 Y16.7513 
G01 Z-0.1500 F254.00 
G01 X-15.4813 Y21.7089 F508.00 
G01 X-15.4441 Y21.9439 
X-15.3706 Y22.1701 
X-15.2626 Y22.3821 
X-15.1228 Y22.5745 
X-14.9545 Y22.7428 
X-14.7621 Y22.8826 
X-14.5501 Y22.9906 
X-14.3239 Y23.0641 
X-14.0889 Y23.1013 
X-13.0175 
Y24.1298 
X-13.1380 Y24.0422 
X-13.3606 Y23.9288 
X-13.5983 Y23.8516 
X-13.8451 Y23.8125 
X-16.6349 
X-16.8817 Y23.8516 
X-17.1194 Y23.9288 
X-17.3420 Y24.0422 
X-17.5387 Y24.1851 
Y21.4711 
Y19.6760 
X-17.2671 Y19.4044 
X-17.2318 Y19.3949 
X-17.0257 Y19.3096 
X-16.8325 Y19.1980 
X-16.6555 Y19.0622 
X-16.4978 Y18.9045 
X-16.3620 Y18.7275 
X-16.2504 Y18.5343 
X-16.1651 Y18.3282 
X-16.1073 Y18.1127 
X-16.0782 Y17.8915 
Y17.6685 
X-16.1073 Y17.4473 
X-16.1651 Y17.2318 
X-16.2504 Y17.0257 
X-16.3620 Y16.8325 
X-16.4243 Y16.7513 
X-15.4813 
G00 Z2.0000 
G00 X-19.1357 Y16.7513 
G01 Z-0.1500 F254.00 
G01 X-19.1980 Y16.8325 F508.00 
G01 X-19.3096 Y17.0257 
X-19.3949 Y17.2318 
X-19.4044 Y17.2671 
X-19.5998 Y17.4625 
X-21.3487 
Y17.0261 
X-21.3859 Y16.7911 
X-21.3988 Y16.7513 
X-19.1357 
G00 Z2.0000 
G00 X-24.3176 Y16.7404 
G01 Z-0.1500 F254.00 
G01 X-24.3341 Y16.7911 F508.00 
G01 X-24.3713 Y17.0261 
Y17.4625 
X-27.6987 
Y16.3911 
X-27.7359 Y16.1561 
X-27.8094 Y15.9299 
X-27.9174 Y15.7179 
X-28.0572 Y15.5255 
X-28.2255 Y15.3572 
X-28.4179 Y15.2174 
X-28.4715 Y15.1901 
X-28.4645 Y15.1865 
X-28.2834 Y15.0549 
X-28.1251 Y14.8966 
X-27.9935 Y14.7155 
X-27.8918 Y14.5160 
X-27.8226 Y14.3031 
X-27.7876 Y14.0819 
Y13.8581 
X-27.7920 Y13.8303 
X-25.6413 
Y15.3589 
X-25.6041 Y15.5939 
X-25.5306 Y15.8201 
X-25.4226 Y16.0321 
X-25.2828 Y16.2245 
X-25.1145 Y16.3928 
X-24.9221 Y16.5326 
X-24.7101 Y16.6406 
X-24.4839 Y16.7141 
X-24.3176 Y16.7404 
G00 Z2.0000 
G00 X-24.2415 Y23.2918 
G01 Z-0.1500 F254.00 
G01 X-24.0185 Y23.2918 F508.00 
G01 X-23.7973 Y23.2627 
X-23.5818 Y23.2049 
X-23.5156 Y23.1775 
X-22.2044 
X-22.1382 Y23.2049 
X-21.9227 Y23.2627 
X-21.7015 Y23.2918 
X-21.4785 
X-21.2573 Y23.2627 
X-21.0418 Y23.2049 
X-20.8357 Y23.1196 
X-20.6425 Y23.0080 
X-20.5613 Y22.9457 
Y28.0589 
X-20.5241 Y28.2939 
X-20.4506 Y28.5201 
X-20.3426 Y28.7321 
X-20.2028 Y28.9245 
X-20.0345 Y29.0928 
X-19.8516 Y29.2257 
X-20.0180 Y29.3466 
X-20.0211 Y29.3497 
X-21.6790 
X-21.8547 Y29.3775 
X-22.0239 Y29.4325 
X-22.1824 Y29.5133 
X-22.3263 Y29.6179 
X-22.4521 Y29.7437 
X-22.5425 Y29.8680 
Y25.2751 
X-22.5816 Y25.0283 
X-22.6588 Y24.7906 
X-22.7722 Y24.5680 
X-22.9191 Y24.3658 
X-23.0958 Y24.1891 
