(/home/mst/.eagle/ulp/pcb-gcode.ulp)
(Copyright 2005 - 2012 by John Johnson)
(See readme.txt for licensing terms.)
(This file generated from the board:)
(.../attiny45-microcontrol-v4.2-small-bts409l.brd)
(Current profile is .../mst/.eagle/ulp/profiles/emc.pp  )
(This file generated 03.06.16 00:30)
(Settings from pcb-machine.h)
(spindle on time = 1.0000)
(  Tool Size)
(0.5000 )
(spindle speed = 30000.0000)
(tool change at 0.0000 0.0000 25.4000 )
(feed rate xy = F508.00 )
(feed rate z  = F254.00 )
(Z Axis Settings)
(  High     Up        Down     Drill)
(5.0000 	2.0000 	-0.1500 	-0.2000 )
(Settings from pcb-defaults.h)
(isolate min = 0.0600)
(isolate max = 0.5080)
(isolate step = 0.1270)
(Generated top outlines, bottom outlines, )
(Unit of measure: mm)
(Metric Mode)
G21
(Absolute Coordinates)
G90
S30000
G00 Z5.0000 
G00 X0.0000 Y0.0000 
M03
G04 P1.000000
G00 Z2.0000 
G00 X0.2101 Y0.3648 
G01 Z-0.1500 F254.00 
G01 X0.3648 Y0.2101 F508.00 
G01 X0.5417 Y0.0816 
X0.7366 Y-0.0177 
X0.9446 Y-0.0853 
X1.1606 Y-0.1195 
X1.3794 
X1.5954 Y-0.0853 
X1.8034 Y-0.0177 
X1.9983 Y0.0816 
X2.1752 Y0.2101 
X2.3298 Y0.3648 
X2.4584 Y0.5417 
X2.5577 Y0.7366 
X2.6253 Y0.9446 
X2.6595 Y1.1606 
Y1.3794 
X2.6253 Y1.5954 
X2.5577 Y1.8034 
X2.4584 Y1.9983 
X2.3298 Y2.1752 
X2.1752 Y2.3298 
X1.9983 Y2.4584 
X1.8034 Y2.5577 
X1.5954 Y2.6253 
X1.3794 Y2.6595 
X1.1606 
X0.9446 Y2.6253 
X0.7366 Y2.5577 
X0.5417 Y2.4584 
X0.3648 Y2.3298 
X0.2101 Y2.1752 
X0.0816 Y1.9983 
X-0.0177 Y1.8034 
X-0.0853 Y1.5954 
X-0.1195 Y1.3794 
Y1.1606 
X-0.0853 Y0.9446 
X-0.0177 Y0.7366 
X0.0816 Y0.5417 
X0.2101 Y0.3648 
G00 Z2.0000 
G00 X2.7501 Y2.9048 
G01 Z-0.1500 F254.00 
G01 X2.9048 Y2.7501 F508.00 
G01 X3.0817 Y2.6216 
X3.2766 Y2.5223 
X3.4846 Y2.4547 
X3.7006 Y2.4205 
X3.9194 
X4.1354 Y2.4547 
X4.3434 Y2.5223 
X4.5383 Y2.6216 
X4.7152 Y2.7501 
X4.8698 Y2.9048 
X4.9984 Y3.0817 
X5.0977 Y3.2766 
X5.1653 Y3.4846 
X5.1995 Y3.7006 
Y3.9194 
X5.1653 Y4.1354 
X5.0977 Y4.3434 
X4.9984 Y4.5383 
X4.8698 Y4.7152 
X4.7152 Y4.8698 
X4.5383 Y4.9984 
X4.3434 Y5.0977 
X4.1354 Y5.1653 
X3.9194 Y5.1995 
X3.7006 
X3.4846 Y5.1653 
X3.2766 Y5.0977 
X3.0817 Y4.9984 
X2.9048 Y4.8698 
X2.7501 Y4.7152 
X2.6216 Y4.5383 
X2.5223 Y4.3434 
X2.4547 Y4.1354 
X2.4205 Y3.9194 
Y3.7006 
X2.4547 Y3.4846 
X2.5223 Y3.2766 
X2.6216 Y3.0817 
X2.7501 Y2.9048 
G00 Z2.0000 
G00 X5.6516 Y2.0877 
G01 Z-0.1500 F254.00 
G01 X5.5323 Y1.9684 F508.00 
G01 X5.4331 Y1.8318 
X5.3565 Y1.6815 
X5.3044 Y1.5210 
X5.2780 Y1.3544 
Y1.1856 
X5.3044 Y1.0190 
X5.3565 Y0.8585 
X5.4331 Y0.7081 
X5.5323 Y0.5716 
X5.6516 Y0.4523 
X5.7881 Y0.3531 
X5.9385 Y0.2765 
X6.0990 Y0.2244 
X6.2656 Y0.1980 
X6.4344 
X6.6010 Y0.2244 
X6.7615 Y0.2765 
X6.9119 Y0.3531 
X7.0484 Y0.4523 
X7.1677 Y0.5716 
X7.2669 Y0.7081 
X7.3435 Y0.8585 
X7.3956 Y1.0190 
X7.4220 Y1.1856 
Y1.3544 
X7.3956 Y1.5210 
X7.3435 Y1.6815 
X7.2669 Y1.8318 
X7.1677 Y1.9684 
X7.0484 Y2.0877 
X6.9119 Y2.1869 
X6.7615 Y2.2635 
X6.6010 Y2.3156 
X6.4344 Y2.3420 
X6.2656 
X6.0990 Y2.3156 
X5.9385 Y2.2635 
X5.7881 Y2.1869 
X5.6516 Y2.0877 
G00 Z2.0000 
G00 X5.6516 Y5.5323 
G01 Z-0.1500 F254.00 
G01 X5.7881 Y5.4331 F508.00 
G01 X5.9385 Y5.3565 
X6.0990 Y5.3044 
X6.2656 Y5.2780 
X6.4344 
X6.6010 Y5.3044 
X6.7615 Y5.3565 
X6.9119 Y5.4331 
X7.0484 Y5.5323 
X7.1677 Y5.6516 
X7.2669 Y5.7881 
X7.3435 Y5.9385 
X7.3956 Y6.0990 
X7.4220 Y6.2656 
Y6.4344 
X7.3956 Y6.6010 
X7.3435 Y6.7615 
X7.2669 Y6.9119 
X7.1677 Y7.0484 
X7.0484 Y7.1677 
X6.9119 Y7.2669 
X6.7615 Y7.3435 
X6.6010 Y7.3956 
X6.4344 Y7.4220 
X6.2656 
X6.0990 Y7.3956 
X5.9385 Y7.3435 
X5.7881 Y7.2669 
X5.6516 Y7.1677 
X5.5323 Y7.0484 
X5.4331 Y6.9119 
X5.3565 Y6.7615 
X5.3044 Y6.6010 
X5.2780 Y6.4344 
Y6.2656 
X5.3044 Y6.0990 
X5.3565 Y5.9385 
X5.4331 Y5.7881 
X5.5323 Y5.6516 
X5.6516 Y5.5323 
G00 Z2.0000 
G00 X5.6516 Y8.0723 
G01 Z-0.1500 F254.00 
G01 X5.7881 Y7.9731 F508.00 
G01 X5.9385 Y7.8965 
X6.0990 Y7.8444 
X6.2656 Y7.8180 
X6.4344 
X6.6010 Y7.8444 
X6.7615 Y7.8965 
X6.9119 Y7.9731 
X7.0484 Y8.0723 
X7.1677 Y8.1916 
X7.2669 Y8.3281 
X7.3435 Y8.4785 
X7.3956 Y8.6390 
X7.4220 Y8.8056 
Y8.9744 
X7.3956 Y9.1410 
X7.3435 Y9.3015 
X7.2669 Y9.4519 
X7.1677 Y9.5884 
X7.0484 Y9.7077 
X6.9119 Y9.8069 
X6.7615 Y9.8835 
X6.6010 Y9.9356 
X6.4344 Y9.9620 
X6.2656 
X6.0990 Y9.9356 
X5.9385 Y9.8835 
X5.7881 Y9.8069 
X5.6516 Y9.7077 
X5.5323 Y9.5884 
X5.4331 Y9.4519 
X5.3565 Y9.3015 
X5.3044 Y9.1410 
X5.2780 Y8.9744 
Y8.8056 
X5.3044 Y8.6390 
X5.3565 Y8.4785 
X5.4331 Y8.3281 
X5.5323 Y8.1916 
X5.6516 Y8.0723 
G00 Z2.0000 
G00 X4.9984 Y8.1617 
G01 Z-0.1500 F254.00 
G01 X5.0977 Y8.3566 F508.00 
G01 X5.1653 Y8.5646 
X5.1995 Y8.7806 
Y8.9994 
X5.1653 Y9.2154 
X5.0977 Y9.4234 
X4.9984 Y9.6183 
X4.8698 Y9.7952 
X4.7152 Y9.9498 
X4.5383 Y10.0784 
X4.3781 Y10.1600 
X4.5383 Y10.2416 
X4.7152 Y10.3701 
X4.8698 Y10.5248 
X4.9984 Y10.7017 
X5.0977 Y10.8966 
X5.1653 Y11.1046 
X5.1995 Y11.3206 
Y11.5394 
X5.1653 Y11.7554 
X5.0977 Y11.9634 
X4.9984 Y12.1583 
X4.8698 Y12.3352 
X4.7152 Y12.4899 
X4.5383 Y12.6184 
X4.3434 Y12.7177 
X4.1354 Y12.7853 
X3.9194 Y12.8195 
X3.7006 
X3.4846 Y12.7853 
X3.2766 Y12.7177 
X3.0817 Y12.6184 
X2.9048 Y12.4899 
X2.7501 Y12.3352 
X2.6216 Y12.1583 
X2.5223 Y11.9634 
X2.4547 Y11.7554 
X2.4205 Y11.5394 
Y11.3206 
X2.4547 Y11.1046 
X2.5223 Y10.8966 
X2.6216 Y10.7017 
X2.7501 Y10.5248 
X2.9048 Y10.3701 
X3.0817 Y10.2416 
X3.2419 Y10.1600 
X3.0817 Y10.0784 
X2.9048 Y9.9498 
X2.7501 Y9.7952 
X2.6216 Y9.6183 
X2.5223 Y9.4234 
X2.4547 Y9.2154 
X2.4205 Y8.9994 
Y8.7806 
X2.4547 Y8.5646 
X2.5223 Y8.3566 
X2.6216 Y8.1617 
X2.7501 Y7.9848 
X2.9048 Y7.8301 
X3.0817 Y7.7016 
X3.2766 Y7.6023 
X3.4846 Y7.5347 
X3.7006 Y7.5005 
X3.9194 
X4.1354 Y7.5347 
X4.3434 Y7.6023 
X4.5383 Y7.7016 
X4.7152 Y7.8301 
X4.8698 Y7.9848 
X4.9984 Y8.1617 
G00 Z2.0000 
G00 X5.5323 Y10.7316 
G01 Z-0.1500 F254.00 
G01 X5.6516 Y10.6123 F508.00 
G01 X5.7881 Y10.5131 
X5.9385 Y10.4365 
X6.0990 Y10.3844 
X6.2656 Y10.3580 
X6.4344 
X6.6010 Y10.3844 
X6.7615 Y10.4365 
X6.9119 Y10.5131 
X7.0484 Y10.6123 
X7.1677 Y10.7316 
X7.2669 Y10.8681 
X7.3435 Y11.0185 
X7.3956 Y11.1790 
X7.4220 Y11.3456 
Y11.5144 
X7.3956 Y11.6810 
X7.3435 Y11.8415 
X7.2669 Y11.9918 
X7.1677 Y12.1284 
X7.0484 Y12.2477 
X6.9119 Y12.3469 
X6.7615 Y12.4235 
X6.6010 Y12.4756 
X6.4344 Y12.5020 
X6.2656 
X6.0990 Y12.4756 
X5.9385 Y12.4235 
X5.7881 Y12.3469 
X5.6516 Y12.2477 
X5.5323 Y12.1284 
X5.4331 Y11.9918 
X5.3565 Y11.8415 
X5.3044 Y11.6810 
X5.2780 Y11.5144 
Y11.3456 
X5.3044 Y11.1790 
X5.3565 Y11.0185 
X5.4331 Y10.8681 
X5.5323 Y10.7316 
G00 Z2.0000 
G00 X5.5323 Y13.2716 
G01 Z-0.1500 F254.00 
G01 X5.6516 Y13.1523 F508.00 
G01 X5.7881 Y13.0531 
X5.9385 Y12.9765 
X6.0990 Y12.9244 
X6.2656 Y12.8980 
X6.4344 
X6.6010 Y12.9244 
X6.7615 Y12.9765 
X6.9119 Y13.0531 
X7.0484 Y13.1523 
X7.1677 Y13.2716 
X7.2669 Y13.4081 
X7.3435 Y13.5585 
X7.3956 Y13.7190 
X7.4220 Y13.8856 
Y14.0544 
X7.3956 Y14.2210 
X7.3435 Y14.3815 
X7.2669 Y14.5319 
X7.1677 Y14.6684 
X7.0484 Y14.7877 
X6.9119 Y14.8869 
X6.7615 Y14.9635 
X6.6010 Y15.0156 
X6.4344 Y15.0420 
X6.2656 
X6.0990 Y15.0156 
X5.9385 Y14.9635 
X5.7881 Y14.8869 
X5.6516 Y14.7877 
X5.5323 Y14.6684 
X5.4331 Y14.5319 
X5.3565 Y14.3815 
X5.3044 Y14.2210 
X5.2780 Y14.0544 
Y13.8856 
X5.3044 Y13.7190 
X5.3565 Y13.5585 
X5.4331 Y13.4081 
X5.5323 Y13.2716 
G00 Z2.0000 
G00 X4.6277 Y13.2716 
G01 Z-0.1500 F254.00 
G01 X4.7269 Y13.4081 F508.00 
G01 X4.8035 Y13.5585 
X4.8556 Y13.7190 
X4.8820 Y13.8856 
Y14.0544 
X4.8556 Y14.2210 
X4.8035 Y14.3815 
X4.7269 Y14.5319 
X4.6277 Y14.6684 
X4.5084 Y14.7877 
X4.3719 Y14.8869 
X4.2215 Y14.9635 
X4.0610 Y15.0156 
X3.8944 Y15.0420 
X3.7256 
X3.5590 Y15.0156 
X3.3985 Y14.9635 
X3.2481 Y14.8869 
X3.1116 Y14.7877 
X2.9923 Y14.6684 
X2.8931 Y14.5319 
X2.8165 Y14.3815 
X2.7644 Y14.2210 
X2.7380 Y14.0544 
Y13.8856 
X2.7644 Y13.7190 
X2.8165 Y13.5585 
X2.8931 Y13.4081 
X2.9923 Y13.2716 
X3.1116 Y13.1523 
X3.2481 Y13.0531 
X3.3985 Y12.9765 
X3.5590 Y12.9244 
X3.7256 Y12.8980 
X3.8944 
X4.0610 Y12.9244 
X4.2215 Y12.9765 
X4.3719 Y13.0531 
X4.5084 Y13.1523 
X4.6277 Y13.2716 
G00 Z2.0000 
G00 X4.5084 Y15.6923 
G01 Z-0.1500 F254.00 
G01 X4.6277 Y15.8116 F508.00 
G01 X4.7269 Y15.9481 
X4.8035 Y16.0985 
X4.8556 Y16.2590 
X4.8820 Y16.4256 
Y16.5944 
X4.8556 Y16.7610 
X4.8035 Y16.9215 
X4.7269 Y17.0719 
X4.6277 Y17.2084 
X4.5084 Y17.3277 
X4.3719 Y17.4269 
X4.2215 Y17.5035 
X4.0610 Y17.5556 
X3.8944 Y17.5820 
X3.7256 
X3.5590 Y17.5556 
X3.3985 Y17.5035 
X3.2481 Y17.4269 
X3.1116 Y17.3277 
X2.9923 Y17.2084 
X2.8931 Y17.0719 
X2.8165 Y16.9215 
X2.7644 Y16.7610 
X2.7380 Y16.5944 
Y16.4256 
X2.7644 Y16.2590 
X2.8165 Y16.0985 
X2.8931 Y15.9481 
X2.9923 Y15.8116 
X3.1116 Y15.6923 
X3.2481 Y15.5931 
X3.3985 Y15.5165 
X3.5590 Y15.4644 
X3.7256 Y15.4380 
X3.8944 
X4.0610 Y15.4644 
X4.2215 Y15.5165 
X4.3719 Y15.5931 
X4.5084 Y15.6923 
G00 Z2.0000 
G00 X5.5323 Y15.8116 
G01 Z-0.1500 F254.00 
G01 X5.6516 Y15.6923 F508.00 
G01 X5.7881 Y15.5931 
X5.9385 Y15.5165 
X6.0990 Y15.4644 
X6.2656 Y15.4380 
X6.4344 
X6.6010 Y15.4644 
X6.7615 Y15.5165 
X6.9119 Y15.5931 
X7.0484 Y15.6923 
X7.1677 Y15.8116 
X7.2669 Y15.9481 
X7.3435 Y16.0985 
X7.3956 Y16.2590 
X7.4220 Y16.4256 
Y16.5944 
X7.3956 Y16.7610 
X7.3435 Y16.9215 
X7.2669 Y17.0719 
X7.1677 Y17.2084 
X7.0484 Y17.3277 
X6.9119 Y17.4269 
X6.7615 Y17.5035 
X6.6010 Y17.5556 
X6.4344 Y17.5820 
X6.2656 
X6.0990 Y17.5556 
X5.9385 Y17.5035 
X5.7881 Y17.4269 
X5.6516 Y17.3277 
X5.5323 Y17.2084 
X5.4331 Y17.0719 
X5.3565 Y16.9215 
X5.3044 Y16.7610 
X5.2780 Y16.5944 
Y16.4256 
X5.3044 Y16.2590 
X5.3565 Y16.0985 
X5.4331 Y15.9481 
X5.5323 Y15.8116 
G00 Z2.0000 
G00 X5.4915 Y18.0565 
G01 Z-0.1500 F254.00 
G01 X5.6418 Y18.1331 F508.00 
G01 X5.7784 Y18.2323 
X5.8977 Y18.3516 
X5.9969 Y18.4881 
X6.0735 Y18.6385 
X6.1256 Y18.7990 
X6.1520 Y18.9656 
Y19.1344 
X6.1256 Y19.3010 
X6.0735 Y19.4615 
X5.9969 Y19.6119 
X5.8977 Y19.7484 
X5.7784 Y19.8677 
X5.6418 Y19.9669 
X5.4915 Y20.0435 
X5.3310 Y20.0956 
X5.1644 Y20.1220 
X4.9956 
X4.8290 Y20.0956 
X4.6685 Y20.0435 
X4.5181 Y19.9669 
X4.3816 Y19.8677 
X4.2623 Y19.7484 
X4.1631 Y19.6119 
X4.0865 Y19.4615 
X4.0344 Y19.3010 
X4.0080 Y19.1344 
Y18.9656 
X4.0344 Y18.7990 
X4.0865 Y18.6385 
X4.1631 Y18.4881 
X4.2623 Y18.3516 
X4.3816 Y18.2323 
X4.5181 Y18.1331 
X4.6685 Y18.0565 
X4.8290 Y18.0044 
X4.9956 Y17.9780 
X5.1644 
X5.3310 Y18.0044 
X5.4915 Y18.0565 
G00 Z2.0000 
G00 X5.4915 Y20.5965 
G01 Z-0.1500 F254.00 
G01 X5.6418 Y20.6731 F508.00 
G01 X5.7784 Y20.7723 
X5.8977 Y20.8916 
X5.9969 Y21.0281 
X6.0735 Y21.1785 
X6.1256 Y21.3390 
X6.1520 Y21.5056 
Y21.6744 
X6.1256 Y21.8410 
X6.0735 Y22.0015 
X5.9969 Y22.1518 
X5.8977 Y22.2884 
X5.7784 Y22.4077 
X5.6418 Y22.5069 
X5.4915 Y22.5835 
X5.3310 Y22.6356 
X5.1644 Y22.6620 
X4.9956 
X4.8290 Y22.6356 
X4.6685 Y22.5835 
X4.5181 Y22.5069 
X4.3816 Y22.4077 
X4.2623 Y22.2884 
X4.1631 Y22.1518 
X4.0865 Y22.0015 
X4.0344 Y21.8410 
X4.0080 Y21.6744 
Y21.5056 
X4.0344 Y21.3390 
X4.0865 Y21.1785 
X4.1631 Y21.0281 
X4.2623 Y20.8916 
X4.3816 Y20.7723 
X4.5181 Y20.6731 
X4.6685 Y20.5965 
X4.8290 Y20.5444 
X4.9956 Y20.5180 
X5.1644 
X5.3310 Y20.5444 
X5.4915 Y20.5965 
G00 Z2.0000 
G00 X10.7316 Y19.8677 
G01 Z-0.1500 F254.00 
G01 X10.6123 Y19.7484 F508.00 
G01 X10.5131 Y19.6119 
X10.4365 Y19.4615 
X10.3844 Y19.3010 
X10.3580 Y19.1344 
Y18.9656 
X10.3844 Y18.7990 
X10.4365 Y18.6385 
X10.5131 Y18.4881 
X10.6123 Y18.3516 
X10.7316 Y18.2323 
X10.8681 Y18.1331 
X11.0185 Y18.0565 
X11.1790 Y18.0044 
X11.3456 Y17.9780 
X11.5144 
X11.6810 Y18.0044 
X11.8415 Y18.0565 
X11.9918 Y18.1331 
X12.1284 Y18.2323 
X12.2477 Y18.3516 
X12.3469 Y18.4881 
X12.4235 Y18.6385 
X12.4756 Y18.7990 
X12.5020 Y18.9656 
Y19.1344 
X12.4756 Y19.3010 
X12.4235 Y19.4615 
X12.3469 Y19.6119 
X12.2477 Y19.7484 
X12.1284 Y19.8677 
X11.9918 Y19.9669 
X11.8415 Y20.0435 
X11.6810 Y20.0956 
X11.5144 Y20.1220 
X11.3456 
X11.1790 Y20.0956 
X11.0185 Y20.0435 
X10.8681 Y19.9669 
X10.7316 Y19.8677 
G00 Z2.0000 
G00 X10.7316 Y23.3123 
G01 Z-0.1500 F254.00 
G01 X10.8681 Y23.2131 F508.00 
G01 X11.0185 Y23.1365 
X11.1790 Y23.0844 
X11.3456 Y23.0580 
X11.5144 
X11.6810 Y23.0844 
X11.8415 Y23.1365 
X11.9918 Y23.2131 
X12.1284 Y23.3123 
X12.2477 Y23.4316 
X12.3469 Y23.5681 
X12.4235 Y23.7185 
X12.4756 Y23.8790 
X12.5020 Y24.0456 
Y24.2144 
X12.4756 Y24.3810 
X12.4235 Y24.5415 
X12.3469 Y24.6918 
X12.2477 Y24.8284 
X12.1284 Y24.9477 
X11.9918 Y25.0469 
X11.8415 Y25.1235 
X11.6810 Y25.1756 
X11.5144 Y25.2020 
X11.3456 
X11.1790 Y25.1756 
X11.0185 Y25.1235 
X10.8681 Y25.0469 
X10.7316 Y24.9477 
X10.6123 Y24.8284 
X10.5131 Y24.6918 
X10.4365 Y24.5415 
X10.3844 Y24.3810 
X10.3580 Y24.2144 
Y24.0456 
X10.3844 Y23.8790 
X10.4365 Y23.7185 
X10.5131 Y23.5681 
X10.6123 Y23.4316 
X10.7316 Y23.3123 
G00 Z2.0000 
G00 X15.8116 Y22.4077 
G01 Z-0.1500 F254.00 
G01 X15.6923 Y22.2884 F508.00 
G01 X15.5931 Y22.1518 
X15.5165 Y22.0015 
X15.4644 Y21.8410 
X15.4380 Y21.6744 
Y21.5056 
X15.4644 Y21.3390 
X15.5165 Y21.1785 
X15.5931 Y21.0281 
X15.6923 Y20.8916 
X15.8116 Y20.7723 
X15.9481 Y20.6731 
X16.0985 Y20.5965 
X16.2590 Y20.5444 
X16.4256 Y20.5180 
X16.5944 
X16.7610 Y20.5444 
X16.9215 Y20.5965 
X17.0719 Y20.6731 
X17.2084 Y20.7723 
X17.3277 Y20.8916 
X17.4269 Y21.0281 
X17.5035 Y21.1785 
X17.5556 Y21.3390 
X17.5820 Y21.5056 
Y21.6744 
X17.5556 Y21.8410 
X17.5035 Y22.0015 
X17.4269 Y22.1518 
X17.3277 Y22.2884 
X17.2084 Y22.4077 
X17.0719 Y22.5069 
X16.9215 Y22.5835 
X16.7610 Y22.6356 
X16.5944 Y22.6620 
X16.4256 
X16.2590 Y22.6356 
X16.0985 Y22.5835 
X15.9481 Y22.5069 
X15.8116 Y22.4077 
G00 Z2.0000 
G00 X15.8116 Y19.8677 
G01 Z-0.1500 F254.00 
G01 X15.6923 Y19.7484 F508.00 
G01 X15.5931 Y19.6119 
X15.5165 Y19.4615 
X15.4644 Y19.3010 
X15.4380 Y19.1344 
Y18.9656 
X15.4644 Y18.7990 
X15.5165 Y18.6385 
X15.5931 Y18.4881 
X15.6923 Y18.3516 
X15.8116 Y18.2323 
X15.9481 Y18.1331 
X16.0985 Y18.0565 
X16.2590 Y18.0044 
X16.4256 Y17.9780 
X16.5944 
X16.7610 Y18.0044 
X16.9215 Y18.0565 
X17.0719 Y18.1331 
X17.2084 Y18.2323 
X17.3277 Y18.3516 
X17.4269 Y18.4881 
X17.5035 Y18.6385 
X17.5556 Y18.7990 
X17.5820 Y18.9656 
Y19.1344 
X17.5556 Y19.3010 
X17.5035 Y19.4615 
X17.4269 Y19.6119 
X17.3277 Y19.7484 
X17.2084 Y19.8677 
X17.0719 Y19.9669 
X16.9215 Y20.0435 
X16.7610 Y20.0956 
X16.5944 Y20.1220 
X16.4256 
X16.2590 Y20.0956 
X16.0985 Y20.0435 
X15.9481 Y19.9669 
X15.8116 Y19.8677 
G00 Z2.0000 
G00 X18.3516 Y19.8677 
G01 Z-0.1500 F254.00 
G01 X18.2323 Y19.7484 F508.00 
G01 X18.1331 Y19.6119 
X18.0565 Y19.4615 
X18.0044 Y19.3010 
X17.9780 Y19.1344 
Y18.9656 
X18.0044 Y18.7990 
X18.0565 Y18.6385 
X18.1331 Y18.4881 
X18.2323 Y18.3516 
X18.3516 Y18.2323 
X18.4881 Y18.1331 
X18.6385 Y18.0565 
X18.7990 Y18.0044 
X18.9656 Y17.9780 
X19.1344 
X19.3010 Y18.0044 
X19.4615 Y18.0565 
X19.6119 Y18.1331 
X19.7484 Y18.2323 
X19.8677 Y18.3516 
X19.9669 Y18.4881 
X20.0435 Y18.6385 
X20.0956 Y18.7990 
X20.1220 Y18.9656 
Y19.1344 
X20.0956 Y19.3010 
X20.0435 Y19.4615 
X19.9669 Y19.6119 
X19.8677 Y19.7484 
X19.7484 Y19.8677 
X19.6119 Y19.9669 
X19.4615 Y20.0435 
X19.3010 Y20.0956 
X19.1344 Y20.1220 
X18.9656 
X18.7990 Y20.0956 
X18.6385 Y20.0435 
X18.4881 Y19.9669 
X18.3516 Y19.8677 
G00 Z2.0000 
G00 X18.3516 Y14.7877 
G01 Z-0.1500 F254.00 
G01 X18.2323 Y14.6684 F508.00 
G01 X18.1331 Y14.5319 
X18.0565 Y14.3815 
X18.0044 Y14.2210 
X17.9780 Y14.0544 
Y13.8856 
X18.0044 Y13.7190 
X18.0565 Y13.5585 
X18.1331 Y13.4081 
X18.2323 Y13.2716 
X18.3516 Y13.1523 
X18.4881 Y13.0531 
X18.6385 Y12.9765 
X18.7990 Y12.9244 
X18.9656 Y12.8980 
X19.1344 
X19.3010 Y12.9244 
X19.4615 Y12.9765 
X19.6119 Y13.0531 
X19.7484 Y13.1523 
X19.8677 Y13.2716 
X19.9669 Y13.4081 
X20.0435 Y13.5585 
X20.0956 Y13.7190 
X20.1220 Y13.8856 
Y14.0544 
X20.0956 Y14.2210 
X20.0435 Y14.3815 
X19.9669 Y14.5319 
X19.8677 Y14.6684 
X19.7484 Y14.7877 
X19.6119 Y14.8869 
X19.4615 Y14.9635 
X19.3010 Y15.0156 
X19.1344 Y15.0420 
X18.9656 
X18.7990 Y15.0156 
X18.6385 Y14.9635 
X18.4881 Y14.8869 
X18.3516 Y14.7877 
G00 Z2.0000 
G00 X17.6984 Y14.6983 
G01 Z-0.1500 F254.00 
G01 X17.5698 Y14.8752 F508.00 
G01 X17.4152 Y15.0298 
X17.2383 Y15.1584 
X17.0434 Y15.2577 
X16.8354 Y15.3253 
X16.6194 Y15.3595 
X16.4006 
X16.1846 Y15.3253 
X15.9766 Y15.2577 
X15.7817 Y15.1584 
X15.6048 Y15.0298 
X15.4501 Y14.8752 
X15.3216 Y14.6983 
X15.2223 Y14.5034 
X15.1547 Y14.2954 
X15.1205 Y14.0794 
Y13.8606 
X15.1547 Y13.6446 
X15.2223 Y13.4366 
X15.3216 Y13.2417 
X15.4501 Y13.0648 
X15.6048 Y12.9101 
X15.7817 Y12.7816 
X15.9419 Y12.7000 
X15.7817 Y12.6184 
X15.6048 Y12.4899 
X15.4501 Y12.3352 
X15.3216 Y12.1583 
X15.2223 Y11.9634 
X15.1547 Y11.7554 
X15.1205 Y11.5394 
Y11.3206 
X15.1547 Y11.1046 
X15.2223 Y10.8966 
X15.3216 Y10.7017 
X15.4501 Y10.5248 
X15.6048 Y10.3701 
X15.7817 Y10.2416 
X15.9766 Y10.1423 
X16.1846 Y10.0747 
X16.4006 Y10.0405 
X16.6194 
X16.8354 Y10.0747 
X17.0434 Y10.1423 
X17.2383 Y10.2416 
X17.4152 Y10.3701 
X17.5698 Y10.5248 
X17.6984 Y10.7017 
X17.7977 Y10.8966 
X17.8653 Y11.1046 
X17.8995 Y11.3206 
Y11.5394 
X17.8653 Y11.7554 
X17.7977 Y11.9634 
X17.6984 Y12.1583 
X17.5698 Y12.3352 
X17.4152 Y12.4899 
X17.2383 Y12.6184 
X17.0781 Y12.7000 
X17.2383 Y12.7816 
X17.4152 Y12.9101 
X17.5698 Y13.0648 
X17.6984 Y13.2417 
X17.7977 Y13.4366 
X17.8653 Y13.6446 
X17.8995 Y13.8606 
Y14.0794 
X17.8653 Y14.2954 
X17.7977 Y14.5034 
X17.6984 Y14.6983 
G00 Z2.0000 
G00 X14.7877 Y14.6684 
G01 Z-0.1500 F254.00 
G01 X14.6684 Y14.7877 F508.00 
G01 X14.5319 Y14.8869 
X14.3815 Y14.9635 
X14.2210 Y15.0156 
X14.0544 Y15.0420 
X13.8856 
X13.7190 Y15.0156 
X13.5585 Y14.9635 
X13.4081 Y14.8869 
X13.2716 Y14.7877 
X13.1523 Y14.6684 
X13.0531 Y14.5319 
X12.9765 Y14.3815 
X12.9244 Y14.2210 
X12.8980 Y14.0544 
Y13.8856 
X12.9244 Y13.7190 
X12.9765 Y13.5585 
X13.0531 Y13.4081 
X13.1523 Y13.2716 
X13.2716 Y13.1523 
X13.4081 Y13.0531 
X13.5585 Y12.9765 
X13.7190 Y12.9244 
X13.8856 Y12.8980 
X14.0544 
X14.2210 Y12.9244 
X14.3815 Y12.9765 
X14.5319 Y13.0531 
X14.6684 Y13.1523 
X14.7877 Y13.2716 
X14.8869 Y13.4081 
X14.9635 Y13.5585 
X15.0156 Y13.7190 
X15.0420 Y13.8856 
Y14.0544 
X15.0156 Y14.2210 
X14.9635 Y14.3815 
X14.8869 Y14.5319 
X14.7877 Y14.6684 
G00 Z2.0000 
G00 X14.6684 Y15.6923 
G01 Z-0.1500 F254.00 
G01 X14.7877 Y15.8116 F508.00 
G01 X14.8869 Y15.9481 
X14.9635 Y16.0985 
X15.0156 Y16.2590 
X15.0420 Y16.4256 
Y16.5944 
X15.0156 Y16.7610 
X14.9635 Y16.9215 
X14.8869 Y17.0719 
X14.7877 Y17.2084 
X14.6684 Y17.3277 
X14.5319 Y17.4269 
X14.3815 Y17.5035 
X14.2210 Y17.5556 
X14.0544 Y17.5820 
X13.8856 
X13.7190 Y17.5556 
X13.5585 Y17.5035 
X13.4081 Y17.4269 
X13.2716 Y17.3277 
X13.1523 Y17.2084 
X13.0531 Y17.0719 
X12.9765 Y16.9215 
X12.9244 Y16.7610 
X12.8980 Y16.5944 
Y16.4256 
X12.9244 Y16.2590 
X12.9765 Y16.0985 
X13.0531 Y15.9481 
X13.1523 Y15.8116 
X13.2716 Y15.6923 
X13.4081 Y15.5931 
X13.5585 Y15.5165 
X13.7190 Y15.4644 
X13.8856 Y15.4380 
X14.0544 
X14.2210 Y15.4644 
X14.3815 Y15.5165 
X14.5319 Y15.5931 
X14.6684 Y15.6923 
G00 Z2.0000 
G00 X14.6684 Y12.2477 
G01 Z-0.1500 F254.00 
G01 X14.5319 Y12.3469 F508.00 
G01 X14.3815 Y12.4235 
X14.2210 Y12.4756 
X14.0544 Y12.5020 
X13.8856 
X13.7190 Y12.4756 
X13.5585 Y12.4235 
X13.4081 Y12.3469 
X13.2716 Y12.2477 
X13.1523 Y12.1284 
X13.0531 Y11.9918 
X12.9765 Y11.8415 
X12.9244 Y11.6810 
X12.8980 Y11.5144 
Y11.3456 
X12.9244 Y11.1790 
X12.9765 Y11.0185 
X13.0531 Y10.8681 
X13.1523 Y10.7316 
X13.2716 Y10.6123 
X13.4081 Y10.5131 
X13.5585 Y10.4365 
X13.7190 Y10.3844 
X13.8856 Y10.3580 
X14.0544 
X14.2210 Y10.3844 
X14.3815 Y10.4365 
X14.5319 Y10.5131 
X14.6684 Y10.6123 
X14.7877 Y10.7316 
X14.8869 Y10.8681 
X14.9635 Y11.0185 
X15.0156 Y11.1790 
X15.0420 Y11.3456 
Y11.5144 
X15.0156 Y11.6810 
X14.9635 Y11.8415 
X14.8869 Y11.9918 
X14.7877 Y12.1284 
X14.6684 Y12.2477 
G00 Z2.0000 
G00 X14.6684 Y9.7077 
G01 Z-0.1500 F254.00 
G01 X14.5319 Y9.8069 F508.00 
G01 X14.3815 Y9.8835 
X14.2210 Y9.9356 
X14.0544 Y9.9620 
X13.8856 
X13.7190 Y9.9356 
X13.5585 Y9.8835 
X13.4081 Y9.8069 
X13.2716 Y9.7077 
X13.1523 Y9.5884 
X13.0531 Y9.4519 
X12.9765 Y9.3015 
X12.9244 Y9.1410 
X12.8980 Y8.9744 
Y8.8056 
X12.9244 Y8.6390 
X12.9765 Y8.4785 
X13.0531 Y8.3281 
X13.1523 Y8.1916 
X13.2716 Y8.0723 
X13.4081 Y7.9731 
X13.5585 Y7.8965 
X13.7190 Y7.8444 
X13.8856 Y7.8180 
X14.0544 
X14.2210 Y7.8444 
X14.3815 Y7.8965 
X14.5319 Y7.9731 
X14.6684 Y8.0723 
X14.7877 Y8.1916 
X14.8869 Y8.3281 
X14.9635 Y8.4785 
X15.0156 Y8.6390 
X15.0420 Y8.8056 
Y8.9744 
X15.0156 Y9.1410 
X14.9635 Y9.3015 
X14.8869 Y9.4519 
X14.7877 Y9.5884 
X14.6684 Y9.7077 
G00 Z2.0000 
G00 X15.7868 Y4.6567 
G01 Z-0.1500 F254.00 
G01 X15.6633 Y4.5332 F508.00 
G01 X15.5606 Y4.3918 
X15.4812 Y4.2361 
X15.4272 Y4.0699 
X15.3999 Y3.8974 
Y3.7226 
X15.4272 Y3.5501 
X15.4812 Y3.3839 
X15.5606 Y3.2282 
X15.6633 Y3.0868 
X15.7868 Y2.9633 
X15.9282 Y2.8606 
X16.0839 Y2.7812 
X16.2501 Y2.7272 
X16.4226 Y2.6999 
X16.5974 
X16.7699 Y2.7272 
X16.9361 Y2.7812 
X17.0918 Y2.8606 
X17.2332 Y2.9633 
X17.3567 Y3.0868 
X17.4594 Y3.2282 
X17.5388 Y3.3839 
X17.5928 Y3.5501 
X17.6201 Y3.7226 
Y3.8974 
X17.5928 Y4.0699 
X17.5388 Y4.2361 
X17.4594 Y4.3918 
X17.3567 Y4.5332 
X17.2332 Y4.6567 
X17.0918 Y4.7594 
X16.9361 Y4.8388 
X16.7699 Y4.8928 
X16.5974 Y4.9201 
X16.4226 
X16.2501 Y4.8928 
X16.0839 Y4.8388 
X15.9282 Y4.7594 
X15.7868 Y4.6567 
G00 Z2.0000 
G00 X13.5177 Y4.5084 
G01 Z-0.1500 F254.00 
G01 X13.3984 Y4.6277 F508.00 
G01 X13.2619 Y4.7269 
X13.1115 Y4.8035 
X12.9510 Y4.8556 
X12.7844 Y4.8820 
X12.6156 
X12.4490 Y4.8556 
X12.2885 Y4.8035 
X12.1381 Y4.7269 
X12.0016 Y4.6277 
X11.8823 Y4.5084 
X11.7831 Y4.3719 
X11.7065 Y4.2215 
X11.6544 Y4.0610 
X11.6280 Y3.8944 
Y3.7256 
X11.6544 Y3.5590 
X11.7065 Y3.3985 
X11.7831 Y3.2481 
X11.8823 Y3.1116 
X12.0016 Y2.9923 
X12.1381 Y2.8931 
X12.2885 Y2.8165 
X12.4490 Y2.7644 
X12.6156 Y2.7380 
X12.7844 
X12.9510 Y2.7644 
X13.1115 Y2.8165 
X13.2619 Y2.8931 
X13.3984 Y2.9923 
X13.5177 Y3.1116 
X13.6169 Y3.2481 
X13.6935 Y3.3985 
X13.7456 Y3.5590 
X13.7720 Y3.7256 
Y3.8944 
X13.7456 Y4.0610 
X13.6935 Y4.2215 
X13.6169 Y4.3719 
X13.5177 Y4.5084 
G00 Z2.0000 
G00 X10.9777 Y4.5084 
G01 Z-0.1500 F254.00 
G01 X10.8584 Y4.6277 F508.00 
G01 X10.7218 Y4.7269 
X10.5715 Y4.8035 
X10.4110 Y4.8556 
X10.2444 Y4.8820 
X10.0756 
X9.9090 Y4.8556 
X9.7485 Y4.8035 
X9.5981 Y4.7269 
X9.4616 Y4.6277 
X9.3423 Y4.5084 
X9.2431 Y4.3719 
X9.1665 Y4.2215 
X9.1144 Y4.0610 
X9.0880 Y3.8944 
Y3.7256 
X9.1144 Y3.5590 
X9.1665 Y3.3985 
X9.2431 Y3.2481 
X9.3423 Y3.1116 
X9.4616 Y2.9923 
X9.5981 Y2.8931 
X9.7485 Y2.8165 
X9.9090 Y2.7644 
X10.0756 Y2.7380 
X10.2444 
X10.4110 Y2.7644 
X10.5715 Y2.8165 
X10.7218 Y2.8931 
X10.8584 Y2.9923 
X10.9777 Y3.1116 
X11.0769 Y3.2481 
X11.1535 Y3.3985 
X11.2056 Y3.5590 
X11.2320 Y3.7256 
Y3.8944 
X11.2056 Y4.0610 
X11.1535 Y4.2215 
X11.0769 Y4.3719 
X10.9777 Y4.5084 
G00 Z2.0000 
G00 X11.0185 Y2.8985 
G01 Z-0.1500 F254.00 
G01 X10.8681 Y2.8219 F508.00 
G01 X10.7316 Y2.7227 
X10.6123 Y2.6034 
X10.5131 Y2.4668 
X10.4365 Y2.3165 
X10.3844 Y2.1560 
X10.3580 Y1.9894 
Y1.8206 
X10.3844 Y1.6540 
X10.4365 Y1.4935 
X10.5131 Y1.3431 
X10.6123 Y1.2066 
X10.7316 Y1.0873 
X10.8681 Y0.9881 
X11.0185 Y0.9115 
X11.1790 Y0.8594 
X11.3456 Y0.8330 
X11.5144 
X11.6810 Y0.8594 
X11.8415 Y0.9115 
X11.9918 Y0.9881 
X12.1284 Y1.0873 
X12.2477 Y1.2066 
X12.3469 Y1.3431 
X12.4235 Y1.4935 
X12.4756 Y1.6540 
X12.5020 Y1.8206 
Y1.9894 
X12.4756 Y2.1560 
X12.4235 Y2.3165 
X12.3469 Y2.4668 
X12.2477 Y2.6034 
X12.1284 Y2.7227 
X11.9918 Y2.8219 
X11.8415 Y2.8985 
X11.6810 Y2.9506 
X11.5144 Y2.9770 
X11.3456 
X11.1790 Y2.9506 
X11.0185 Y2.8985 
G00 Z2.0000 
G00 X15.7868 Y2.1167 
G01 Z-0.1500 F254.00 
G01 X15.6633 Y1.9932 F508.00 
G01 X15.5606 Y1.8518 
X15.4812 Y1.6961 
X15.4272 Y1.5299 
X15.3999 Y1.3574 
Y1.1826 
X15.4272 Y1.0100 
X15.4812 Y0.8439 
X15.5606 Y0.6882 
X15.6633 Y0.5468 
X15.7868 Y0.4233 
X15.9282 Y0.3206 
X16.0839 Y0.2412 
X16.2501 Y0.1872 
X16.4226 Y0.1599 
X16.5974 
X16.7699 Y0.1872 
X16.9361 Y0.2412 
X17.0918 Y0.3206 
X17.2332 Y0.4233 
X17.3567 Y0.5468 
X17.4594 Y0.6882 
X17.5388 Y0.8439 
X17.5928 Y1.0100 
X17.6201 Y1.1826 
Y1.3574 
X17.5928 Y1.5299 
X17.5388 Y1.6961 
X17.4594 Y1.8518 
X17.3567 Y1.9932 
X17.2332 Y2.1167 
X17.0918 Y2.2194 
X16.9361 Y2.2988 
X16.7699 Y2.3528 
X16.5974 Y2.3801 
X16.4226 
X16.2501 Y2.3528 
X16.0839 Y2.2988 
X15.9282 Y2.2194 
X15.7868 Y2.1167 
G00 Z2.0000 
G00 X20.4016 Y1.9983 
G01 Z-0.1500 F254.00 
G01 X20.3023 Y1.8034 F508.00 
G01 X20.2347 Y1.5954 
X20.2005 Y1.3794 
Y1.1606 
X20.2347 Y0.9446 
X20.3023 Y0.7366 
X20.4016 Y0.5417 
X20.5301 Y0.3648 
X20.6848 Y0.2101 
X20.8617 Y0.0816 
X21.0566 Y-0.0177 
X21.2646 Y-0.0853 
X21.4806 Y-0.1195 
X21.6994 
X21.9154 Y-0.0853 
X22.1234 Y-0.0177 
X22.3183 Y0.0816 
X22.4952 Y0.2101 
X22.6499 Y0.3648 
X22.7784 Y0.5417 
X22.8777 Y0.7366 
X22.9453 Y0.9446 
X22.9795 Y1.1606 
Y1.3794 
X22.9453 Y1.5954 
X22.8777 Y1.8034 
X22.7784 Y1.9983 
X22.6499 Y2.1752 
X22.4952 Y2.3298 
X22.3183 Y2.4584 
X22.1234 Y2.5577 
X21.9154 Y2.6253 
X21.6994 Y2.6595 
X21.4806 
X21.2646 Y2.6253 
X21.0566 Y2.5577 
X20.8617 Y2.4584 
X20.6848 Y2.3298 
X20.5301 Y2.1752 
X20.4016 Y1.9983 
G00 Z2.0000 
G00 X20.5301 Y32.1148 
G01 Z-0.1500 F254.00 
G01 X20.6848 Y31.9601 F508.00 
G01 X20.8617 Y31.8316 
X21.0566 Y31.7323 
X21.2646 Y31.6647 
X21.4806 Y31.6305 
X21.6994 
X21.9154 Y31.6647 
X22.1234 Y31.7323 
X22.3183 Y31.8316 
X22.4952 Y31.9601 
X22.6499 Y32.1148 
X22.7784 Y32.2917 
X22.8777 Y32.4866 
X22.9453 Y32.6946 
X22.9795 Y32.9106 
Y33.1294 
X22.9453 Y33.3454 
X22.8777 Y33.5534 
X22.7784 Y33.7483 
X22.6499 Y33.9252 
X22.4952 Y34.0799 
X22.3183 Y34.2084 
X22.1234 Y34.3077 
X21.9154 Y34.3753 
X21.6994 Y34.4095 
X21.4806 
X21.2646 Y34.3753 
X21.0566 Y34.3077 
X20.8617 Y34.2084 
X20.6848 Y34.0799 
X20.5301 Y33.9252 
X20.4016 Y33.7483 
X20.3200 Y33.5881 
X20.2384 Y33.7483 
X20.1099 Y33.9252 
X19.9552 Y34.0799 
X19.7783 Y34.2084 
X19.5834 Y34.3077 
X19.3754 Y34.3753 
X19.1594 Y34.4095 
X18.9406 
X18.7246 Y34.3753 
X18.5166 Y34.3077 
X18.3217 Y34.2084 
X18.1448 Y34.0799 
X17.9901 Y33.9252 
X17.8616 Y33.7483 
X17.7623 Y33.5534 
X17.6947 Y33.3454 
X17.6605 Y33.1294 
Y32.9106 
X17.6947 Y32.6946 
X17.7623 Y32.4866 
X17.8616 Y32.2917 
X17.9901 Y32.1148 
X18.1448 Y31.9601 
X18.3217 Y31.8316 
X18.5166 Y31.7323 
X18.7246 Y31.6647 
X18.9406 Y31.6305 
X19.1594 
X19.3754 Y31.6647 
X19.5834 Y31.7323 
X19.7783 Y31.8316 
X19.9552 Y31.9601 
X20.1099 Y32.1148 
X20.2384 Y32.2917 
X20.3200 Y32.4519 
X20.4016 Y32.2917 
X20.5301 Y32.1148 
G00 Z2.0000 
G82 X3.8100 Y8.8900 Z-0.2500 F508.00 R2.0000 P0.000000
G82 X6.3500 Y6.3500 
G82 X6.3500 Y1.2700 
G82 X16.5100 Y3.8100 
G82 X16.5100 Y1.2700 
G82 X21.5900 Y1.2700 
G82 X21.5900 Y33.0200 
G82 X3.8100 Y3.8100 
G82 X13.9700 Y8.8900 
G82 X13.9700 Y11.4300 
G82 X13.9700 Y13.9700 
G82 X13.9700 Y16.5100 
G82 X6.3500 Y16.5100 
G82 X6.3500 Y13.9700 
G82 X6.3500 Y11.4300 
G82 X6.3500 Y8.8900 
G82 X12.7000 Y3.8100 
G82 X11.4300 Y1.9050 
G82 X10.1600 Y3.8100 
G82 X3.8100 Y11.4300 
G82 X16.5100 Y11.4300 
G82 X16.5100 Y13.9700 
G82 X5.0800 Y19.0500 
G82 X5.0800 Y21.5900 
G82 X16.5100 Y19.0500 
G82 X16.5100 Y21.5900 
G82 X19.0500 Y33.0200 
G82 X3.8100 Y16.5100 
G82 X3.8100 Y13.9700 
G82 X11.4300 Y24.1300 
G82 X11.4300 Y19.0500 
G82 X19.0500 Y19.0500 
G82 X19.0500 Y13.9700 
G82 X1.2700 Y1.2700 
G00 Z5.0000 
M05
M02
