(.../pcb-gcode-3.6.0.4/pcb-gcode.ulp)
(Copyright 2005 - 2012 by John Johnson)
(See readme.txt for licensing terms.)
(This file generated from the board:)
(.../eagle/attiny45-microcontrol.brd)
(Current profile is .../pcb-gcode-3.6.0.4/profiles/emc.pp  )
(This file generated 10.06.13 22:21)
(Settings from pcb-machine.h)
(  Tool Size)
(0.2000 )
(Z Axis Settings)
(  High     Up        Down     Drill)
(1.0000 	1.0000 	-0.1700 	-0.2000 )
(spindle on time = 0.0000)
(milling depth = -0.1700)
(text depth = -0.1270)
(tool change at 12.7000 15.2400 25.4000 )
(feed rate xy = F250.00 )
(feed rate z  = F250.00 )
(Settings from pcb-defaults.h)
(isolate min = 0.0001)
(isolate max = 0.5080)
(isolate step = 0.1270)
(Generated bottom outlines, bottom drill, )
(Unit of measure: mm)
( Tool|       Size       |  Min Sub |  Max Sub |   Count )
( T01 | 0.600mm 0.0236in | 0.0000in | 0.0000in |       0 )
( T02 | 0.813mm 0.0320in | 0.0000in | 0.0000in |       0 )
( T03 | 0.914mm 0.0360in | 0.0000in | 0.0000in |       0 )
( T04 | 1.016mm 0.0400in | 0.0000in | 0.0000in |       0 )
(Metric Mode)
G21
(Absolute Coordinates)
G90
M05
G00 Z25.4000 
G00 X12.7000 Y15.2400 
M06 T01 (0.6000 )
G01 Z0.0000 F250.00 
M06 T01 (0.6000 )
G00 Z1.0000 
M03
G04 P0.000000
G82 X-6.3500 Y12.7000 Z-0.2000 F250.00 R1.0000 P0.000000
G82 X-8.8900 Y11.4300 
G82 X-8.8900 Y15.2400 
G82 X-11.4300 Y13.9700 
G82 X-11.4300 Y16.5100 
G82 X-11.4300 Y16.5100 
G82 X-11.4300 Y22.8600 
G82 X-1.2700 Y12.7000 
G82 X-16.5100 Y22.8600 
M05
G00 Z25.4000 
M06 T02 (0.8128 )
G01 Z0.0000 F250.00 
M06 T02 (0.8128 )
G00 Z1.0000 
M03
G04 P0.000000
G82 X-3.8100 Y25.4000 Z-0.2000 F250.00 R1.0000 P0.000000
G82 X-3.8100 Y27.9400 
G82 X-3.8100 Y30.4800 
G82 X-6.3500 Y3.8100 
G82 X-6.3500 Y6.3500 
G82 X-6.3500 Y8.8900 
G82 X-7.6200 Y22.8600 
G82 X-7.6200 Y27.9400 
G82 X-11.4300 Y3.8100 
G82 X-11.4300 Y6.3500 
G82 X-12.7000 Y25.4000 
G82 X-12.7000 Y27.9400 
G82 X-12.7000 Y30.4800 
G82 X-13.9700 Y8.8900 
G82 X-13.9700 Y12.7000 
G82 X-13.9700 Y20.3200 
G82 X-16.5100 Y3.8100 
G82 X-16.5100 Y8.8900 
G82 X-16.5100 Y12.7000 
G82 X-16.5100 Y20.3200 
G82 X-19.0500 Y12.7000 
G82 X-19.0500 Y20.3200 
G82 X-19.0500 Y22.8600 
G82 X-19.0500 Y27.9400 
G82 X-21.5900 Y3.8100 
G82 X-21.5900 Y8.8900 
G82 X-21.5900 Y12.7000 
G82 X-21.5900 Y20.3200 
G82 X-21.5900 Y22.8600 
G82 X-21.5900 Y27.9400 
G82 X-25.4000 Y7.6200 
G82 X-25.4000 Y12.7000 
G82 X-25.4000 Y25.4000 
G82 X-25.4000 Y27.9400 
G82 X-25.4000 Y30.4800 
M05
G00 Z25.4000 
M06 T03 (0.9144 )
G01 Z0.0000 F250.00 
M06 T03 (0.9144 )
G00 Z1.0000 
M03
G04 P0.000000
G82 X-25.4000 Y20.3200 Z-0.2000 F250.00 R1.0000 P0.000000
G82 X-27.9400 Y20.3200 
M05
G00 Z25.4000 
M06 T04 (1.0160 )
G01 Z0.0000 F250.00 
M06 T04 (1.0160 )
G00 Z1.0000 
M03
G04 P0.000000
G82 X-3.8100 Y17.7800 Z-0.2000 F250.00 R1.0000 P0.000000
G82 X-3.8100 Y20.3200 
G82 X-6.3500 Y31.7500 
G82 X-6.3500 Y17.7800 
G82 X-6.3500 Y20.3200 
G82 X-8.8900 Y17.7800 
G82 X-8.8900 Y20.3200 
G82 X-10.1600 Y31.7500 
G82 X-15.2400 Y31.7500 
G82 X-19.0500 Y31.7500 
G82 X-22.8600 Y31.7500 
G82 X-27.9400 Y31.7500 
T01 
M05
M02
