(/home/mst/.eagle/ulp/pcb-gcode.ulp)
(Copyright 2005 - 2012 by John Johnson)
(See readme.txt for licensing terms.)
(This file generated from the board:)
(.../attiny45-microcontrol-v4.0.brd)
(Current profile is .../mst/.eagle/ulp/profiles/emc.pp  )
(This file generated 02.08.15 18:41)
(Settings from pcb-machine.h)
(spindle on time = 1.0000)
(  Tool Size)
(0.1778 )
(spindle speed = 30000.0000)
(tool change at 0.0000 0.0000 25.4000 )
(feed rate xy = F508.00 )
(feed rate z  = F254.00 )
(Z Axis Settings)
(  High     Up        Down     Drill)
(5.0000 	2.0000 	-0.1500 	-0.2000 )
(Settings from pcb-defaults.h)
(isolate min = 0.0254)
(isolate max = 0.5080)
(isolate step = 0.1270)
(Generated bottom outlines, )
(Unit of measure: mm)
(Metric Mode)
G21
(Absolute Coordinates)
G90
S30000
G00 Z5.0000 
G00 X0.0000 Y0.0000 
M03
G04 P1.000000
G00 Z2.0000 
G00 X-0.3497 Y0.4840 
G01 Z-0.1500 F254.00 
G01 X-0.2381 Y0.6377 F508.00 
G01 X-0.1519 Y0.8069 
X-0.0932 Y0.9875 
X-0.0635 Y1.1750 
Y42.0050 
X-0.0932 Y42.1925 
X-0.1519 Y42.3731 
X-0.2381 Y42.5423 
X-0.3497 Y42.6960 
X-0.4840 Y42.8303 
X-0.6377 Y42.9419 
X-0.8069 Y43.0281 
X-0.9875 Y43.0868 
X-1.1750 Y43.1165 
X-30.5750 
X-30.7625 Y43.0868 
X-30.9431 Y43.0281 
X-31.1123 Y42.9419 
X-31.2660 Y42.8303 
X-31.4003 Y42.6960 
X-31.5119 Y42.5423 
X-31.5981 Y42.3731 
X-31.6568 Y42.1925 
X-31.6865 Y42.0050 
Y41.8150 
X-31.6568 Y41.6275 
X-31.5981 Y41.4469 
X-31.5119 Y41.2777 
X-31.4003 Y41.1240 
X-31.2660 Y40.9897 
X-31.1123 Y40.8781 
X-30.9431 Y40.7919 
X-30.7625 Y40.7332 
X-30.5750 Y40.7035 
X-3.7465 
Y34.1950 
X-3.7168 Y34.0075 
X-3.6581 Y33.8269 
X-3.5719 Y33.6577 
X-3.4603 Y33.5040 
X-2.4765 Y32.5202 
Y11.9298 
X-3.4603 Y10.9460 
X-4.7303 Y9.6760 
X-4.8419 Y9.5223 
X-4.9281 Y9.3531 
X-4.9868 Y9.1725 
X-5.0165 Y8.9850 
Y2.4765 
X-15.4305 
Y3.8950 
X-15.4571 Y4.0628 
X-15.5096 Y4.2244 
X-15.5867 Y4.3758 
X-15.6866 Y4.5132 
X-15.8068 Y4.6334 
X-15.9442 Y4.7333 
X-16.0956 Y4.8104 
X-16.2572 Y4.8629 
X-16.4250 Y4.8895 
X-16.5950 
X-16.7628 Y4.8629 
X-16.9244 Y4.8104 
X-17.0758 Y4.7333 
X-17.2132 Y4.6334 
X-17.3334 Y4.5132 
X-17.4333 Y4.3758 
X-17.5104 Y4.2244 
X-17.5629 Y4.0628 
X-17.5895 Y3.8950 
Y2.4765 
X-20.5105 
Y2.6250 
X-20.5371 Y2.7928 
X-20.5896 Y2.9544 
X-20.6667 Y3.1058 
X-20.7666 Y3.2432 
X-20.8868 Y3.3634 
X-21.0242 Y3.4633 
X-21.1756 Y3.5404 
X-21.3372 Y3.5929 
X-21.5050 Y3.6195 
X-21.6750 
X-21.8428 Y3.5929 
X-22.0044 Y3.5404 
X-22.1558 Y3.4633 
X-22.2932 Y3.3634 
X-22.4134 Y3.2432 
X-22.5133 Y3.1058 
X-22.5904 Y2.9544 
X-22.6429 Y2.7928 
X-22.6695 Y2.6250 
Y2.4765 
X-22.9235 
Y5.1750 
X-22.9532 Y5.3625 
X-23.0119 Y5.5431 
X-23.0981 Y5.7123 
X-23.2097 Y5.8660 
X-23.3440 Y6.0003 
X-23.4977 Y6.1119 
X-23.6669 Y6.1981 
X-23.8475 Y6.2568 
X-24.0350 Y6.2865 
X-30.5750 
X-30.7625 Y6.2568 
X-30.9431 Y6.1981 
X-31.1123 Y6.1119 
X-31.2660 Y6.0003 
X-31.4003 Y5.8660 
X-31.5119 Y5.7123 
X-31.5981 Y5.5431 
X-31.6568 Y5.3625 
X-31.6865 Y5.1750 
Y1.1750 
X-31.6568 Y0.9875 
X-31.5981 Y0.8069 
X-31.5119 Y0.6377 
X-31.4003 Y0.4840 
X-31.2660 Y0.3497 
X-31.1123 Y0.2381 
X-30.9431 Y0.1519 
X-30.7625 Y0.0932 
X-30.5750 Y0.0635 
X-16.4150 
X-3.9050 
X-1.1750 
X-0.9875 Y0.0932 
X-0.8069 Y0.1519 
X-0.6377 Y0.2381 
X-0.4840 Y0.3497 
X-0.3497 Y0.4840 
G00 Z2.0000 
G00 X-5.4297 Y3.0240 
G01 Z-0.1500 F254.00 
G01 X-5.3181 Y3.1777 F508.00 
G01 X-5.2319 Y3.3469 
X-5.1732 Y3.5275 
X-5.1435 Y3.7150 
Y9.6602 
X-2.8897 Y11.9140 
X-2.7781 Y12.0677 
X-2.6919 Y12.2369 
X-2.6332 Y12.4175 
X-2.6035 Y12.6050 
Y31.8450 
X-2.6332 Y32.0325 
X-2.6919 Y32.2131 
X-2.7781 Y32.3823 
X-2.8897 Y32.5360 
X-3.0240 Y32.6703 
X-3.1777 Y32.7819 
X-3.3469 Y32.8681 
X-3.5275 Y32.9268 
X-3.7150 Y32.9565 
X-28.0350 
X-28.2225 Y32.9268 
X-28.4031 Y32.8681 
X-28.5723 Y32.7819 
X-28.7260 Y32.6703 
X-28.8603 Y32.5360 
X-28.9719 Y32.3823 
X-29.0581 Y32.2131 
X-29.1168 Y32.0325 
X-29.1465 Y31.8450 
Y21.4950 
X-29.1168 Y21.3075 
X-29.0581 Y21.1269 
X-28.9719 Y20.9577 
X-28.8603 Y20.8040 
X-28.7260 Y20.6697 
X-28.5723 Y20.5581 
X-28.4031 Y20.4719 
X-28.2225 Y20.4132 
X-28.0350 Y20.3835 
X-26.5750 
X-26.3875 Y20.4132 
X-26.2069 Y20.4719 
X-26.0377 Y20.5581 
X-25.8840 Y20.6697 
X-25.7497 Y20.8040 
X-25.6381 Y20.9577 
X-25.5519 Y21.1269 
X-25.4932 Y21.3075 
X-25.4635 Y21.4950 
Y30.5435 
X-17.7165 
Y26.5750 
X-17.6868 Y26.3875 
X-17.6281 Y26.2069 
X-17.5419 Y26.0377 
X-17.4303 Y25.8840 
X-17.2960 Y25.7497 
X-17.1423 Y25.6381 
X-16.9731 Y25.5519 
X-16.7925 Y25.4932 
X-16.6050 Y25.4635 
X-16.4150 
X-16.2275 Y25.4932 
X-16.0469 Y25.5519 
X-15.8777 Y25.6381 
X-15.7240 Y25.7497 
X-15.5897 Y25.8840 
X-15.4781 Y26.0377 
X-15.3919 Y26.2069 
X-15.3332 Y26.3875 
X-15.3035 Y26.5750 
Y30.5435 
X-5.0165 
Y13.1997 
X-7.1360 Y11.0803 
X-7.2703 Y10.9460 
X-7.3819 Y10.7923 
X-7.4681 Y10.6231 
X-7.5268 Y10.4425 
X-7.5565 Y10.2550 
Y5.0165 
X-12.7950 
X-12.9825 Y4.9868 
X-13.1631 Y4.9281 
X-13.2389 Y4.8895 
X-14.0550 
X-14.2228 Y4.8629 
X-14.3844 Y4.8104 
X-14.5358 Y4.7333 
X-14.6732 Y4.6334 
X-14.7934 Y4.5132 
X-14.8933 Y4.3758 
X-14.9704 Y4.2244 
X-15.0229 Y4.0628 
X-15.0495 Y3.8950 
Y3.7250 
X-15.0229 Y3.5572 
X-14.9704 Y3.3956 
X-14.8933 Y3.2442 
X-14.7934 Y3.1068 
X-14.6732 Y2.9866 
X-14.5358 Y2.8867 
X-14.3844 Y2.8096 
X-14.2228 Y2.7571 
X-14.0550 Y2.7305 
X-13.2389 
X-13.1631 Y2.6919 
X-12.9825 Y2.6332 
X-12.7950 Y2.6035 
X-6.2550 
X-6.0675 Y2.6332 
X-5.8869 Y2.6919 
X-5.7177 Y2.7781 
X-5.5640 Y2.8897 
X-5.4297 Y3.0240 
G00 Z2.0000 
G00 X-7.9697 Y5.5640 
G01 Z-0.1500 F254.00 
G01 X-7.8581 Y5.7177 F508.00 
G01 X-7.7719 Y5.8869 
X-7.7132 Y6.0675 
X-7.6835 Y6.2550 
Y11.5250 
X-7.7132 Y11.7125 
X-7.7719 Y11.8931 
X-7.8581 Y12.0623 
X-7.9697 Y12.2160 
X-8.1040 Y12.3503 
X-8.2577 Y12.4619 
X-8.4269 Y12.5481 
X-8.6075 Y12.6068 
X-8.7950 Y12.6365 
X-10.2235 
Y16.6050 
X-10.2532 Y16.7925 
X-10.3119 Y16.9731 
X-10.3981 Y17.1423 
X-10.5097 Y17.2960 
X-10.6440 Y17.4303 
X-10.7977 Y17.5419 
X-10.9669 Y17.6281 
X-11.1475 Y17.6868 
X-11.3350 Y17.7165 
X-11.5250 
X-11.7125 Y17.6868 
X-11.8931 Y17.6281 
X-12.0623 Y17.5419 
X-12.2160 Y17.4303 
X-12.3503 Y17.2960 
X-12.4619 Y17.1423 
X-12.5481 Y16.9731 
X-12.6068 Y16.7925 
X-12.6365 Y16.6050 
Y8.8265 
X-29.2735 
Y17.8435 
X-25.3365 
Y15.1450 
X-25.3068 Y14.9575 
X-25.2481 Y14.7769 
X-25.1619 Y14.6077 
X-25.0503 Y14.4540 
X-24.9160 Y14.3197 
X-24.7623 Y14.2081 
X-24.5931 Y14.1219 
X-24.4125 Y14.0632 
X-24.2250 Y14.0335 
X-24.0350 
X-23.8475 Y14.0632 
X-23.6669 Y14.1219 
X-23.4977 Y14.2081 
X-23.3440 Y14.3197 
X-23.2097 Y14.4540 
X-23.0981 Y14.6077 
X-23.0119 Y14.7769 
X-22.9532 Y14.9575 
X-22.9235 Y15.1450 
Y19.1450 
X-22.9532 Y19.3325 
X-23.0119 Y19.5131 
X-23.0981 Y19.6823 
X-23.2097 Y19.8360 
X-23.3440 Y19.9703 
X-23.4977 Y20.0819 
X-23.6669 Y20.1681 
X-23.8475 Y20.2268 
X-24.0350 Y20.2565 
X-29.2735 
Y33.0835 
X-8.7950 
X-4.9850 
X-4.7975 Y33.1132 
X-4.6169 Y33.1719 
X-4.4477 Y33.2581 
X-4.2940 Y33.3697 
X-4.1597 Y33.5040 
X-4.0481 Y33.6577 
X-3.9619 Y33.8269 
X-3.9032 Y34.0075 
X-3.8735 Y34.1950 
Y34.3850 
X-3.9032 Y34.5725 
X-3.9619 Y34.7531 
X-4.0481 Y34.9223 
X-4.1597 Y35.0760 
X-4.2940 Y35.2103 
X-4.4477 Y35.3219 
X-4.6169 Y35.4081 
X-4.7975 Y35.4668 
X-4.9850 Y35.4965 
X-30.5750 
X-30.7625 Y35.4668 
X-30.9431 Y35.4081 
X-31.1123 Y35.3219 
X-31.2660 Y35.2103 
X-31.4003 Y35.0760 
X-31.5119 Y34.9223 
X-31.5981 Y34.7531 
X-31.6568 Y34.5725 
X-31.6865 Y34.3850 
Y7.5250 
X-31.6568 Y7.3375 
X-31.5981 Y7.1569 
X-31.5119 Y6.9877 
X-31.4003 Y6.8340 
X-31.2660 Y6.6997 
X-31.1123 Y6.5881 
X-30.9431 Y6.5019 
X-30.7625 Y6.4432 
X-30.5750 Y6.4135 
X-22.7965 
Y4.9850 
X-22.7668 Y4.7975 
X-22.7081 Y4.6169 
X-22.6219 Y4.4477 
X-22.5103 Y4.2940 
X-22.3760 Y4.1597 
X-22.2223 Y4.0481 
X-22.0531 Y3.9619 
X-21.8725 Y3.9032 
X-21.6850 Y3.8735 
X-21.4950 
X-21.3075 Y3.9032 
X-21.1269 Y3.9619 
X-20.9577 Y4.0481 
X-20.8040 Y4.1597 
X-20.6697 Y4.2940 
X-20.5581 Y4.4477 
X-20.4719 Y4.6169 
X-20.4132 Y4.7975 
X-20.3835 Y4.9850 
Y6.4135 
X-16.3195 
Y5.6300 
X-16.2929 Y5.4622 
X-16.2404 Y5.3006 
X-16.1633 Y5.1492 
X-16.0634 Y5.0118 
X-15.9432 Y4.8916 
X-15.8058 Y4.7917 
X-15.6544 Y4.7146 
X-15.4928 Y4.6621 
X-15.3250 Y4.6355 
X-15.1550 
X-14.9872 Y4.6621 
X-14.8256 Y4.7146 
X-14.6742 Y4.7917 
X-14.5368 Y4.8916 
X-14.4166 Y5.0118 
X-14.3167 Y5.1492 
X-14.2971 Y5.1877 
X-14.2525 Y5.1732 
X-14.0650 Y5.1435 
X-8.7950 
X-8.6075 Y5.1732 
X-8.4269 Y5.2319 
X-8.2577 Y5.3181 
X-8.1040 Y5.4297 
X-7.9697 Y5.5640 
G00 Z2.0000 
G00 X-7.7150 Y12.7635 
G01 Z-0.1500 F254.00 
G01 X-6.2550 Y12.7635 F508.00 
G01 X-6.0675 Y12.7932 
X-5.8869 Y12.8519 
X-5.7177 Y12.9381 
X-5.5640 Y13.0497 
X-5.4297 Y13.1840 
X-5.3181 Y13.3377 
X-5.2319 Y13.5069 
X-5.1732 Y13.6875 
X-5.1435 Y13.8750 
Y16.6050 
X-5.1732 Y16.7925 
X-5.2319 Y16.9731 
X-5.3181 Y17.1423 
X-5.4297 Y17.2960 
X-5.5640 Y17.4303 
X-5.7177 Y17.5419 
X-5.8869 Y17.6281 
X-6.0675 Y17.6868 
X-6.2550 Y17.7165 
X-8.9850 
X-9.1725 Y17.6868 
X-9.3531 Y17.6281 
X-9.5223 Y17.5419 
X-9.6760 Y17.4303 
X-9.8103 Y17.2960 
X-9.9219 Y17.1423 
X-10.0081 Y16.9731 
X-10.0668 Y16.7925 
X-10.0965 Y16.6050 
Y13.8750 
X-10.0668 Y13.6875 
X-10.0081 Y13.5069 
X-9.9219 Y13.3377 
X-9.8103 Y13.1840 
X-9.6760 Y13.0497 
X-9.5223 Y12.9381 
X-9.3531 Y12.8519 
X-9.1725 Y12.7932 
X-8.9850 Y12.7635 
X-8.7950 
X-7.7150 
G00 Z2.0000 
G00 X-8.9850 Y17.8435 
G01 Z-0.1500 F254.00 
G01 X-6.2550 Y17.8435 F508.00 
G01 X-6.0675 Y17.8732 
X-5.8869 Y17.9319 
X-5.7177 Y18.0181 
X-5.5640 Y18.1297 
X-5.4297 Y18.2640 
X-5.3181 Y18.4177 
X-5.2319 Y18.5869 
X-5.1732 Y18.7675 
X-5.1435 Y18.9550 
Y29.3050 
X-5.1732 Y29.4925 
X-5.2319 Y29.6731 
X-5.3181 Y29.8423 
X-5.4297 Y29.9960 
X-5.5640 Y30.1303 
X-5.7177 Y30.2419 
X-5.8869 Y30.3281 
X-6.0675 Y30.3868 
X-6.2550 Y30.4165 
X-14.0650 
X-14.2525 Y30.3868 
X-14.4331 Y30.3281 
X-14.6023 Y30.2419 
X-14.7560 Y30.1303 
X-14.8903 Y29.9960 
X-15.0019 Y29.8423 
X-15.0881 Y29.6731 
X-15.1468 Y29.4925 
X-15.1765 Y29.3050 
Y29.1150 
X-15.1468 Y28.9275 
X-15.0881 Y28.7469 
X-15.0019 Y28.5777 
X-14.8903 Y28.4240 
X-14.7560 Y28.2897 
X-14.6023 Y28.1781 
X-14.5923 Y28.1730 
Y28.0410 
X-15.6885 Y24.7523 
X-18.4277 
Y25.6330 
X-18.4177 Y25.6381 
X-18.2640 Y25.7497 
X-18.1297 Y25.8840 
X-18.0181 Y26.0377 
X-17.9319 Y26.2069 
X-17.8732 Y26.3875 
X-17.8435 Y26.5750 
Y29.3050 
X-17.8732 Y29.4925 
X-17.9319 Y29.6731 
X-18.0181 Y29.8423 
X-18.1297 Y29.9960 
X-18.2640 Y30.1303 
X-18.4177 Y30.2419 
X-18.5869 Y30.3281 
X-18.7675 Y30.3868 
X-18.9550 Y30.4165 
X-19.1450 
X-19.3325 Y30.3868 
X-19.5131 Y30.3281 
X-19.6823 Y30.2419 
X-19.8360 Y30.1303 
X-19.9703 Y29.9960 
X-20.0819 Y29.8423 
X-20.1681 Y29.6731 
X-20.2268 Y29.4925 
X-20.2565 Y29.3050 
Y26.5750 
X-20.2268 Y26.3875 
X-20.1681 Y26.2069 
X-20.0819 Y26.0377 
X-19.9703 Y25.8840 
X-19.8360 Y25.7497 
X-19.6823 Y25.6381 
X-19.6723 Y25.6330 
Y24.0687 
X-19.6484 Y23.9485 
X-19.6015 Y23.8352 
X-19.5334 Y23.7333 
X-19.4467 Y23.6466 
X-19.3448 Y23.5785 
X-19.2315 Y23.5316 
X-19.1113 Y23.5077 
X-15.2791 
X-15.2570 Y23.5049 
X-15.2179 Y23.5077 
X-15.1787 
X-15.1569 Y23.5120 
X-15.1347 
X-15.0969 Y23.5240 
X-15.0585 Y23.5316 
X-15.0380 Y23.5401 
X-15.0165 Y23.5460 
X-14.9815 Y23.5635 
X-14.9452 Y23.5785 
X-14.9268 Y23.5909 
X-14.9069 Y23.6008 
X-14.8759 Y23.6249 
X-14.8433 Y23.6466 
X-14.8276 Y23.6623 
X-14.8100 Y23.6760 
X-14.7843 Y23.7056 
X-14.7566 Y23.7333 
X-14.7443 Y23.7518 
X-14.7297 Y23.7686 
X-14.7103 Y23.8026 
X-14.6885 Y23.8352 
X-14.6800 Y23.8558 
X-14.6690 Y23.8751 
X-14.6566 Y23.9123 
X-14.6416 Y23.9485 
X-14.6373 Y23.9703 
X-13.3866 Y27.7222 
X-13.3716 Y27.7585 
X-13.3673 Y27.7803 
X-13.3603 Y27.8014 
X-13.3553 Y27.8402 
X-13.3477 Y27.8787 
Y27.9009 
X-13.3449 Y27.9230 
X-13.3477 Y27.9621 
Y28.0035 
X-7.5565 
Y20.2565 
X-8.9850 
X-9.1725 Y20.2268 
X-9.3531 Y20.1681 
X-9.5223 Y20.0819 
X-9.6760 Y19.9703 
X-9.8103 Y19.8360 
X-9.9219 Y19.6823 
X-10.0081 Y19.5131 
X-10.0668 Y19.3325 
X-10.0965 Y19.1450 
Y18.9550 
X-10.0668 Y18.7675 
X-10.0081 Y18.5869 
X-9.9219 Y18.4177 
X-9.8103 Y18.2640 
X-9.6760 Y18.1297 
X-9.5223 Y18.0181 
X-9.3531 Y17.9319 
X-9.1725 Y17.8732 
X-8.9850 Y17.8435 
G00 Z2.0000 
G00 X-10.5097 Y18.2640 
G01 Z-0.1500 F254.00 
G01 X-10.3981 Y18.4177 F508.00 
G01 X-10.3119 Y18.5869 
X-10.2532 Y18.7675 
X-10.2235 Y18.9550 
Y19.1450 
X-10.2532 Y19.3325 
X-10.3119 Y19.5131 
X-10.3981 Y19.6823 
X-10.5097 Y19.8360 
X-10.6440 Y19.9703 
X-10.7977 Y20.0819 
X-10.9669 Y20.1681 
X-11.1475 Y20.2268 
X-11.3350 Y20.2565 
X-13.3477 
Y21.6513 
X-13.3716 Y21.7715 
X-13.4185 Y21.8848 
X-13.4866 Y21.9867 
X-13.5733 Y22.0734 
X-13.6752 Y22.1415 
X-13.7885 Y22.1884 
X-13.9087 Y22.2123 
X-14.0313 
X-23.5077 
Y25.6330 
X-23.4977 Y25.6381 
X-23.3440 Y25.7497 
X-23.2097 Y25.8840 
X-23.0981 Y26.0377 
X-23.0119 Y26.2069 
X-22.9532 Y26.3875 
X-22.9235 Y26.5750 
Y29.3050 
X-22.9532 Y29.4925 
X-23.0119 Y29.6731 
X-23.0981 Y29.8423 
X-23.2097 Y29.9960 
X-23.3440 Y30.1303 
X-23.4977 Y30.2419 
X-23.6669 Y30.3281 
X-23.8475 Y30.3868 
X-24.0350 Y30.4165 
X-24.2250 
X-24.4125 Y30.3868 
X-24.5931 Y30.3281 
X-24.7623 Y30.2419 
X-24.9160 Y30.1303 
X-25.0503 Y29.9960 
X-25.1619 Y29.8423 
X-25.2481 Y29.6731 
X-25.3068 Y29.4925 
X-25.3365 Y29.3050 
Y26.5750 
X-25.3068 Y26.3875 
X-25.2481 Y26.2069 
X-25.1619 Y26.0377 
X-25.0503 Y25.8840 
X-24.9160 Y25.7497 
X-24.7623 Y25.6381 
X-24.7523 Y25.6330 
Y21.5287 
X-24.7284 Y21.4085 
X-24.6815 Y21.2952 
X-24.6134 Y21.1933 
X-24.5267 Y21.1066 
X-24.4248 Y21.0385 
X-24.3115 Y20.9916 
X-24.1913 Y20.9677 
X-14.5923 
Y20.0870 
X-14.6023 Y20.0819 
X-14.7560 Y19.9703 
X-14.8903 Y19.8360 
X-15.0019 Y19.6823 
X-15.0881 Y19.5131 
X-15.1468 Y19.3325 
X-15.1765 Y19.1450 
Y18.9550 
X-15.1468 Y18.7675 
X-15.0881 Y18.5869 
X-15.0019 Y18.4177 
X-14.8903 Y18.2640 
X-14.7560 Y18.1297 
X-14.6023 Y18.0181 
X-14.4331 Y17.9319 
X-14.2525 Y17.8732 
X-14.0650 Y17.8435 
X-11.3350 
X-11.1475 Y17.8732 
X-10.9669 Y17.9319 
X-10.7977 Y18.0181 
X-10.6440 Y18.1297 
X-10.5097 Y18.2640 
G00 Z2.0000 
G00 X-10.5097 Y20.8040 
G01 Z-0.1500 F254.00 
G01 X-10.3981 Y20.9577 F508.00 
G01 X-10.3119 Y21.1269 
X-10.2532 Y21.3075 
X-10.2235 Y21.4950 
Y24.2250 
X-10.2532 Y24.4125 
X-10.3119 Y24.5931 
X-10.3981 Y24.7623 
X-10.5097 Y24.9160 
X-10.6440 Y25.0503 
X-10.7977 Y25.1619 
X-10.9669 Y25.2481 
X-11.1475 Y25.3068 
X-11.3350 Y25.3365 
X-11.5250 
X-11.7125 Y25.3068 
X-11.8931 Y25.2481 
X-12.0623 Y25.1619 
X-12.2160 Y25.0503 
X-12.3503 Y24.9160 
X-12.4619 Y24.7623 
X-12.5481 Y24.5931 
X-12.6068 Y24.4125 
X-12.6365 Y24.2250 
Y21.4950 
X-12.6068 Y21.3075 
X-12.5481 Y21.1269 
X-12.4619 Y20.9577 
X-12.3503 Y20.8040 
X-12.2160 Y20.6697 
X-12.0623 Y20.5581 
X-11.8931 Y20.4719 
X-11.7125 Y20.4132 
X-11.5250 Y20.3835 
X-11.3350 
X-11.1475 Y20.4132 
X-10.9669 Y20.4719 
X-10.7977 Y20.5581 
X-10.6440 Y20.6697 
X-10.5097 Y20.8040 
G00 Z2.0000 
G00 X-9.8103 Y20.8040 
G01 Z-0.1500 F254.00 
G01 X-9.6760 Y20.6697 F508.00 
G01 X-9.5223 Y20.5581 
X-9.3531 Y20.4719 
X-9.1725 Y20.4132 
X-8.9850 Y20.3835 
X-8.7950 
X-8.6075 Y20.4132 
X-8.4269 Y20.4719 
X-8.2577 Y20.5581 
X-8.1040 Y20.6697 
X-7.9697 Y20.8040 
X-7.8581 Y20.9577 
X-7.7719 Y21.1269 
X-7.7132 Y21.3075 
X-7.6835 Y21.4950 
Y26.5750 
Y26.7650 
X-7.7132 Y26.9525 
X-7.7719 Y27.1331 
X-7.8581 Y27.3023 
X-7.9697 Y27.4560 
X-8.1040 Y27.5903 
X-8.2577 Y27.7019 
X-8.4269 Y27.7881 
X-8.6075 Y27.8468 
X-8.7950 Y27.8765 
X-11.5250 
X-11.7125 Y27.8468 
X-11.8931 Y27.7881 
X-12.0623 Y27.7019 
X-12.2160 Y27.5903 
X-12.3503 Y27.4560 
X-12.4619 Y27.3023 
X-12.4670 Y27.2923 
X-12.6609 
X-12.6830 Y27.2951 
X-12.7221 Y27.2923 
X-12.7613 
X-12.7831 Y27.2880 
X-12.8052 
X-12.8431 Y27.2760 
X-12.8815 Y27.2684 
X-12.9020 Y27.2599 
X-12.9235 Y27.2540 
X-12.9585 Y27.2365 
X-12.9948 Y27.2215 
X-13.0132 Y27.2091 
X-13.0331 Y27.1992 
X-13.0641 Y27.1751 
X-13.0967 Y27.1534 
X-13.1124 Y27.1377 
X-13.1300 Y27.1240 
X-13.1557 Y27.0944 
X-13.1834 Y27.0667 
X-13.1957 Y27.0482 
X-13.2103 Y27.0314 
X-13.2297 Y26.9974 
X-13.2515 Y26.9648 
X-13.2600 Y26.9442 
X-13.2710 Y26.9249 
X-13.2834 Y26.8877 
X-13.2984 Y26.8515 
X-13.3027 Y26.8297 
X-14.4185 Y23.4823 
X-20.9677 
Y25.6330 
X-20.9577 Y25.6381 
X-20.8040 Y25.7497 
X-20.6697 Y25.8840 
X-20.5581 Y26.0377 
X-20.4719 Y26.2069 
X-20.4132 Y26.3875 
X-20.3835 Y26.5750 
Y29.3050 
X-20.4132 Y29.4925 
X-20.4719 Y29.6731 
X-20.5581 Y29.8423 
X-20.6697 Y29.9960 
X-20.8040 Y30.1303 
X-20.9577 Y30.2419 
X-21.1269 Y30.3281 
X-21.3075 Y30.3868 
X-21.4950 Y30.4165 
X-21.6850 
X-21.8725 Y30.3868 
X-22.0531 Y30.3281 
X-22.2223 Y30.2419 
X-22.3760 Y30.1303 
X-22.5103 Y29.9960 
X-22.6219 Y29.8423 
X-22.7081 Y29.6731 
X-22.7668 Y29.4925 
X-22.7965 Y29.3050 
Y26.5750 
X-22.7668 Y26.3875 
X-22.7081 Y26.2069 
X-22.6219 Y26.0377 
X-22.5103 Y25.8840 
X-22.3760 Y25.7497 
X-22.2223 Y25.6381 
X-22.2123 Y25.6330 
Y22.7987 
X-22.1884 Y22.6785 
X-22.1415 Y22.5652 
X-22.0734 Y22.4633 
X-21.9867 Y22.3766 
X-21.8848 Y22.3085 
X-21.7715 Y22.2616 
X-21.6513 Y22.2377 
X-14.0091 
X-13.9870 Y22.2349 
X-13.9479 Y22.2377 
X-13.9087 
X-13.8869 Y22.2420 
X-13.8647 
X-13.8269 Y22.2540 
X-13.7885 Y22.2616 
X-13.7680 Y22.2701 
X-13.7465 Y22.2760 
X-13.7114 Y22.2935 
X-13.6752 Y22.3085 
X-13.6568 Y22.3209 
X-13.6369 Y22.3308 
X-13.6059 Y22.3549 
X-13.5733 Y22.3766 
X-13.5576 Y22.3923 
X-13.5400 Y22.4060 
X-13.5143 Y22.4356 
X-13.4866 Y22.4633 
X-13.4743 Y22.4818 
X-13.4597 Y22.4986 
X-13.4403 Y22.5326 
X-13.4185 Y22.5652 
X-13.4100 Y22.5858 
X-13.3990 Y22.6051 
X-13.3866 Y22.6423 
X-13.3716 Y22.6785 
X-13.3673 Y22.7003 
X-12.3171 Y25.8508 
X-12.2160 Y25.7497 
X-12.0623 Y25.6381 
X-11.8931 Y25.5519 
X-11.7125 Y25.4932 
X-11.5250 Y25.4635 
X-10.0965 
Y21.4950 
X-10.0668 Y21.3075 
X-10.0081 Y21.1269 
X-9.9219 Y20.9577 
X-9.8103 Y20.8040 
G00 Z2.0000 
G00 X-13.0955 Y17.7021 
G01 Z-0.1500 F254.00 
G01 X-13.1215 Y17.7172 F508.00 
G01 X-13.1506 Y17.7250 
X-15.3035 
Y19.1450 
X-15.3332 Y19.3325 
X-15.3919 Y19.5131 
X-15.4781 Y19.6823 
X-15.5897 Y19.8360 
X-15.7240 Y19.9703 
X-15.8777 Y20.0819 
X-16.0469 Y20.1681 
X-16.2275 Y20.2268 
X-16.4150 Y20.2565 
X-16.6050 
X-16.7925 Y20.2268 
X-16.9731 Y20.1681 
X-17.1423 Y20.0819 
X-17.2960 Y19.9703 
X-17.4303 Y19.8360 
X-17.5419 Y19.6823 
X-17.6281 Y19.5131 
X-17.6868 Y19.3325 
X-17.7165 Y19.1450 
Y13.8750 
X-17.6868 Y13.6875 
X-17.6281 Y13.5069 
X-17.5419 Y13.3377 
X-17.4303 Y13.1840 
X-17.2960 Y13.0497 
X-17.1423 Y12.9381 
X-16.9731 Y12.8519 
X-16.7925 Y12.7932 
X-16.6050 Y12.7635 
X-16.4150 
X-16.2275 Y12.7932 
X-16.0469 Y12.8519 
X-15.8777 Y12.9381 
X-15.7240 Y13.0497 
X-15.5897 Y13.1840 
X-15.4781 Y13.3377 
X-15.3919 Y13.5069 
X-15.3332 Y13.6875 
X-15.3035 Y13.8750 
Y14.5330 
X-13.1506 
X-13.1215 Y14.5408 
X-13.0955 Y14.5559 
X-13.0742 Y14.5771 
X-13.0591 Y14.6032 
X-13.0513 Y14.6323 
Y17.6257 
X-13.0591 Y17.6548 
X-13.0742 Y17.6808 
X-13.0955 Y17.7021 
G00 Z2.0000 
G00 X-17.8435 Y19.1450 
G01 Z-0.1500 F254.00 
G01 X-17.8732 Y19.3325 F508.00 
G01 X-17.9319 Y19.5131 
X-18.0181 Y19.6823 
X-18.1297 Y19.8360 
X-18.2640 Y19.9703 
X-18.4177 Y20.0819 
X-18.5869 Y20.1681 
X-18.7675 Y20.2268 
X-18.9550 Y20.2565 
X-19.1450 
X-19.3325 Y20.2268 
X-19.5131 Y20.1681 
X-19.6823 Y20.0819 
X-19.8360 Y19.9703 
X-19.9703 Y19.8360 
X-20.0819 Y19.6823 
X-20.1681 Y19.5131 
X-20.2268 Y19.3325 
X-20.2565 Y19.1450 
Y15.3350 
Y10.0650 
X-20.2268 Y9.8775 
X-20.1681 Y9.6969 
X-20.0819 Y9.5277 
X-19.9703 Y9.3740 
X-19.8360 Y9.2397 
X-19.6823 Y9.1281 
X-19.5131 Y9.0419 
X-19.3325 Y8.9832 
X-19.1450 Y8.9535 
X-13.8750 
X-13.6875 Y8.9832 
X-13.5069 Y9.0419 
X-13.3377 Y9.1281 
X-13.1840 Y9.2397 
X-13.0497 Y9.3740 
X-12.9381 Y9.5277 
X-12.8519 Y9.6969 
X-12.7932 Y9.8775 
X-12.7635 Y10.0650 
Y10.2550 
X-12.7932 Y10.4425 
X-12.8519 Y10.6231 
X-12.9381 Y10.7923 
X-13.0497 Y10.9460 
X-13.1840 Y11.0803 
X-13.3377 Y11.1919 
X-13.5069 Y11.2781 
X-13.6875 Y11.3368 
X-13.8750 Y11.3665 
X-17.8435 
Y19.1450 
G00 Z2.0000 
G00 X-20.3835 Y19.1450 
G01 Z-0.1500 F254.00 
G01 X-20.4132 Y19.3325 F508.00 
G01 X-20.4719 Y19.5131 
X-20.5581 Y19.6823 
X-20.6697 Y19.8360 
X-20.8040 Y19.9703 
X-20.9577 Y20.0819 
X-21.1269 Y20.1681 
X-21.3075 Y20.2268 
X-21.4950 Y20.2565 
X-21.6850 
X-21.8725 Y20.2268 
X-22.0531 Y20.1681 
X-22.2223 Y20.0819 
X-22.3760 Y19.9703 
X-22.5103 Y19.8360 
X-22.6219 Y19.6823 
X-22.7081 Y19.5131 
X-22.7668 Y19.3325 
X-22.7965 Y19.1450 
Y11.3665 
X-26.7335 
Y16.6050 
X-26.7632 Y16.7925 
X-26.8219 Y16.9731 
X-26.9081 Y17.1423 
X-27.0197 Y17.2960 
X-27.1540 Y17.4303 
X-27.3077 Y17.5419 
X-27.4769 Y17.6281 
X-27.6575 Y17.6868 
X-27.8450 Y17.7165 
X-28.0350 
X-28.2225 Y17.6868 
X-28.4031 Y17.6281 
X-28.5723 Y17.5419 
X-28.7260 Y17.4303 
X-28.8603 Y17.2960 
X-28.9719 Y17.1423 
X-29.0581 Y16.9731 
X-29.1168 Y16.7925 
X-29.1465 Y16.6050 
Y10.0650 
X-29.1168 Y9.8775 
X-29.0581 Y9.6969 
X-28.9719 Y9.5277 
X-28.8603 Y9.3740 
X-28.7260 Y9.2397 
X-28.5723 Y9.1281 
X-28.4031 Y9.0419 
X-28.2225 Y8.9832 
X-28.0350 Y8.9535 
X-21.4950 
X-21.3075 Y8.9832 
X-21.1269 Y9.0419 
X-20.9577 Y9.1281 
X-20.8040 Y9.2397 
X-20.6697 Y9.3740 
X-20.5581 Y9.5277 
X-20.4719 Y9.6969 
X-20.4132 Y9.8775 
X-20.3835 Y10.0650 
Y19.1450 
G00 Z2.0000 
G00 X-20.6697 Y36.0440 
G01 Z-0.1500 F254.00 
G01 X-20.5581 Y36.1977 F508.00 
G01 X-20.4719 Y36.3669 
X-20.4132 Y36.5475 
X-20.3835 Y36.7350 
Y38.1635 
X-12.6365 
Y36.7350 
X-12.6068 Y36.5475 
X-12.5481 Y36.3669 
X-12.4619 Y36.1977 
X-12.3503 Y36.0440 
X-12.2160 Y35.9097 
X-12.0623 Y35.7981 
X-11.8931 Y35.7119 
X-11.7125 Y35.6532 
X-11.5250 Y35.6235 
X-4.9850 
X-4.7975 Y35.6532 
X-4.6169 Y35.7119 
X-4.4477 Y35.7981 
X-4.2940 Y35.9097 
X-4.1597 Y36.0440 
X-4.0481 Y36.1977 
X-3.9619 Y36.3669 
X-3.9032 Y36.5475 
X-3.8735 Y36.7350 
Y36.9250 
X-3.9032 Y37.1125 
X-3.9619 Y37.2931 
X-4.0481 Y37.4623 
X-4.1597 Y37.6160 
X-4.2940 Y37.7503 
X-4.4477 Y37.8619 
X-4.6169 Y37.9481 
X-4.7975 Y38.0068 
X-4.9850 Y38.0365 
X-10.2235 
Y39.4650 
X-10.2532 Y39.6525 
X-10.3119 Y39.8331 
X-10.3981 Y40.0023 
X-10.5097 Y40.1560 
X-10.6440 Y40.2903 
X-10.7977 Y40.4019 
X-10.9669 Y40.4881 
X-11.1475 Y40.5468 
X-11.3350 Y40.5765 
X-21.6850 
X-21.8725 Y40.5468 
X-22.0531 Y40.4881 
X-22.2223 Y40.4019 
X-22.3760 Y40.2903 
X-22.5103 Y40.1560 
X-22.6219 Y40.0023 
X-22.7081 Y39.8331 
X-22.7668 Y39.6525 
X-22.7965 Y39.4650 
Y36.7350 
X-22.7668 Y36.5475 
X-22.7081 Y36.3669 
X-22.6219 Y36.1977 
X-22.5103 Y36.0440 
X-22.3760 Y35.9097 
X-22.2223 Y35.7981 
X-22.0531 Y35.7119 
X-21.8725 Y35.6532 
X-21.6850 Y35.6235 
X-21.4950 
X-21.3075 Y35.6532 
X-21.1269 Y35.7119 
X-20.9577 Y35.7981 
X-20.8040 Y35.9097 
X-20.6697 Y36.0440 
G00 Z2.0000 
G00 X-19.9703 Y36.0440 
G01 Z-0.1500 F254.00 
G01 X-19.8360 Y35.9097 F508.00 
G01 X-19.6823 Y35.7981 
X-19.5131 Y35.7119 
X-19.3325 Y35.6532 
X-19.1450 Y35.6235 
X-13.8750 
X-13.6875 Y35.6532 
X-13.5069 Y35.7119 
X-13.3377 Y35.7981 
X-13.1840 Y35.9097 
X-13.0497 Y36.0440 
X-12.9381 Y36.1977 
X-12.8519 Y36.3669 
X-12.7932 Y36.5475 
X-12.7635 Y36.7350 
Y36.9250 
X-12.7932 Y37.1125 
X-12.8519 Y37.2931 
X-12.9381 Y37.4623 
X-13.0497 Y37.6160 
X-13.1840 Y37.7503 
X-13.3377 Y37.8619 
X-13.5069 Y37.9481 
X-13.6875 Y38.0068 
X-13.8750 Y38.0365 
X-19.1450 
X-19.3325 Y38.0068 
X-19.5131 Y37.9481 
X-19.6823 Y37.8619 
X-19.8360 Y37.7503 
X-19.9703 Y37.6160 
X-20.0819 Y37.4623 
X-20.1681 Y37.2931 
X-20.2268 Y37.1125 
X-20.2565 Y36.9250 
Y36.7350 
X-20.2268 Y36.5475 
X-20.1681 Y36.3669 
X-20.0819 Y36.1977 
X-19.9703 Y36.0440 
G00 Z2.0000 
G00 X-23.2097 Y36.0440 
G01 Z-0.1500 F254.00 
G01 X-23.0981 Y36.1977 F508.00 
G01 X-23.0119 Y36.3669 
X-22.9532 Y36.5475 
X-22.9235 Y36.7350 
Y36.9250 
X-22.9532 Y37.1125 
X-23.0119 Y37.2931 
X-23.0981 Y37.4623 
X-23.2097 Y37.6160 
X-23.3440 Y37.7503 
X-23.4977 Y37.8619 
X-23.6669 Y37.9481 
X-23.8475 Y38.0068 
X-24.0350 Y38.0365 
X-26.5750 
X-30.5750 
X-30.7625 Y38.0068 
X-30.9431 Y37.9481 
X-31.1123 Y37.8619 
X-31.2660 Y37.7503 
X-31.4003 Y37.6160 
X-31.5119 Y37.4623 
X-31.5981 Y37.2931 
X-31.6568 Y37.1125 
X-31.6865 Y36.9250 
Y36.7350 
X-31.6568 Y36.5475 
X-31.5981 Y36.3669 
X-31.5119 Y36.1977 
X-31.4003 Y36.0440 
X-31.2660 Y35.9097 
X-31.1123 Y35.7981 
X-30.9431 Y35.7119 
X-30.7625 Y35.6532 
X-30.5750 Y35.6235 
X-24.0350 
X-23.8475 Y35.6532 
X-23.6669 Y35.7119 
X-23.4977 Y35.7981 
X-23.3440 Y35.9097 
X-23.2097 Y36.0440 
G00 Z2.0000 
G00 X-23.2097 Y38.5840 
G01 Z-0.1500 F254.00 
G01 X-23.0981 Y38.7377 F508.00 
G01 X-23.0119 Y38.9069 
X-22.9532 Y39.0875 
X-22.9235 Y39.2750 
Y39.4650 
X-22.9532 Y39.6525 
X-23.0119 Y39.8331 
X-23.0981 Y40.0023 
X-23.2097 Y40.1560 
X-23.3440 Y40.2903 
X-23.4977 Y40.4019 
X-23.6669 Y40.4881 
X-23.8475 Y40.5468 
X-24.0350 Y40.5765 
X-30.5750 
X-30.7625 Y40.5468 
X-30.9431 Y40.4881 
X-31.1123 Y40.4019 
X-31.2660 Y40.2903 
X-31.4003 Y40.1560 
X-31.5119 Y40.0023 
X-31.5981 Y39.8331 
X-31.6568 Y39.6525 
X-31.6865 Y39.4650 
Y39.2750 
X-31.6568 Y39.0875 
X-31.5981 Y38.9069 
X-31.5119 Y38.7377 
X-31.4003 Y38.5840 
X-31.2660 Y38.4497 
X-31.1123 Y38.3381 
X-30.9431 Y38.2519 
X-30.7625 Y38.1932 
X-30.5750 Y38.1635 
X-24.0350 
X-23.8475 Y38.1932 
X-23.6669 Y38.2519 
X-23.4977 Y38.3381 
X-23.3440 Y38.4497 
X-23.2097 Y38.5840 
G00 Z2.0000 
G00 X-9.8103 Y38.5840 
G01 Z-0.1500 F254.00 
G01 X-9.6760 Y38.4497 F508.00 
G01 X-9.5223 Y38.3381 
X-9.3531 Y38.2519 
X-9.1725 Y38.1932 
X-8.9850 Y38.1635 
X-4.9850 
X-4.7975 Y38.1932 
X-4.6169 Y38.2519 
X-4.4477 Y38.3381 
X-4.2940 Y38.4497 
X-4.1597 Y38.5840 
X-4.0481 Y38.7377 
X-3.9619 Y38.9069 
X-3.9032 Y39.0875 
X-3.8735 Y39.2750 
Y39.4650 
X-3.9032 Y39.6525 
X-3.9619 Y39.8331 
X-4.0481 Y40.0023 
X-4.1597 Y40.1560 
X-4.2940 Y40.2903 
X-4.4477 Y40.4019 
X-4.6169 Y40.4881 
X-4.7975 Y40.5468 
X-4.9850 Y40.5765 
X-8.9850 
X-9.1725 Y40.5468 
X-9.3531 Y40.4881 
X-9.5223 Y40.4019 
X-9.6760 Y40.2903 
X-9.8103 Y40.1560 
X-9.9219 Y40.0023 
X-10.0081 Y39.8331 
X-10.0668 Y39.6525 
X-10.0965 Y39.4650 
Y39.2750 
X-10.0668 Y39.0875 
X-10.0081 Y38.9069 
X-9.9219 Y38.7377 
X-9.8103 Y38.5840 
G00 Z2.0000 
G82 X-16.5100 Y13.9700 Z-0.2794 F508.00 R2.0000 P0.000000
G82 X-8.8900 Y13.9700 
G82 X-11.4300 Y24.1300 
G82 X-11.4300 Y31.7500 
G82 X-27.9400 Y25.4000 
G82 X-30.4800 Y25.4000 
G82 X-27.9400 Y13.9700 
G82 X-27.9400 Y19.0500 
G82 X-19.0500 Y15.2400 
G82 X-24.1300 Y15.2400 
G82 X-6.3500 Y10.1600 
G82 X-11.4300 Y10.1600 
G82 X-29.2100 Y2.5400 
G82 X-29.2100 Y7.6200 
G82 X-21.5900 Y2.5400 
G82 X-21.5900 Y5.0800 
G82 X-10.1600 Y6.3500 
G82 X-16.5100 Y19.0500 
G82 X-19.0500 Y19.0500 
G82 X-21.5900 Y19.0500 
G82 X-24.1300 Y19.0500 
G82 X-24.1300 Y26.6700 
G82 X-21.5900 Y26.6700 
G82 X-19.0500 Y26.6700 
G82 X-16.5100 Y26.6700 
G82 X-13.9700 Y3.8100 
G82 X-15.2400 Y5.7150 
G82 X-16.5100 Y3.8100 
G82 X-13.9700 Y10.1600 
G82 X-27.9400 Y10.1600 
G82 X-8.8900 Y21.5900 
G82 X-11.4300 Y21.5900 
G82 X-8.8900 Y19.0500 
G82 X-11.4300 Y19.0500 
G82 X-8.8900 Y16.5100 
G82 X-11.4300 Y16.5100 
G82 X-15.2400 Y36.8300 
G82 X-15.2400 Y34.2900 
G82 X-30.4800 Y41.9100 
G82 X-30.4800 Y39.3700 
G82 X-8.8900 Y41.9100 
G82 X-8.8900 Y39.3700 
G82 X-24.1300 Y10.1600 
G82 X-19.0500 Y10.1600 
G82 X-26.6700 Y36.8300 
G82 X-26.6700 Y39.3700 
G82 X-26.6700 Y34.2900 
G82 X-5.0800 Y36.8300 
G82 X-5.0800 Y39.3700 
G82 X-5.0800 Y34.2900 
G82 X-19.0500 Y36.8300 
G82 X-19.0500 Y29.2100 
G82 X-3.8100 Y13.9700 
G82 X-6.3500 Y13.9700 
G82 X-24.1300 Y36.8300 
G82 X-24.1300 Y29.2100 
G82 X-21.5900 Y36.8300 
G82 X-21.5900 Y29.2100 
G82 X-30.4800 Y34.2900 
G82 X-30.4800 Y36.8300 
G82 X-8.8900 Y34.2900 
G82 X-8.8900 Y36.8300 
G82 X-3.8100 Y6.3500 
G00 Z5.0000 
M05
M02
