(.../pcb-gcode-3.6.0.4/pcb-gcode.ulp)
(Copyright 2005 - 2012 by John Johnson)
(See readme.txt for licensing terms.)
(This file generated from the board:)
(.../mst/NC/eagle/attiny45board.brd)
(Current profile is .../pcb-gcode-3.6.0.4/profiles/emc.pp  )
(This file generated 31.05.13 00:10)
(Settings from pcb-machine.h)
(  Tool Size)
(0.0070 )
(Z Axis Settings)
(  High     Up        Down     Drill)
(0.5000 	0.1000 	-0.0070 	-0.0320 )
(spindle on time = 3.0000)
(milling depth = -0.0100)
(text depth = -0.0050)
(tool change at 0.5000 0.6000 1.0000 )
(feed rate xy = F20.00 )
(feed rate z  = F10.00 )
(Settings from pcb-defaults.h)
(isolate min = 0.0010)
(isolate max = 0.0200)
(isolate step = 0.0050)
(Generated bottom outlines, bottom drill, )
(Unit of measure: inch)
(Inch Mode)
G20
(Absolute Coordinates)
G90
G00 X0.0000 Y0.0000 
M03
G04 P3.000000
G00 Z0.1000 
G00 X-1.4335 Y2.3478 
G01 Z-0.0070 F10.00 
G01 X-1.4346 Y2.3436 F20.00 
G01 X-1.4368 Y2.3399 
G01 X-1.4399 Y2.3368 
G01 X-1.4436 Y2.3346 
G01 X-1.4478 Y2.3335 
G01 X-1.5195 Y2.3335 
G01 X-1.5195 Y2.3210 
G01 X-1.5207 Y2.3151 
G01 X-1.5230 Y2.3096 
G01 X-1.5263 Y2.3046 
G01 X-1.5306 Y2.3003 
G01 X-1.5335 Y2.2983 
G01 X-1.5335 Y2.2766 
G01 X-1.5195 Y2.2626 
G01 X-1.5195 Y2.2374 
G01 X-1.5374 Y2.2195 
G01 X-1.5626 Y2.2195 
G01 X-1.5805 Y2.2374 
G01 X-1.5805 Y2.2626 
G01 X-1.5665 Y2.2766 
G01 X-1.5665 Y2.2983 
G01 X-1.5694 Y2.3003 
G01 X-1.5737 Y2.3046 
G01 X-1.5770 Y2.3096 
G01 X-1.5793 Y2.3151 
G01 X-1.5805 Y2.3210 
G01 X-1.5805 Y2.3790 
G01 X-1.5793 Y2.3849 
G01 X-1.5770 Y2.3904 
G01 X-1.5737 Y2.3954 
G01 X-1.5694 Y2.3997 
G01 X-1.5644 Y2.4030 
G01 X-1.5589 Y2.4053 
G01 X-1.5530 Y2.4065 
G01 X-1.5470 Y2.4065 
G01 X-1.5411 Y2.4053 
G01 X-1.5356 Y2.4030 
G01 X-1.5306 Y2.3997 
G01 X-1.5263 Y2.3954 
G01 X-1.5230 Y2.3904 
G01 X-1.5207 Y2.3849 
G01 X-1.5195 Y2.3790 
G01 X-1.5195 Y2.3665 
G01 X-1.4665 Y2.3665 
G01 X-1.4665 Y2.4257 
G01 X-1.4707 Y2.4257 
G01 X-1.4724 Y2.4264 
G01 X-1.4736 Y2.4276 
G01 X-1.4743 Y2.4293 
G01 X-1.4743 Y2.4707 
G01 X-1.4736 Y2.4724 
G01 X-1.4724 Y2.4736 
G01 X-1.4707 Y2.4743 
G01 X-1.4293 Y2.4743 
G01 X-1.4276 Y2.4736 
G01 X-1.4264 Y2.4724 
G01 X-1.4257 Y2.4707 
G01 X-1.4257 Y2.4293 
G01 X-1.4264 Y2.4276 
G01 X-1.4276 Y2.4264 
G01 X-1.4293 Y2.4257 
G01 X-1.4335 Y2.4257 
G01 X-1.4335 Y2.3478 
G00 Z0.1000 
G00 X-1.8335 Y3.0335 
G01 Z-0.0070 F10.00 
G01 X-1.8335 Y2.9805 F20.00 
G01 X-1.8280 Y2.9768 
G01 X-1.8232 Y2.9720 
G01 X-1.8194 Y2.9663 
G01 X-1.8168 Y2.9601 
G01 X-1.8155 Y2.9534 
G01 X-1.8155 Y2.9466 
G01 X-1.8168 Y2.9399 
G01 X-1.8194 Y2.9337 
G01 X-1.8232 Y2.9280 
G01 X-1.8280 Y2.9232 
G01 X-1.8335 Y2.9195 
G01 X-1.8335 Y2.7017 
G01 X-1.8306 Y2.6997 
G01 X-1.8263 Y2.6954 
G01 X-1.8230 Y2.6904 
G01 X-1.8207 Y2.6849 
G01 X-1.8195 Y2.6790 
G01 X-1.8195 Y2.6210 
G01 X-1.8207 Y2.6151 
G01 X-1.8230 Y2.6096 
G01 X-1.8263 Y2.6046 
G01 X-1.8306 Y2.6003 
G01 X-1.8356 Y2.5970 
G01 X-1.8411 Y2.5947 
G01 X-1.8470 Y2.5935 
G01 X-1.8530 Y2.5935 
G01 X-1.8589 Y2.5947 
G01 X-1.8644 Y2.5970 
G01 X-1.8694 Y2.6003 
G01 X-1.8737 Y2.6046 
G01 X-1.8770 Y2.6096 
G01 X-1.8793 Y2.6151 
G01 X-1.8805 Y2.6210 
G01 X-1.8805 Y2.6790 
G01 X-1.8793 Y2.6849 
G01 X-1.8770 Y2.6904 
G01 X-1.8737 Y2.6954 
G01 X-1.8694 Y2.6997 
G01 X-1.8665 Y2.7017 
G01 X-1.8665 Y2.9195 
G01 X-1.8720 Y2.9232 
G01 X-1.8768 Y2.9280 
G01 X-1.8806 Y2.9337 
G01 X-1.8832 Y2.9399 
G01 X-1.8845 Y2.9466 
G01 X-1.8845 Y2.9534 
G01 X-1.8832 Y2.9601 
G01 X-1.8806 Y2.9663 
G01 X-1.8768 Y2.9720 
G01 X-1.8720 Y2.9768 
G01 X-1.8665 Y2.9805 
G01 X-1.8665 Y3.0522 
G01 X-1.8654 Y3.0564 
G01 X-1.8632 Y3.0601 
G01 X-1.8601 Y3.0632 
G01 X-1.8564 Y3.0654 
G01 X-1.8522 Y3.0665 
G01 X-1.1743 Y3.0665 
G01 X-1.1743 Y3.0707 
G01 X-1.1736 Y3.0724 
G01 X-1.1724 Y3.0736 
G01 X-1.1707 Y3.0743 
G01 X-1.1293 Y3.0743 
G01 X-1.1276 Y3.0736 
G01 X-1.1264 Y3.0724 
G01 X-1.1257 Y3.0707 
G01 X-1.1257 Y3.0293 
G01 X-1.1264 Y3.0276 
G01 X-1.1276 Y3.0264 
G01 X-1.1293 Y3.0257 
G01 X-1.1707 Y3.0257 
G01 X-1.1724 Y3.0264 
G01 X-1.1736 Y3.0276 
G01 X-1.1743 Y3.0293 
G01 X-1.1743 Y3.0335 
G01 X-1.8335 Y3.0335 
G00 Z0.1000 
G00 X-1.2305 Y2.0874 
G01 Z-0.0070 F10.00 
G01 X-1.2305 Y2.1126 F20.00 
G01 X-1.2165 Y2.1266 
G01 X-1.2165 Y2.2335 
G01 X-1.2234 Y2.2335 
G01 X-1.2374 Y2.2195 
G01 X-1.2626 Y2.2195 
G01 X-1.2805 Y2.2374 
G01 X-1.2805 Y2.2626 
G01 X-1.2626 Y2.2805 
G01 X-1.2374 Y2.2805 
G01 X-1.2234 Y2.2665 
G01 X-1.2165 Y2.2665 
G01 X-1.2165 Y2.4684 
G01 X-1.2168 Y2.4685 
G01 X-1.2226 Y2.4724 
G01 X-1.2276 Y2.4774 
G01 X-1.2315 Y2.4832 
G01 X-1.2341 Y2.4896 
G01 X-1.2355 Y2.4965 
G01 X-1.2355 Y2.5035 
G01 X-1.2341 Y2.5104 
G01 X-1.2315 Y2.5168 
G01 X-1.2276 Y2.5226 
G01 X-1.2226 Y2.5276 
G01 X-1.2168 Y2.5315 
G01 X-1.2165 Y2.5316 
G01 X-1.2165 Y2.5335 
G01 X-1.2939 Y2.5335 
G01 X-1.2968 Y2.5293 
G01 X-1.3013 Y2.5248 
G01 X-1.3066 Y2.5212 
G01 X-1.3125 Y2.5187 
G01 X-1.3188 Y2.5175 
G01 X-1.3812 Y2.5175 
G01 X-1.3875 Y2.5187 
G01 X-1.3934 Y2.5212 
G01 X-1.3987 Y2.5248 
G01 X-1.4032 Y2.5293 
G01 X-1.4061 Y2.5335 
G01 X-1.9522 Y2.5335 
G01 X-1.9564 Y2.5346 
G01 X-1.9601 Y2.5368 
G01 X-1.9632 Y2.5399 
G01 X-1.9654 Y2.5436 
G01 X-1.9665 Y2.5478 
G01 X-1.9665 Y2.8939 
G01 X-1.9707 Y2.8968 
G01 X-1.9752 Y2.9013 
G01 X-1.9788 Y2.9066 
G01 X-1.9813 Y2.9125 
G01 X-1.9825 Y2.9188 
G01 X-1.9825 Y2.9812 
G01 X-1.9813 Y2.9875 
G01 X-1.9788 Y2.9934 
G01 X-1.9752 Y2.9987 
G01 X-1.9707 Y3.0032 
G01 X-1.9654 Y3.0068 
G01 X-1.9595 Y3.0093 
G01 X-1.9532 Y3.0105 
G01 X-1.9468 Y3.0105 
G01 X-1.9405 Y3.0093 
G01 X-1.9346 Y3.0068 
G01 X-1.9293 Y3.0032 
G01 X-1.9248 Y2.9987 
G01 X-1.9212 Y2.9934 
G01 X-1.9187 Y2.9875 
G01 X-1.9175 Y2.9812 
G01 X-1.9175 Y2.9188 
G01 X-1.9187 Y2.9125 
G01 X-1.9212 Y2.9066 
G01 X-1.9248 Y2.9013 
G01 X-1.9293 Y2.8968 
G01 X-1.9335 Y2.8939 
G01 X-1.9335 Y2.5665 
G01 X-1.5625 Y2.5665 
G01 X-1.5625 Y2.5962 
G01 X-1.5644 Y2.5970 
G01 X-1.5694 Y2.6003 
G01 X-1.5737 Y2.6046 
G01 X-1.5770 Y2.6096 
G01 X-1.5793 Y2.6151 
G01 X-1.5805 Y2.6210 
G01 X-1.5805 Y2.6790 
G01 X-1.5793 Y2.6849 
G01 X-1.5770 Y2.6904 
G01 X-1.5737 Y2.6954 
G01 X-1.5694 Y2.6997 
G01 X-1.5644 Y2.7030 
G01 X-1.5589 Y2.7053 
G01 X-1.5530 Y2.7065 
G01 X-1.5470 Y2.7065 
G01 X-1.5411 Y2.7053 
G01 X-1.5356 Y2.7030 
G01 X-1.5306 Y2.6997 
G01 X-1.5263 Y2.6954 
G01 X-1.5230 Y2.6904 
G01 X-1.5207 Y2.6849 
G01 X-1.5195 Y2.6790 
G01 X-1.5195 Y2.6210 
G01 X-1.5207 Y2.6151 
G01 X-1.5230 Y2.6096 
G01 X-1.5263 Y2.6046 
G01 X-1.5306 Y2.6003 
G01 X-1.5356 Y2.5970 
G01 X-1.5375 Y2.5962 
G01 X-1.5375 Y2.5665 
G01 X-1.4061 Y2.5665 
G01 X-1.4032 Y2.5707 
G01 X-1.3987 Y2.5752 
G01 X-1.3934 Y2.5788 
G01 X-1.3875 Y2.5813 
G01 X-1.3812 Y2.5825 
G01 X-1.3188 Y2.5825 
G01 X-1.3125 Y2.5813 
G01 X-1.3066 Y2.5788 
G01 X-1.3013 Y2.5752 
G01 X-1.2968 Y2.5707 
G01 X-1.2939 Y2.5665 
G01 X-1.2165 Y2.5665 
G01 X-1.2165 Y2.7335 
G01 X-1.2177 Y2.7335 
G01 X-1.2357 Y2.7155 
G01 X-1.2643 Y2.7155 
G01 X-1.2845 Y2.7357 
G01 X-1.2845 Y2.7643 
G01 X-1.2643 Y2.7845 
G01 X-1.2357 Y2.7845 
G01 X-1.2177 Y2.7665 
G01 X-1.1978 Y2.7665 
G01 X-1.1936 Y2.7654 
G01 X-1.1899 Y2.7632 
G01 X-1.1868 Y2.7601 
G01 X-1.1846 Y2.7564 
G01 X-1.1835 Y2.7522 
G01 X-1.1835 Y2.5316 
G01 X-1.1832 Y2.5315 
G01 X-1.1774 Y2.5276 
G01 X-1.1724 Y2.5226 
G01 X-1.1685 Y2.5168 
G01 X-1.1659 Y2.5104 
G01 X-1.1645 Y2.5035 
G01 X-1.1645 Y2.4965 
G01 X-1.1659 Y2.4896 
G01 X-1.1685 Y2.4832 
G01 X-1.1724 Y2.4774 
G01 X-1.1774 Y2.4724 
G01 X-1.1832 Y2.4685 
G01 X-1.1835 Y2.4684 
G01 X-1.1835 Y2.1266 
G01 X-1.1695 Y2.1126 
G01 X-1.1695 Y2.0874 
G01 X-1.1874 Y2.0695 
G01 X-1.2126 Y2.0695 
G01 X-1.2305 Y2.0874 
G00 Z0.1000 
G00 X-1.6195 Y2.6790 
G01 Z-0.0070 F10.00 
G01 X-1.6195 Y2.6210 F20.00 
G01 X-1.6207 Y2.6151 
G01 X-1.6230 Y2.6096 
G01 X-1.6263 Y2.6046 
G01 X-1.6306 Y2.6003 
G01 X-1.6356 Y2.5970 
G01 X-1.6411 Y2.5947 
G01 X-1.6470 Y2.5935 
G01 X-1.6530 Y2.5935 
G01 X-1.6589 Y2.5947 
G01 X-1.6644 Y2.5970 
G01 X-1.6694 Y2.6003 
G01 X-1.6737 Y2.6046 
G01 X-1.6770 Y2.6096 
G01 X-1.6793 Y2.6151 
G01 X-1.6805 Y2.6210 
G01 X-1.6805 Y2.6790 
G01 X-1.6793 Y2.6849 
G01 X-1.6770 Y2.6904 
G01 X-1.6737 Y2.6954 
G01 X-1.6694 Y2.6997 
G01 X-1.6644 Y2.7030 
G01 X-1.6625 Y2.7038 
G01 X-1.6625 Y2.7257 
G01 X-1.6707 Y2.7257 
G01 X-1.6724 Y2.7264 
G01 X-1.6736 Y2.7276 
G01 X-1.6743 Y2.7293 
G01 X-1.6743 Y2.7707 
G01 X-1.6736 Y2.7724 
G01 X-1.6724 Y2.7736 
G01 X-1.6707 Y2.7743 
G01 X-1.6293 Y2.7743 
G01 X-1.6276 Y2.7736 
G01 X-1.6264 Y2.7724 
G01 X-1.6257 Y2.7707 
G01 X-1.6257 Y2.7293 
G01 X-1.6264 Y2.7276 
G01 X-1.6276 Y2.7264 
G01 X-1.6293 Y2.7257 
G01 X-1.6375 Y2.7257 
G01 X-1.6375 Y2.7038 
G01 X-1.6356 Y2.7030 
G01 X-1.6306 Y2.6997 
G01 X-1.6263 Y2.6954 
G01 X-1.6230 Y2.6904 
G01 X-1.6207 Y2.6849 
G01 X-1.6195 Y2.6790 
G00 Z0.1000 
G00 X-1.5809 Y2.9845 
G01 Z-0.0070 F10.00 
G01 X-1.5191 Y2.9845 F20.00 
G01 X-1.5175 Y2.9838 
G01 X-1.5162 Y2.9825 
G01 X-1.5155 Y2.9809 
G01 X-1.5155 Y2.9665 
G01 X-1.4743 Y2.9665 
G01 X-1.4743 Y2.9707 
G01 X-1.4736 Y2.9724 
G01 X-1.4724 Y2.9736 
G01 X-1.4707 Y2.9743 
G01 X-1.4293 Y2.9743 
G01 X-1.4276 Y2.9736 
G01 X-1.4264 Y2.9724 
G01 X-1.4257 Y2.9707 
G01 X-1.4257 Y2.9665 
G01 X-1.3823 Y2.9665 
G01 X-1.3643 Y2.9845 
G01 X-1.3357 Y2.9845 
G01 X-1.3155 Y2.9643 
G01 X-1.3155 Y2.9357 
G01 X-1.3357 Y2.9155 
G01 X-1.3643 Y2.9155 
G01 X-1.3823 Y2.9335 
G01 X-1.4257 Y2.9335 
G01 X-1.4257 Y2.9293 
G01 X-1.4264 Y2.9276 
G01 X-1.4276 Y2.9264 
G01 X-1.4293 Y2.9257 
G01 X-1.4707 Y2.9257 
G01 X-1.4724 Y2.9264 
G01 X-1.4736 Y2.9276 
G01 X-1.4743 Y2.9293 
G01 X-1.4743 Y2.9335 
G01 X-1.5155 Y2.9335 
G01 X-1.5155 Y2.9191 
G01 X-1.5162 Y2.9175 
G01 X-1.5175 Y2.9162 
G01 X-1.5191 Y2.9155 
G01 X-1.5809 Y2.9155 
G01 X-1.5825 Y2.9162 
G01 X-1.5838 Y2.9175 
G01 X-1.5845 Y2.9191 
G01 X-1.5845 Y2.9809 
G01 X-1.5838 Y2.9825 
G01 X-1.5825 Y2.9838 
G01 X-1.5809 Y2.9845 
G00 Z0.1000 
G00 X-1.6845 Y2.9466 
G01 Z-0.0070 F10.00 
G01 X-1.6845 Y2.9534 F20.00 
G01 X-1.6832 Y2.9601 
G01 X-1.6806 Y2.9663 
G01 X-1.6768 Y2.9720 
G01 X-1.6720 Y2.9768 
G01 X-1.6663 Y2.9806 
G01 X-1.6601 Y2.9832 
G01 X-1.6534 Y2.9845 
G01 X-1.6466 Y2.9845 
G01 X-1.6399 Y2.9832 
G01 X-1.6337 Y2.9806 
G01 X-1.6280 Y2.9768 
G01 X-1.6232 Y2.9720 
G01 X-1.6194 Y2.9663 
G01 X-1.6168 Y2.9601 
G01 X-1.6155 Y2.9534 
G01 X-1.6155 Y2.9466 
G01 X-1.6168 Y2.9399 
G01 X-1.6194 Y2.9337 
G01 X-1.6232 Y2.9280 
G01 X-1.6280 Y2.9232 
G01 X-1.6335 Y2.9195 
G01 X-1.6335 Y2.8743 
G01 X-1.6293 Y2.8743 
G01 X-1.6276 Y2.8736 
G01 X-1.6264 Y2.8724 
G01 X-1.6257 Y2.8707 
G01 X-1.6257 Y2.8665 
G01 X-1.3823 Y2.8665 
G01 X-1.3643 Y2.8845 
G01 X-1.3357 Y2.8845 
G01 X-1.3155 Y2.8643 
G01 X-1.3155 Y2.8357 
G01 X-1.3357 Y2.8155 
G01 X-1.3643 Y2.8155 
G01 X-1.3823 Y2.8335 
G01 X-1.6257 Y2.8335 
G01 X-1.6257 Y2.8293 
G01 X-1.6264 Y2.8276 
G01 X-1.6276 Y2.8264 
G01 X-1.6293 Y2.8257 
G01 X-1.6707 Y2.8257 
G01 X-1.6724 Y2.8264 
G01 X-1.6736 Y2.8276 
G01 X-1.6743 Y2.8293 
G01 X-1.6743 Y2.8707 
G01 X-1.6736 Y2.8724 
G01 X-1.6724 Y2.8736 
G01 X-1.6707 Y2.8743 
G01 X-1.6665 Y2.8743 
G01 X-1.6665 Y2.9195 
G01 X-1.6720 Y2.9232 
G01 X-1.6768 Y2.9280 
G01 X-1.6806 Y2.9337 
G01 X-1.6832 Y2.9399 
G01 X-1.6845 Y2.9466 
G00 Z0.1000 
G00 X-1.7845 Y2.9466 
G01 Z-0.0070 F10.00 
G01 X-1.7845 Y2.9534 F20.00 
G01 X-1.7832 Y2.9601 
G01 X-1.7806 Y2.9663 
G01 X-1.7768 Y2.9720 
G01 X-1.7720 Y2.9768 
G01 X-1.7663 Y2.9806 
G01 X-1.7601 Y2.9832 
G01 X-1.7534 Y2.9845 
G01 X-1.7466 Y2.9845 
G01 X-1.7399 Y2.9832 
G01 X-1.7337 Y2.9806 
G01 X-1.7280 Y2.9768 
G01 X-1.7232 Y2.9720 
G01 X-1.7194 Y2.9663 
G01 X-1.7168 Y2.9601 
G01 X-1.7155 Y2.9534 
G01 X-1.7155 Y2.9466 
G01 X-1.7168 Y2.9399 
G01 X-1.7194 Y2.9337 
G01 X-1.7232 Y2.9280 
G01 X-1.7280 Y2.9232 
G01 X-1.7335 Y2.9195 
G01 X-1.7335 Y2.8165 
G01 X-1.4478 Y2.8165 
G01 X-1.4436 Y2.8154 
G01 X-1.4399 Y2.8132 
G01 X-1.4368 Y2.8101 
G01 X-1.3932 Y2.7665 
G01 X-1.3805 Y2.7665 
G01 X-1.3768 Y2.7720 
G01 X-1.3720 Y2.7768 
G01 X-1.3663 Y2.7806 
G01 X-1.3601 Y2.7832 
G01 X-1.3534 Y2.7845 
G01 X-1.3466 Y2.7845 
G01 X-1.3399 Y2.7832 
G01 X-1.3337 Y2.7806 
G01 X-1.3280 Y2.7768 
G01 X-1.3232 Y2.7720 
G01 X-1.3194 Y2.7663 
G01 X-1.3168 Y2.7601 
G01 X-1.3155 Y2.7534 
G01 X-1.3155 Y2.7466 
G01 X-1.3168 Y2.7399 
G01 X-1.3194 Y2.7337 
G01 X-1.3232 Y2.7280 
G01 X-1.3280 Y2.7232 
G01 X-1.3337 Y2.7194 
G01 X-1.3399 Y2.7168 
G01 X-1.3466 Y2.7155 
G01 X-1.3534 Y2.7155 
G01 X-1.3601 Y2.7168 
G01 X-1.3663 Y2.7194 
G01 X-1.3720 Y2.7232 
G01 X-1.3768 Y2.7280 
G01 X-1.3805 Y2.7335 
G01 X-1.4022 Y2.7335 
G01 X-1.4064 Y2.7346 
G01 X-1.4101 Y2.7368 
G01 X-1.4568 Y2.7835 
G01 X-1.7335 Y2.7835 
G01 X-1.7335 Y2.7017 
G01 X-1.7306 Y2.6997 
G01 X-1.7263 Y2.6954 
G01 X-1.7230 Y2.6904 
G01 X-1.7207 Y2.6849 
G01 X-1.7195 Y2.6790 
G01 X-1.7195 Y2.6210 
G01 X-1.7207 Y2.6151 
G01 X-1.7230 Y2.6096 
G01 X-1.7263 Y2.6046 
G01 X-1.7306 Y2.6003 
G01 X-1.7356 Y2.5970 
G01 X-1.7411 Y2.5947 
G01 X-1.7470 Y2.5935 
G01 X-1.7530 Y2.5935 
G01 X-1.7589 Y2.5947 
G01 X-1.7644 Y2.5970 
G01 X-1.7694 Y2.6003 
G01 X-1.7737 Y2.6046 
G01 X-1.7770 Y2.6096 
G01 X-1.7793 Y2.6151 
G01 X-1.7805 Y2.6210 
G01 X-1.7805 Y2.6790 
G01 X-1.7793 Y2.6849 
G01 X-1.7770 Y2.6904 
G01 X-1.7737 Y2.6954 
G01 X-1.7694 Y2.6997 
G01 X-1.7665 Y2.7017 
G01 X-1.7665 Y2.9195 
G01 X-1.7720 Y2.9232 
G01 X-1.7768 Y2.9280 
G01 X-1.7806 Y2.9337 
G01 X-1.7832 Y2.9399 
G01 X-1.7845 Y2.9466 
G00 Z0.1000 
G00 X-1.2845 Y2.8357 
G01 Z-0.0070 F10.00 
G01 X-1.2845 Y2.8643 F20.00 
G01 X-1.2643 Y2.8845 
G01 X-1.2357 Y2.8845 
G01 X-1.2177 Y2.8665 
G01 X-1.1743 Y2.8665 
G01 X-1.1743 Y2.8707 
G01 X-1.1736 Y2.8724 
G01 X-1.1724 Y2.8736 
G01 X-1.1707 Y2.8743 
G01 X-1.1293 Y2.8743 
G01 X-1.1276 Y2.8736 
G01 X-1.1264 Y2.8724 
G01 X-1.1257 Y2.8707 
G01 X-1.1257 Y2.8293 
G01 X-1.1264 Y2.8276 
G01 X-1.1276 Y2.8264 
G01 X-1.1293 Y2.8257 
G01 X-1.1707 Y2.8257 
G01 X-1.1724 Y2.8264 
G01 X-1.1736 Y2.8276 
G01 X-1.1743 Y2.8293 
G01 X-1.1743 Y2.8335 
G01 X-1.2177 Y2.8335 
G01 X-1.2357 Y2.8155 
G01 X-1.2643 Y2.8155 
G01 X-1.2845 Y2.8357 
G00 Z0.1000 
G00 X-1.6805 Y1.9970 
G01 Z-0.0070 F10.00 
G01 X-1.6805 Y2.0030 F20.00 
G01 X-1.6793 Y2.0089 
G01 X-1.6770 Y2.0144 
G01 X-1.6737 Y2.0194 
G01 X-1.6694 Y2.0237 
G01 X-1.6665 Y2.0257 
G01 X-1.6665 Y2.1656 
G01 X-1.6860 Y2.1851 
G01 X-1.6860 Y2.2149 
G01 X-1.6665 Y2.2344 
G01 X-1.6665 Y2.2983 
G01 X-1.6694 Y2.3003 
G01 X-1.6737 Y2.3046 
G01 X-1.6770 Y2.3096 
G01 X-1.6793 Y2.3151 
G01 X-1.6805 Y2.3210 
G01 X-1.6805 Y2.3790 
G01 X-1.6793 Y2.3849 
G01 X-1.6770 Y2.3904 
G01 X-1.6737 Y2.3954 
G01 X-1.6694 Y2.3997 
G01 X-1.6644 Y2.4030 
G01 X-1.6589 Y2.4053 
G01 X-1.6530 Y2.4065 
G01 X-1.6470 Y2.4065 
G01 X-1.6411 Y2.4053 
G01 X-1.6356 Y2.4030 
G01 X-1.6306 Y2.3997 
G01 X-1.6263 Y2.3954 
G01 X-1.6230 Y2.3904 
G01 X-1.6207 Y2.3849 
G01 X-1.6195 Y2.3790 
G01 X-1.6195 Y2.3210 
G01 X-1.6207 Y2.3151 
G01 X-1.6230 Y2.3096 
G01 X-1.6263 Y2.3046 
G01 X-1.6306 Y2.3003 
G01 X-1.6335 Y2.2983 
G01 X-1.6335 Y2.2344 
G01 X-1.6140 Y2.2149 
G01 X-1.6140 Y2.1851 
G01 X-1.6335 Y2.1656 
G01 X-1.6335 Y2.0257 
G01 X-1.6306 Y2.0237 
G01 X-1.6263 Y2.0194 
G01 X-1.6230 Y2.0144 
G01 X-1.6207 Y2.0089 
G01 X-1.6195 Y2.0030 
G01 X-1.6195 Y1.9970 
G01 X-1.6207 Y1.9911 
G01 X-1.6230 Y1.9856 
G01 X-1.6263 Y1.9806 
G01 X-1.6306 Y1.9763 
G01 X-1.6356 Y1.9730 
G01 X-1.6411 Y1.9707 
G01 X-1.6470 Y1.9695 
G01 X-1.6530 Y1.9695 
G01 X-1.6589 Y1.9707 
G01 X-1.6644 Y1.9730 
G01 X-1.6694 Y1.9763 
G01 X-1.6737 Y1.9806 
G01 X-1.6770 Y1.9856 
G01 X-1.6793 Y1.9911 
G01 X-1.6805 Y1.9970 
G00 Z0.1000 
G00 X-1.3812 Y2.4825 
G01 Z-0.0070 F10.00 
G01 X-1.3188 Y2.4825 F20.00 
G01 X-1.3125 Y2.4813 
G01 X-1.3066 Y2.4788 
G01 X-1.3013 Y2.4752 
G01 X-1.2968 Y2.4707 
G01 X-1.2932 Y2.4654 
G01 X-1.2907 Y2.4595 
G01 X-1.2895 Y2.4532 
G01 X-1.2895 Y2.4468 
G01 X-1.2907 Y2.4405 
G01 X-1.2932 Y2.4346 
G01 X-1.2968 Y2.4293 
G01 X-1.3013 Y2.4248 
G01 X-1.3066 Y2.4212 
G01 X-1.3125 Y2.4187 
G01 X-1.3188 Y2.4175 
G01 X-1.3335 Y2.4175 
G01 X-1.3335 Y1.8665 
G01 X-1.2165 Y1.8665 
G01 X-1.2165 Y1.9734 
G01 X-1.2305 Y1.9874 
G01 X-1.2305 Y2.0126 
G01 X-1.2126 Y2.0305 
G01 X-1.1874 Y2.0305 
G01 X-1.1695 Y2.0126 
G01 X-1.1695 Y1.9874 
G01 X-1.1835 Y1.9734 
G01 X-1.1835 Y1.8665 
G01 X-1.1165 Y1.8665 
G01 X-1.1165 Y2.4663 
G01 X-1.1355 Y2.4853 
G01 X-1.1355 Y2.5147 
G01 X-1.1165 Y2.5337 
G01 X-1.1165 Y2.9335 
G01 X-1.2177 Y2.9335 
G01 X-1.2357 Y2.9155 
G01 X-1.2643 Y2.9155 
G01 X-1.2845 Y2.9357 
G01 X-1.2845 Y2.9643 
G01 X-1.2643 Y2.9845 
G01 X-1.2357 Y2.9845 
G01 X-1.2177 Y2.9665 
G01 X-1.0978 Y2.9665 
G01 X-1.0936 Y2.9654 
G01 X-1.0899 Y2.9632 
G01 X-1.0868 Y2.9601 
G01 X-1.0846 Y2.9564 
G01 X-1.0835 Y2.9522 
G01 X-1.0835 Y2.5337 
G01 X-1.0645 Y2.5147 
G01 X-1.0645 Y2.4853 
G01 X-1.0835 Y2.4663 
G01 X-1.0835 Y1.8478 
G01 X-1.0846 Y1.8436 
G01 X-1.0868 Y1.8399 
G01 X-1.0899 Y1.8368 
G01 X-1.0936 Y1.8346 
G01 X-1.0978 Y1.8335 
G01 X-2.0522 Y1.8335 
G01 X-2.0564 Y1.8346 
G01 X-2.0601 Y1.8368 
G01 X-2.0632 Y1.8399 
G01 X-2.0654 Y1.8436 
G01 X-2.0665 Y1.8478 
G01 X-2.0665 Y2.8939 
G01 X-2.0707 Y2.8968 
G01 X-2.0752 Y2.9013 
G01 X-2.0788 Y2.9066 
G01 X-2.0813 Y2.9125 
G01 X-2.0825 Y2.9188 
G01 X-2.0825 Y2.9812 
G01 X-2.0813 Y2.9875 
G01 X-2.0788 Y2.9934 
G01 X-2.0752 Y2.9987 
G01 X-2.0707 Y3.0032 
G01 X-2.0654 Y3.0068 
G01 X-2.0595 Y3.0093 
G01 X-2.0532 Y3.0105 
G01 X-2.0468 Y3.0105 
G01 X-2.0405 Y3.0093 
G01 X-2.0346 Y3.0068 
G01 X-2.0293 Y3.0032 
G01 X-2.0248 Y2.9987 
G01 X-2.0212 Y2.9934 
G01 X-2.0187 Y2.9875 
G01 X-2.0175 Y2.9812 
G01 X-2.0175 Y2.9188 
G01 X-2.0187 Y2.9125 
G01 X-2.0212 Y2.9066 
G01 X-2.0248 Y2.9013 
G01 X-2.0293 Y2.8968 
G01 X-2.0335 Y2.8939 
G01 X-2.0335 Y2.4174 
G01 X-2.0149 Y2.4360 
G01 X-1.9851 Y2.4360 
G01 X-1.9656 Y2.4165 
G01 X-1.8478 Y2.4165 
G01 X-1.8436 Y2.4154 
G01 X-1.8399 Y2.4132 
G01 X-1.8368 Y2.4101 
G01 X-1.8346 Y2.4064 
G01 X-1.8335 Y2.4022 
G01 X-1.8335 Y2.4017 
G01 X-1.8306 Y2.3997 
G01 X-1.8263 Y2.3954 
G01 X-1.8230 Y2.3904 
G01 X-1.8207 Y2.3849 
G01 X-1.8195 Y2.3790 
G01 X-1.8195 Y2.3210 
G01 X-1.8207 Y2.3151 
G01 X-1.8230 Y2.3096 
G01 X-1.8263 Y2.3046 
G01 X-1.8306 Y2.3003 
G01 X-1.8335 Y2.2983 
G01 X-1.8335 Y2.2344 
G01 X-1.8140 Y2.2149 
G01 X-1.8140 Y2.1851 
G01 X-1.8351 Y2.1640 
G01 X-1.8649 Y2.1640 
G01 X-1.8860 Y2.1851 
G01 X-1.8860 Y2.2149 
G01 X-1.8665 Y2.2344 
G01 X-1.8665 Y2.2983 
G01 X-1.8694 Y2.3003 
G01 X-1.8737 Y2.3046 
G01 X-1.8770 Y2.3096 
G01 X-1.8793 Y2.3151 
G01 X-1.8805 Y2.3210 
G01 X-1.8805 Y2.3790 
G01 X-1.8796 Y2.3835 
G01 X-1.9656 Y2.3835 
G01 X-1.9851 Y2.3640 
G01 X-2.0149 Y2.3640 
G01 X-2.0335 Y2.3826 
G01 X-2.0335 Y2.2174 
G01 X-2.0149 Y2.2360 
G01 X-1.9851 Y2.2360 
G01 X-1.9640 Y2.2149 
G01 X-1.9640 Y2.1851 
G01 X-1.9835 Y2.1656 
G01 X-1.9835 Y2.0165 
G01 X-1.8757 Y2.0165 
G01 X-1.8737 Y2.0194 
G01 X-1.8694 Y2.0237 
G01 X-1.8644 Y2.0270 
G01 X-1.8589 Y2.0293 
G01 X-1.8530 Y2.0305 
G01 X-1.8470 Y2.0305 
G01 X-1.8411 Y2.0293 
G01 X-1.8356 Y2.0270 
G01 X-1.8306 Y2.0237 
G01 X-1.8263 Y2.0194 
G01 X-1.8243 Y2.0165 
G01 X-1.7665 Y2.0165 
G01 X-1.7665 Y2.2983 
G01 X-1.7694 Y2.3003 
G01 X-1.7737 Y2.3046 
G01 X-1.7770 Y2.3096 
G01 X-1.7793 Y2.3151 
G01 X-1.7805 Y2.3210 
G01 X-1.7805 Y2.3790 
G01 X-1.7793 Y2.3849 
G01 X-1.7770 Y2.3904 
G01 X-1.7737 Y2.3954 
G01 X-1.7694 Y2.3997 
G01 X-1.7644 Y2.4030 
G01 X-1.7589 Y2.4053 
G01 X-1.7530 Y2.4065 
G01 X-1.7470 Y2.4065 
G01 X-1.7411 Y2.4053 
G01 X-1.7356 Y2.4030 
G01 X-1.7306 Y2.3997 
G01 X-1.7263 Y2.3954 
G01 X-1.7230 Y2.3904 
G01 X-1.7207 Y2.3849 
G01 X-1.7195 Y2.3790 
G01 X-1.7195 Y2.3210 
G01 X-1.7207 Y2.3151 
G01 X-1.7230 Y2.3096 
G01 X-1.7263 Y2.3046 
G01 X-1.7306 Y2.3003 
G01 X-1.7335 Y2.2983 
G01 X-1.7335 Y1.9978 
G01 X-1.7346 Y1.9936 
G01 X-1.7368 Y1.9899 
G01 X-1.7399 Y1.9868 
G01 X-1.7436 Y1.9846 
G01 X-1.7478 Y1.9835 
G01 X-1.8243 Y1.9835 
G01 X-1.8263 Y1.9806 
G01 X-1.8306 Y1.9763 
G01 X-1.8356 Y1.9730 
G01 X-1.8411 Y1.9707 
G01 X-1.8470 Y1.9695 
G01 X-1.8530 Y1.9695 
G01 X-1.8589 Y1.9707 
G01 X-1.8644 Y1.9730 
G01 X-1.8694 Y1.9763 
G01 X-1.8737 Y1.9806 
G01 X-1.8757 Y1.9835 
G01 X-2.0022 Y1.9835 
G01 X-2.0064 Y1.9846 
G01 X-2.0101 Y1.9868 
G01 X-2.0132 Y1.9899 
G01 X-2.0154 Y1.9936 
G01 X-2.0165 Y1.9978 
G01 X-2.0165 Y2.1656 
G01 X-2.0335 Y2.1826 
G01 X-2.0335 Y1.8665 
G01 X-1.3665 Y1.8665 
G01 X-1.3665 Y2.4175 
G01 X-1.3812 Y2.4175 
G01 X-1.3875 Y2.4187 
G01 X-1.3934 Y2.4212 
G01 X-1.3987 Y2.4248 
G01 X-1.4032 Y2.4293 
G01 X-1.4068 Y2.4346 
G01 X-1.4093 Y2.4405 
G01 X-1.4105 Y2.4468 
G01 X-1.4105 Y2.4532 
G01 X-1.4093 Y2.4595 
G01 X-1.4068 Y2.4654 
G01 X-1.4032 Y2.4707 
G01 X-1.3987 Y2.4752 
G01 X-1.3934 Y2.4788 
G01 X-1.3875 Y2.4813 
G01 X-1.3812 Y2.4825 
G00 Z0.1000 
G00 X-1.4285 Y2.3472 
G01 Z-0.0070 F10.00 
G01 X-1.4300 Y2.3417 F20.00 
G01 X-1.4328 Y2.3368 
G01 X-1.4368 Y2.3328 
G01 X-1.4417 Y2.3300 
G01 X-1.4472 Y2.3285 
G01 X-1.5145 Y2.3285 
G01 X-1.5145 Y2.3205 
G01 X-1.5159 Y2.3136 
G01 X-1.5185 Y2.3072 
G01 X-1.5224 Y2.3014 
G01 X-1.5274 Y2.2964 
G01 X-1.5285 Y2.2957 
G01 X-1.5285 Y2.2787 
G01 X-1.5145 Y2.2647 
G01 X-1.5145 Y2.2353 
G01 X-1.5353 Y2.2145 
G01 X-1.5647 Y2.2145 
G01 X-1.5855 Y2.2353 
G01 X-1.5855 Y2.2647 
G01 X-1.5715 Y2.2787 
G01 X-1.5715 Y2.2957 
G01 X-1.5726 Y2.2964 
G01 X-1.5776 Y2.3014 
G01 X-1.5815 Y2.3072 
G01 X-1.5841 Y2.3136 
G01 X-1.5855 Y2.3205 
G01 X-1.5855 Y2.3795 
G01 X-1.5841 Y2.3864 
G01 X-1.5815 Y2.3928 
G01 X-1.5776 Y2.3986 
G01 X-1.5726 Y2.4036 
G01 X-1.5668 Y2.4075 
G01 X-1.5604 Y2.4101 
G01 X-1.5535 Y2.4115 
G01 X-1.5465 Y2.4115 
G01 X-1.5396 Y2.4101 
G01 X-1.5332 Y2.4075 
G01 X-1.5274 Y2.4036 
G01 X-1.5224 Y2.3986 
G01 X-1.5185 Y2.3928 
G01 X-1.5159 Y2.3864 
G01 X-1.5145 Y2.3795 
G01 X-1.5145 Y2.3715 
G01 X-1.4715 Y2.3715 
G01 X-1.4715 Y2.4207 
G01 X-1.4717 Y2.4207 
G01 X-1.4752 Y2.4221 
G01 X-1.4779 Y2.4248 
G01 X-1.4793 Y2.4283 
G01 X-1.4793 Y2.4717 
G01 X-1.4779 Y2.4752 
G01 X-1.4752 Y2.4779 
G01 X-1.4717 Y2.4793 
G01 X-1.4283 Y2.4793 
G01 X-1.4248 Y2.4779 
G01 X-1.4221 Y2.4752 
G01 X-1.4207 Y2.4717 
G01 X-1.4207 Y2.4283 
G01 X-1.4221 Y2.4248 
G01 X-1.4248 Y2.4221 
G01 X-1.4283 Y2.4207 
G01 X-1.4285 Y2.4207 
G01 X-1.4285 Y2.3472 
G00 Z0.1000 
G00 X-1.6855 Y1.9965 
G01 Z-0.0070 F10.00 
G01 X-1.6855 Y2.0035 F20.00 
G01 X-1.6841 Y2.0104 
G01 X-1.6815 Y2.0168 
G01 X-1.6776 Y2.0226 
G01 X-1.6726 Y2.0276 
G01 X-1.6715 Y2.0283 
G01 X-1.6715 Y2.1635 
G01 X-1.6910 Y2.1830 
G01 X-1.6910 Y2.2170 
G01 X-1.6715 Y2.2365 
G01 X-1.6715 Y2.2957 
G01 X-1.6726 Y2.2964 
G01 X-1.6776 Y2.3014 
G01 X-1.6815 Y2.3072 
G01 X-1.6841 Y2.3136 
G01 X-1.6855 Y2.3205 
G01 X-1.6855 Y2.3795 
G01 X-1.6841 Y2.3864 
G01 X-1.6815 Y2.3928 
G01 X-1.6776 Y2.3986 
G01 X-1.6726 Y2.4036 
G01 X-1.6668 Y2.4075 
G01 X-1.6604 Y2.4101 
G01 X-1.6535 Y2.4115 
G01 X-1.6465 Y2.4115 
G01 X-1.6396 Y2.4101 
G01 X-1.6332 Y2.4075 
G01 X-1.6274 Y2.4036 
G01 X-1.6224 Y2.3986 
G01 X-1.6185 Y2.3928 
G01 X-1.6159 Y2.3864 
G01 X-1.6145 Y2.3795 
G01 X-1.6145 Y2.3205 
G01 X-1.6159 Y2.3136 
G01 X-1.6185 Y2.3072 
G01 X-1.6224 Y2.3014 
G01 X-1.6274 Y2.2964 
G01 X-1.6285 Y2.2957 
G01 X-1.6285 Y2.2365 
G01 X-1.6090 Y2.2170 
G01 X-1.6090 Y2.1830 
G01 X-1.6285 Y2.1635 
G01 X-1.6285 Y2.0283 
G01 X-1.6274 Y2.0276 
G01 X-1.6224 Y2.0226 
G01 X-1.6185 Y2.0168 
G01 X-1.6159 Y2.0104 
G01 X-1.6145 Y2.0035 
G01 X-1.6145 Y1.9965 
G01 X-1.6159 Y1.9896 
G01 X-1.6185 Y1.9832 
G01 X-1.6224 Y1.9774 
G01 X-1.6274 Y1.9724 
G01 X-1.6332 Y1.9685 
G01 X-1.6396 Y1.9659 
G01 X-1.6465 Y1.9645 
G01 X-1.6535 Y1.9645 
G01 X-1.6604 Y1.9659 
G01 X-1.6668 Y1.9685 
G01 X-1.6726 Y1.9724 
G01 X-1.6776 Y1.9774 
G01 X-1.6815 Y1.9832 
G01 X-1.6841 Y1.9896 
G01 X-1.6855 Y1.9965 
G00 Z0.1000 
G00 X-1.2895 Y2.8336 
G01 Z-0.0070 F10.00 
G01 X-1.2895 Y2.8664 F20.00 
G01 X-1.2664 Y2.8895 
G01 X-1.2336 Y2.8895 
G01 X-1.2156 Y2.8715 
G01 X-1.1793 Y2.8715 
G01 X-1.1793 Y2.8717 
G01 X-1.1779 Y2.8752 
G01 X-1.1752 Y2.8779 
G01 X-1.1717 Y2.8793 
G01 X-1.1283 Y2.8793 
G01 X-1.1248 Y2.8779 
G01 X-1.1221 Y2.8752 
G01 X-1.1215 Y2.8737 
G01 X-1.1215 Y2.9285 
G01 X-1.2156 Y2.9285 
G01 X-1.2336 Y2.9105 
G01 X-1.2664 Y2.9105 
G01 X-1.2895 Y2.9336 
G01 X-1.2895 Y2.9664 
G01 X-1.2664 Y2.9895 
G01 X-1.2336 Y2.9895 
G01 X-1.2156 Y2.9715 
G01 X-1.0972 Y2.9715 
G01 X-1.0917 Y2.9700 
G01 X-1.0868 Y2.9672 
G01 X-1.0828 Y2.9632 
G01 X-1.0800 Y2.9583 
G01 X-1.0785 Y2.9528 
G01 X-1.0785 Y2.5358 
G01 X-1.0595 Y2.5168 
G01 X-1.0595 Y2.4832 
G01 X-1.0785 Y2.4642 
G01 X-1.0785 Y1.8472 
G01 X-1.0800 Y1.8417 
G01 X-1.0828 Y1.8368 
G01 X-1.0868 Y1.8328 
G01 X-1.0917 Y1.8300 
G01 X-1.0972 Y1.8285 
G01 X-2.0528 Y1.8285 
G01 X-2.0583 Y1.8300 
G01 X-2.0632 Y1.8328 
G01 X-2.0672 Y1.8368 
G01 X-2.0700 Y1.8417 
G01 X-2.0715 Y1.8472 
G01 X-2.0715 Y2.8913 
G01 X-2.0739 Y2.8929 
G01 X-2.0791 Y2.8981 
G01 X-2.0832 Y2.9042 
G01 X-2.0861 Y2.9111 
G01 X-2.0875 Y2.9183 
G01 X-2.0875 Y2.9817 
G01 X-2.0861 Y2.9889 
G01 X-2.0832 Y2.9958 
G01 X-2.0791 Y3.0019 
G01 X-2.0739 Y3.0071 
G01 X-2.0678 Y3.0112 
G01 X-2.0609 Y3.0141 
G01 X-2.0537 Y3.0155 
G01 X-2.0463 Y3.0155 
G01 X-2.0391 Y3.0141 
G01 X-2.0322 Y3.0112 
G01 X-2.0261 Y3.0071 
G01 X-2.0209 Y3.0019 
G01 X-2.0168 Y2.9958 
G01 X-2.0139 Y2.9889 
G01 X-2.0125 Y2.9817 
G01 X-2.0125 Y2.9183 
G01 X-2.0139 Y2.9111 
G01 X-2.0168 Y2.9042 
G01 X-2.0209 Y2.8981 
G01 X-2.0261 Y2.8929 
G01 X-2.0285 Y2.8913 
G01 X-2.0285 Y2.4295 
G01 X-2.0170 Y2.4410 
G01 X-1.9830 Y2.4410 
G01 X-1.9635 Y2.4215 
G01 X-1.8472 Y2.4215 
G01 X-1.8417 Y2.4200 
G01 X-1.8368 Y2.4172 
G01 X-1.8328 Y2.4132 
G01 X-1.8300 Y2.4083 
G01 X-1.8290 Y2.4047 
G01 X-1.8274 Y2.4036 
G01 X-1.8224 Y2.3986 
G01 X-1.8185 Y2.3928 
G01 X-1.8159 Y2.3864 
G01 X-1.8145 Y2.3795 
G01 X-1.8145 Y2.3205 
G01 X-1.8159 Y2.3136 
G01 X-1.8185 Y2.3072 
G01 X-1.8224 Y2.3014 
G01 X-1.8274 Y2.2964 
G01 X-1.8285 Y2.2957 
G01 X-1.8285 Y2.2365 
G01 X-1.8090 Y2.2170 
G01 X-1.8090 Y2.1830 
G01 X-1.8330 Y2.1590 
G01 X-1.8670 Y2.1590 
G01 X-1.8910 Y2.1830 
G01 X-1.8910 Y2.2170 
G01 X-1.8715 Y2.2365 
G01 X-1.8715 Y2.2957 
G01 X-1.8726 Y2.2964 
G01 X-1.8776 Y2.3014 
G01 X-1.8815 Y2.3072 
G01 X-1.8841 Y2.3136 
G01 X-1.8855 Y2.3205 
G01 X-1.8855 Y2.3785 
G01 X-1.9635 Y2.3785 
G01 X-1.9830 Y2.3590 
G01 X-2.0170 Y2.3590 
G01 X-2.0285 Y2.3705 
G01 X-2.0285 Y2.2295 
G01 X-2.0170 Y2.2410 
G01 X-1.9830 Y2.2410 
G01 X-1.9590 Y2.2170 
G01 X-1.9590 Y2.1830 
G01 X-1.9785 Y2.1635 
G01 X-1.9785 Y2.0215 
G01 X-1.8783 Y2.0215 
G01 X-1.8776 Y2.0226 
G01 X-1.8726 Y2.0276 
G01 X-1.8668 Y2.0315 
G01 X-1.8604 Y2.0341 
G01 X-1.8535 Y2.0355 
G01 X-1.8465 Y2.0355 
G01 X-1.8396 Y2.0341 
G01 X-1.8332 Y2.0315 
G01 X-1.8274 Y2.0276 
G01 X-1.8224 Y2.0226 
G01 X-1.8217 Y2.0215 
G01 X-1.7715 Y2.0215 
G01 X-1.7715 Y2.2957 
G01 X-1.7726 Y2.2964 
G01 X-1.7776 Y2.3014 
G01 X-1.7815 Y2.3072 
G01 X-1.7841 Y2.3136 
G01 X-1.7855 Y2.3205 
G01 X-1.7855 Y2.3795 
G01 X-1.7841 Y2.3864 
G01 X-1.7815 Y2.3928 
G01 X-1.7776 Y2.3986 
G01 X-1.7726 Y2.4036 
G01 X-1.7668 Y2.4075 
G01 X-1.7604 Y2.4101 
G01 X-1.7535 Y2.4115 
G01 X-1.7465 Y2.4115 
G01 X-1.7396 Y2.4101 
G01 X-1.7332 Y2.4075 
G01 X-1.7274 Y2.4036 
G01 X-1.7224 Y2.3986 
G01 X-1.7185 Y2.3928 
G01 X-1.7159 Y2.3864 
G01 X-1.7145 Y2.3795 
G01 X-1.7145 Y2.3205 
G01 X-1.7159 Y2.3136 
G01 X-1.7185 Y2.3072 
G01 X-1.7224 Y2.3014 
G01 X-1.7274 Y2.2964 
G01 X-1.7285 Y2.2957 
G01 X-1.7285 Y1.9972 
G01 X-1.7300 Y1.9917 
G01 X-1.7328 Y1.9868 
G01 X-1.7368 Y1.9828 
G01 X-1.7417 Y1.9800 
G01 X-1.7472 Y1.9785 
G01 X-1.8217 Y1.9785 
G01 X-1.8224 Y1.9774 
G01 X-1.8274 Y1.9724 
G01 X-1.8332 Y1.9685 
G01 X-1.8396 Y1.9659 
G01 X-1.8465 Y1.9645 
G01 X-1.8535 Y1.9645 
G01 X-1.8604 Y1.9659 
G01 X-1.8668 Y1.9685 
G01 X-1.8726 Y1.9724 
G01 X-1.8776 Y1.9774 
G01 X-1.8783 Y1.9785 
G01 X-2.0028 Y1.9785 
G01 X-2.0083 Y1.9800 
G01 X-2.0132 Y1.9828 
G01 X-2.0172 Y1.9868 
G01 X-2.0200 Y1.9917 
G01 X-2.0215 Y1.9972 
G01 X-2.0215 Y2.1635 
G01 X-2.0285 Y2.1705 
G01 X-2.0285 Y1.8715 
G01 X-1.3715 Y1.8715 
G01 X-1.3715 Y2.4125 
G01 X-1.3817 Y2.4125 
G01 X-1.3889 Y2.4139 
G01 X-1.3958 Y2.4168 
G01 X-1.4019 Y2.4209 
G01 X-1.4071 Y2.4261 
G01 X-1.4112 Y2.4322 
G01 X-1.4141 Y2.4391 
G01 X-1.4155 Y2.4463 
G01 X-1.4155 Y2.4537 
G01 X-1.4141 Y2.4609 
G01 X-1.4112 Y2.4678 
G01 X-1.4071 Y2.4739 
G01 X-1.4019 Y2.4791 
G01 X-1.3958 Y2.4832 
G01 X-1.3889 Y2.4861 
G01 X-1.3817 Y2.4875 
G01 X-1.3183 Y2.4875 
G01 X-1.3111 Y2.4861 
G01 X-1.3042 Y2.4832 
G01 X-1.2981 Y2.4791 
G01 X-1.2929 Y2.4739 
G01 X-1.2888 Y2.4678 
G01 X-1.2859 Y2.4609 
G01 X-1.2845 Y2.4537 
G01 X-1.2845 Y2.4463 
G01 X-1.2859 Y2.4391 
G01 X-1.2888 Y2.4322 
G01 X-1.2929 Y2.4261 
G01 X-1.2981 Y2.4209 
G01 X-1.3042 Y2.4168 
G01 X-1.3111 Y2.4139 
G01 X-1.3183 Y2.4125 
G01 X-1.3285 Y2.4125 
G01 X-1.3285 Y1.8715 
G01 X-1.2215 Y1.8715 
G01 X-1.2215 Y1.9713 
G01 X-1.2355 Y1.9853 
G01 X-1.2355 Y2.0147 
G01 X-1.2147 Y2.0355 
G01 X-1.1853 Y2.0355 
G01 X-1.1645 Y2.0147 
G01 X-1.1645 Y1.9853 
G01 X-1.1785 Y1.9713 
G01 X-1.1785 Y1.8715 
G01 X-1.1215 Y1.8715 
G01 X-1.1215 Y2.4642 
G01 X-1.1405 Y2.4832 
G01 X-1.1405 Y2.5168 
G01 X-1.1215 Y2.5358 
G01 X-1.1215 Y2.8263 
G01 X-1.1221 Y2.8248 
G01 X-1.1248 Y2.8221 
G01 X-1.1283 Y2.8207 
G01 X-1.1717 Y2.8207 
G01 X-1.1752 Y2.8221 
G01 X-1.1779 Y2.8248 
G01 X-1.1793 Y2.8283 
G01 X-1.1793 Y2.8285 
G01 X-1.2156 Y2.8285 
G01 X-1.2336 Y2.8105 
G01 X-1.2664 Y2.8105 
G01 X-1.2895 Y2.8336 
G00 Z0.1000 
G00 X-1.3664 Y2.9895 
G01 Z-0.0070 F10.00 
G01 X-1.3336 Y2.9895 F20.00 
G01 X-1.3105 Y2.9664 
G01 X-1.3105 Y2.9336 
G01 X-1.3336 Y2.9105 
G01 X-1.3664 Y2.9105 
G01 X-1.3844 Y2.9285 
G01 X-1.4207 Y2.9285 
G01 X-1.4207 Y2.9283 
G01 X-1.4221 Y2.9248 
G01 X-1.4248 Y2.9221 
G01 X-1.4283 Y2.9207 
G01 X-1.4717 Y2.9207 
G01 X-1.4752 Y2.9221 
G01 X-1.4779 Y2.9248 
G01 X-1.4793 Y2.9283 
G01 X-1.4793 Y2.9285 
G01 X-1.5105 Y2.9285 
G01 X-1.5105 Y2.9181 
G01 X-1.5119 Y2.9146 
G01 X-1.5146 Y2.9119 
G01 X-1.5181 Y2.9105 
G01 X-1.5819 Y2.9105 
G01 X-1.5854 Y2.9119 
G01 X-1.5881 Y2.9146 
G01 X-1.5895 Y2.9181 
G01 X-1.5895 Y2.9819 
G01 X-1.5881 Y2.9854 
G01 X-1.5854 Y2.9881 
G01 X-1.5819 Y2.9895 
G01 X-1.5181 Y2.9895 
G01 X-1.5146 Y2.9881 
G01 X-1.5119 Y2.9854 
G01 X-1.5105 Y2.9819 
G01 X-1.5105 Y2.9715 
G01 X-1.4793 Y2.9715 
G01 X-1.4793 Y2.9717 
G01 X-1.4779 Y2.9752 
G01 X-1.4752 Y2.9779 
G01 X-1.4717 Y2.9793 
G01 X-1.4283 Y2.9793 
G01 X-1.4248 Y2.9779 
G01 X-1.4221 Y2.9752 
G01 X-1.4207 Y2.9717 
G01 X-1.4207 Y2.9715 
G01 X-1.3844 Y2.9715 
G01 X-1.3664 Y2.9895 
G00 Z0.1000 
G00 X-1.8895 Y2.9461 
G01 Z-0.0070 F10.00 
G01 X-1.8895 Y2.9539 F20.00 
G01 X-1.8880 Y2.9615 
G01 X-1.8850 Y2.9687 
G01 X-1.8807 Y2.9752 
G01 X-1.8752 Y2.9807 
G01 X-1.8715 Y2.9831 
G01 X-1.8715 Y3.0528 
G01 X-1.8700 Y3.0583 
G01 X-1.8672 Y3.0632 
G01 X-1.8632 Y3.0672 
G01 X-1.8583 Y3.0700 
G01 X-1.8528 Y3.0715 
G01 X-1.1793 Y3.0715 
G01 X-1.1793 Y3.0717 
G01 X-1.1779 Y3.0752 
G01 X-1.1752 Y3.0779 
G01 X-1.1717 Y3.0793 
G01 X-1.1283 Y3.0793 
G01 X-1.1248 Y3.0779 
G01 X-1.1221 Y3.0752 
G01 X-1.1207 Y3.0717 
G01 X-1.1207 Y3.0283 
G01 X-1.1221 Y3.0248 
G01 X-1.1248 Y3.0221 
G01 X-1.1283 Y3.0207 
G01 X-1.1717 Y3.0207 
G01 X-1.1752 Y3.0221 
G01 X-1.1779 Y3.0248 
G01 X-1.1793 Y3.0283 
G01 X-1.1793 Y3.0285 
G01 X-1.8285 Y3.0285 
G01 X-1.8285 Y2.9831 
G01 X-1.8248 Y2.9807 
G01 X-1.8193 Y2.9752 
G01 X-1.8150 Y2.9687 
G01 X-1.8120 Y2.9615 
G01 X-1.8105 Y2.9539 
G01 X-1.8105 Y2.9461 
G01 X-1.8120 Y2.9385 
G01 X-1.8150 Y2.9313 
G01 X-1.8193 Y2.9248 
G01 X-1.8248 Y2.9193 
G01 X-1.8285 Y2.9169 
G01 X-1.8285 Y2.7043 
G01 X-1.8274 Y2.7036 
G01 X-1.8224 Y2.6986 
G01 X-1.8185 Y2.6928 
G01 X-1.8159 Y2.6864 
G01 X-1.8145 Y2.6795 
G01 X-1.8145 Y2.6205 
G01 X-1.8159 Y2.6136 
G01 X-1.8185 Y2.6072 
G01 X-1.8224 Y2.6014 
G01 X-1.8274 Y2.5964 
G01 X-1.8332 Y2.5925 
G01 X-1.8396 Y2.5899 
G01 X-1.8465 Y2.5885 
G01 X-1.8535 Y2.5885 
G01 X-1.8604 Y2.5899 
G01 X-1.8668 Y2.5925 
G01 X-1.8726 Y2.5964 
G01 X-1.8776 Y2.6014 
G01 X-1.8815 Y2.6072 
G01 X-1.8841 Y2.6136 
G01 X-1.8855 Y2.6205 
G01 X-1.8855 Y2.6795 
G01 X-1.8841 Y2.6864 
G01 X-1.8815 Y2.6928 
G01 X-1.8776 Y2.6986 
G01 X-1.8726 Y2.7036 
G01 X-1.8715 Y2.7043 
G01 X-1.8715 Y2.9169 
G01 X-1.8752 Y2.9193 
G01 X-1.8807 Y2.9248 
G01 X-1.8850 Y2.9313 
G01 X-1.8880 Y2.9385 
G01 X-1.8895 Y2.9461 
G00 Z0.1000 
G00 X-1.7895 Y2.9461 
G01 Z-0.0070 F10.00 
G01 X-1.7895 Y2.9539 F20.00 
G01 X-1.7880 Y2.9615 
G01 X-1.7850 Y2.9687 
G01 X-1.7807 Y2.9752 
G01 X-1.7752 Y2.9807 
G01 X-1.7687 Y2.9850 
G01 X-1.7615 Y2.9880 
G01 X-1.7539 Y2.9895 
G01 X-1.7461 Y2.9895 
G01 X-1.7385 Y2.9880 
G01 X-1.7313 Y2.9850 
G01 X-1.7248 Y2.9807 
G01 X-1.7193 Y2.9752 
G01 X-1.7150 Y2.9687 
G01 X-1.7120 Y2.9615 
G01 X-1.7105 Y2.9539 
G01 X-1.7105 Y2.9461 
G01 X-1.7120 Y2.9385 
G01 X-1.7150 Y2.9313 
G01 X-1.7193 Y2.9248 
G01 X-1.7248 Y2.9193 
G01 X-1.7285 Y2.9169 
G01 X-1.7285 Y2.8215 
G01 X-1.6737 Y2.8215 
G01 X-1.6752 Y2.8221 
G01 X-1.6779 Y2.8248 
G01 X-1.6793 Y2.8283 
G01 X-1.6793 Y2.8717 
G01 X-1.6779 Y2.8752 
G01 X-1.6752 Y2.8779 
G01 X-1.6717 Y2.8793 
G01 X-1.6715 Y2.8793 
G01 X-1.6715 Y2.9169 
G01 X-1.6752 Y2.9193 
G01 X-1.6807 Y2.9248 
G01 X-1.6850 Y2.9313 
G01 X-1.6880 Y2.9385 
G01 X-1.6895 Y2.9461 
G01 X-1.6895 Y2.9539 
G01 X-1.6880 Y2.9615 
G01 X-1.6850 Y2.9687 
G01 X-1.6807 Y2.9752 
G01 X-1.6752 Y2.9807 
G01 X-1.6687 Y2.9850 
G01 X-1.6615 Y2.9880 
G01 X-1.6539 Y2.9895 
G01 X-1.6461 Y2.9895 
G01 X-1.6385 Y2.9880 
G01 X-1.6313 Y2.9850 
G01 X-1.6248 Y2.9807 
G01 X-1.6193 Y2.9752 
G01 X-1.6150 Y2.9687 
G01 X-1.6120 Y2.9615 
G01 X-1.6105 Y2.9539 
G01 X-1.6105 Y2.9461 
G01 X-1.6120 Y2.9385 
G01 X-1.6150 Y2.9313 
G01 X-1.6193 Y2.9248 
G01 X-1.6248 Y2.9193 
G01 X-1.6285 Y2.9169 
G01 X-1.6285 Y2.8793 
G01 X-1.6283 Y2.8793 
G01 X-1.6248 Y2.8779 
G01 X-1.6221 Y2.8752 
G01 X-1.6207 Y2.8717 
G01 X-1.6207 Y2.8715 
G01 X-1.3844 Y2.8715 
G01 X-1.3664 Y2.8895 
G01 X-1.3336 Y2.8895 
G01 X-1.3105 Y2.8664 
G01 X-1.3105 Y2.8336 
G01 X-1.3336 Y2.8105 
G01 X-1.3664 Y2.8105 
G01 X-1.3844 Y2.8285 
G01 X-1.6207 Y2.8285 
G01 X-1.6207 Y2.8283 
G01 X-1.6221 Y2.8248 
G01 X-1.6248 Y2.8221 
G01 X-1.6263 Y2.8215 
G01 X-1.4472 Y2.8215 
G01 X-1.4417 Y2.8200 
G01 X-1.4368 Y2.8172 
G01 X-1.4328 Y2.8132 
G01 X-1.3911 Y2.7715 
G01 X-1.3831 Y2.7715 
G01 X-1.3807 Y2.7752 
G01 X-1.3752 Y2.7807 
G01 X-1.3687 Y2.7850 
G01 X-1.3615 Y2.7880 
G01 X-1.3539 Y2.7895 
G01 X-1.3461 Y2.7895 
G01 X-1.3385 Y2.7880 
G01 X-1.3313 Y2.7850 
G01 X-1.3248 Y2.7807 
G01 X-1.3193 Y2.7752 
G01 X-1.3150 Y2.7687 
G01 X-1.3120 Y2.7615 
G01 X-1.3105 Y2.7539 
G01 X-1.3105 Y2.7461 
G01 X-1.3120 Y2.7385 
G01 X-1.3150 Y2.7313 
G01 X-1.3193 Y2.7248 
G01 X-1.3248 Y2.7193 
G01 X-1.3313 Y2.7150 
G01 X-1.3385 Y2.7120 
G01 X-1.3461 Y2.7105 
G01 X-1.3539 Y2.7105 
G01 X-1.3615 Y2.7120 
G01 X-1.3687 Y2.7150 
G01 X-1.3752 Y2.7193 
G01 X-1.3807 Y2.7248 
G01 X-1.3831 Y2.7285 
G01 X-1.4028 Y2.7285 
G01 X-1.4083 Y2.7300 
G01 X-1.4132 Y2.7328 
G01 X-1.4589 Y2.7785 
G01 X-1.6263 Y2.7785 
G01 X-1.6248 Y2.7779 
G01 X-1.6221 Y2.7752 
G01 X-1.6207 Y2.7717 
G01 X-1.6207 Y2.7283 
G01 X-1.6221 Y2.7248 
G01 X-1.6248 Y2.7221 
G01 X-1.6283 Y2.7207 
G01 X-1.6325 Y2.7207 
G01 X-1.6325 Y2.7070 
G01 X-1.6274 Y2.7036 
G01 X-1.6224 Y2.6986 
G01 X-1.6185 Y2.6928 
G01 X-1.6159 Y2.6864 
G01 X-1.6145 Y2.6795 
G01 X-1.6145 Y2.6205 
G01 X-1.6159 Y2.6136 
G01 X-1.6185 Y2.6072 
G01 X-1.6224 Y2.6014 
G01 X-1.6274 Y2.5964 
G01 X-1.6332 Y2.5925 
G01 X-1.6396 Y2.5899 
G01 X-1.6465 Y2.5885 
G01 X-1.6535 Y2.5885 
G01 X-1.6604 Y2.5899 
G01 X-1.6668 Y2.5925 
G01 X-1.6726 Y2.5964 
G01 X-1.6776 Y2.6014 
G01 X-1.6815 Y2.6072 
G01 X-1.6841 Y2.6136 
G01 X-1.6855 Y2.6205 
G01 X-1.6855 Y2.6795 
G01 X-1.6841 Y2.6864 
G01 X-1.6815 Y2.6928 
G01 X-1.6776 Y2.6986 
G01 X-1.6726 Y2.7036 
G01 X-1.6675 Y2.7070 
G01 X-1.6675 Y2.7207 
G01 X-1.6717 Y2.7207 
G01 X-1.6752 Y2.7221 
G01 X-1.6779 Y2.7248 
G01 X-1.6793 Y2.7283 
G01 X-1.6793 Y2.7717 
G01 X-1.6779 Y2.7752 
G01 X-1.6752 Y2.7779 
G01 X-1.6737 Y2.7785 
G01 X-1.7285 Y2.7785 
G01 X-1.7285 Y2.7043 
G01 X-1.7274 Y2.7036 
G01 X-1.7224 Y2.6986 
G01 X-1.7185 Y2.6928 
G01 X-1.7159 Y2.6864 
G01 X-1.7145 Y2.6795 
G01 X-1.7145 Y2.6205 
G01 X-1.7159 Y2.6136 
G01 X-1.7185 Y2.6072 
G01 X-1.7224 Y2.6014 
G01 X-1.7274 Y2.5964 
G01 X-1.7332 Y2.5925 
G01 X-1.7396 Y2.5899 
G01 X-1.7465 Y2.5885 
G01 X-1.7535 Y2.5885 
G01 X-1.7604 Y2.5899 
G01 X-1.7668 Y2.5925 
G01 X-1.7726 Y2.5964 
G01 X-1.7776 Y2.6014 
G01 X-1.7815 Y2.6072 
G01 X-1.7841 Y2.6136 
G01 X-1.7855 Y2.6205 
G01 X-1.7855 Y2.6795 
G01 X-1.7841 Y2.6864 
G01 X-1.7815 Y2.6928 
G01 X-1.7776 Y2.6986 
G01 X-1.7726 Y2.7036 
G01 X-1.7715 Y2.7043 
G01 X-1.7715 Y2.9169 
G01 X-1.7752 Y2.9193 
G01 X-1.7807 Y2.9248 
G01 X-1.7850 Y2.9313 
G01 X-1.7880 Y2.9385 
G01 X-1.7895 Y2.9461 
G00 Z0.1000 
G00 X-1.2355 Y2.0853 
G01 Z-0.0070 F10.00 
G01 X-1.2355 Y2.1147 F20.00 
G01 X-1.2215 Y2.1287 
G01 X-1.2215 Y2.2283 
G01 X-1.2353 Y2.2145 
G01 X-1.2647 Y2.2145 
G01 X-1.2855 Y2.2353 
G01 X-1.2855 Y2.2647 
G01 X-1.2647 Y2.2855 
G01 X-1.2353 Y2.2855 
G01 X-1.2215 Y2.2717 
G01 X-1.2215 Y2.4657 
G01 X-1.2258 Y2.4685 
G01 X-1.2315 Y2.4742 
G01 X-1.2359 Y2.4808 
G01 X-1.2389 Y2.4882 
G01 X-1.2405 Y2.4960 
G01 X-1.2405 Y2.5040 
G01 X-1.2389 Y2.5118 
G01 X-1.2359 Y2.5192 
G01 X-1.2315 Y2.5258 
G01 X-1.2288 Y2.5285 
G01 X-1.2913 Y2.5285 
G01 X-1.2929 Y2.5261 
G01 X-1.2981 Y2.5209 
G01 X-1.3042 Y2.5168 
G01 X-1.3111 Y2.5139 
G01 X-1.3183 Y2.5125 
G01 X-1.3817 Y2.5125 
G01 X-1.3889 Y2.5139 
G01 X-1.3958 Y2.5168 
G01 X-1.4019 Y2.5209 
G01 X-1.4071 Y2.5261 
G01 X-1.4087 Y2.5285 
G01 X-1.9528 Y2.5285 
G01 X-1.9583 Y2.5300 
G01 X-1.9632 Y2.5328 
G01 X-1.9672 Y2.5368 
G01 X-1.9700 Y2.5417 
G01 X-1.9715 Y2.5472 
G01 X-1.9715 Y2.8913 
G01 X-1.9739 Y2.8929 
G01 X-1.9791 Y2.8981 
G01 X-1.9832 Y2.9042 
G01 X-1.9861 Y2.9111 
G01 X-1.9875 Y2.9183 
G01 X-1.9875 Y2.9817 
G01 X-1.9861 Y2.9889 
G01 X-1.9832 Y2.9958 
G01 X-1.9791 Y3.0019 
G01 X-1.9739 Y3.0071 
G01 X-1.9678 Y3.0112 
G01 X-1.9609 Y3.0141 
G01 X-1.9537 Y3.0155 
G01 X-1.9463 Y3.0155 
G01 X-1.9391 Y3.0141 
G01 X-1.9322 Y3.0112 
G01 X-1.9261 Y3.0071 
G01 X-1.9209 Y3.0019 
G01 X-1.9168 Y2.9958 
G01 X-1.9139 Y2.9889 
G01 X-1.9125 Y2.9817 
G01 X-1.9125 Y2.9183 
G01 X-1.9139 Y2.9111 
G01 X-1.9168 Y2.9042 
G01 X-1.9209 Y2.8981 
G01 X-1.9261 Y2.8929 
G01 X-1.9285 Y2.8913 
G01 X-1.9285 Y2.5715 
G01 X-1.5675 Y2.5715 
G01 X-1.5675 Y2.5930 
G01 X-1.5726 Y2.5964 
G01 X-1.5776 Y2.6014 
G01 X-1.5815 Y2.6072 
G01 X-1.5841 Y2.6136 
G01 X-1.5855 Y2.6205 
G01 X-1.5855 Y2.6795 
G01 X-1.5841 Y2.6864 
G01 X-1.5815 Y2.6928 
G01 X-1.5776 Y2.6986 
G01 X-1.5726 Y2.7036 
G01 X-1.5668 Y2.7075 
G01 X-1.5604 Y2.7101 
G01 X-1.5535 Y2.7115 
G01 X-1.5465 Y2.7115 
G01 X-1.5396 Y2.7101 
G01 X-1.5332 Y2.7075 
G01 X-1.5274 Y2.7036 
G01 X-1.5224 Y2.6986 
G01 X-1.5185 Y2.6928 
G01 X-1.5159 Y2.6864 
G01 X-1.5145 Y2.6795 
G01 X-1.5145 Y2.6205 
G01 X-1.5159 Y2.6136 
G01 X-1.5185 Y2.6072 
G01 X-1.5224 Y2.6014 
G01 X-1.5274 Y2.5964 
G01 X-1.5325 Y2.5930 
G01 X-1.5325 Y2.5715 
G01 X-1.4087 Y2.5715 
G01 X-1.4071 Y2.5739 
G01 X-1.4019 Y2.5791 
G01 X-1.3958 Y2.5832 
G01 X-1.3889 Y2.5861 
G01 X-1.3817 Y2.5875 
G01 X-1.3183 Y2.5875 
G01 X-1.3111 Y2.5861 
G01 X-1.3042 Y2.5832 
G01 X-1.2981 Y2.5791 
G01 X-1.2929 Y2.5739 
G01 X-1.2913 Y2.5715 
G01 X-1.2215 Y2.5715 
G01 X-1.2215 Y2.7226 
G01 X-1.2336 Y2.7105 
G01 X-1.2664 Y2.7105 
G01 X-1.2895 Y2.7336 
G01 X-1.2895 Y2.7664 
G01 X-1.2664 Y2.7895 
G01 X-1.2336 Y2.7895 
G01 X-1.2156 Y2.7715 
G01 X-1.1972 Y2.7715 
G01 X-1.1917 Y2.7700 
G01 X-1.1868 Y2.7672 
G01 X-1.1828 Y2.7632 
G01 X-1.1800 Y2.7583 
G01 X-1.1785 Y2.7528 
G01 X-1.1785 Y2.5343 
G01 X-1.1742 Y2.5315 
G01 X-1.1685 Y2.5258 
G01 X-1.1641 Y2.5192 
G01 X-1.1611 Y2.5118 
G01 X-1.1595 Y2.5040 
G01 X-1.1595 Y2.4960 
G01 X-1.1611 Y2.4882 
G01 X-1.1641 Y2.4808 
G01 X-1.1685 Y2.4742 
G01 X-1.1742 Y2.4685 
G01 X-1.1785 Y2.4657 
G01 X-1.1785 Y2.1287 
G01 X-1.1645 Y2.1147 
G01 X-1.1645 Y2.0853 
G01 X-1.1853 Y2.0645 
G01 X-1.2147 Y2.0645 
G01 X-1.2355 Y2.0853 
G00 Z0.1000 
G00 X-1.2905 Y2.2332 
G01 Z-0.0070 F10.00 
G01 X-1.2905 Y2.2668 F20.00 
G01 X-1.2668 Y2.2905 
G01 X-1.2332 Y2.2905 
G01 X-1.2265 Y2.2838 
G01 X-1.2265 Y2.4630 
G01 X-1.2296 Y2.4653 
G01 X-1.2347 Y2.4704 
G01 X-1.2389 Y2.4762 
G01 X-1.2422 Y2.4825 
G01 X-1.2444 Y2.4893 
G01 X-1.2455 Y2.4964 
G01 X-1.2455 Y2.5036 
G01 X-1.2444 Y2.5107 
G01 X-1.2422 Y2.5175 
G01 X-1.2391 Y2.5235 
G01 X-1.2887 Y2.5235 
G01 X-1.2896 Y2.5223 
G01 X-1.2943 Y2.5176 
G01 X-1.2997 Y2.5137 
G01 X-1.3057 Y2.5106 
G01 X-1.3120 Y2.5085 
G01 X-1.3187 Y2.5075 
G01 X-1.3813 Y2.5075 
G01 X-1.3880 Y2.5085 
G01 X-1.3943 Y2.5106 
G01 X-1.4003 Y2.5137 
G01 X-1.4057 Y2.5176 
G01 X-1.4104 Y2.5223 
G01 X-1.4113 Y2.5235 
G01 X-1.9526 Y2.5235 
G01 X-1.9577 Y2.5245 
G01 X-1.9626 Y2.5265 
G01 X-1.9669 Y2.5294 
G01 X-1.9706 Y2.5331 
G01 X-1.9735 Y2.5374 
G01 X-1.9755 Y2.5423 
G01 X-1.9765 Y2.5474 
G01 X-1.9765 Y2.8887 
G01 X-1.9777 Y2.8896 
G01 X-1.9824 Y2.8943 
G01 X-1.9863 Y2.8997 
G01 X-1.9894 Y2.9057 
G01 X-1.9915 Y2.9120 
G01 X-1.9925 Y2.9187 
G01 X-1.9925 Y2.9813 
G01 X-1.9915 Y2.9880 
G01 X-1.9894 Y2.9943 
G01 X-1.9863 Y3.0003 
G01 X-1.9824 Y3.0057 
G01 X-1.9777 Y3.0104 
G01 X-1.9723 Y3.0143 
G01 X-1.9663 Y3.0174 
G01 X-1.9600 Y3.0195 
G01 X-1.9533 Y3.0205 
G01 X-1.9467 Y3.0205 
G01 X-1.9400 Y3.0195 
G01 X-1.9337 Y3.0174 
G01 X-1.9277 Y3.0143 
G01 X-1.9223 Y3.0104 
G01 X-1.9176 Y3.0057 
G01 X-1.9137 Y3.0003 
G01 X-1.9106 Y2.9943 
G01 X-1.9085 Y2.9880 
G01 X-1.9075 Y2.9813 
G01 X-1.9075 Y2.9187 
G01 X-1.9085 Y2.9120 
G01 X-1.9106 Y2.9057 
G01 X-1.9137 Y2.8997 
G01 X-1.9176 Y2.8943 
G01 X-1.9223 Y2.8896 
G01 X-1.9235 Y2.8887 
G01 X-1.9235 Y2.5765 
G01 X-1.5725 Y2.5765 
G01 X-1.5725 Y2.5903 
G01 X-1.5758 Y2.5925 
G01 X-1.5815 Y2.5982 
G01 X-1.5859 Y2.6048 
G01 X-1.5889 Y2.6122 
G01 X-1.5905 Y2.6200 
G01 X-1.5905 Y2.6800 
G01 X-1.5889 Y2.6878 
G01 X-1.5859 Y2.6952 
G01 X-1.5815 Y2.7018 
G01 X-1.5758 Y2.7075 
G01 X-1.5692 Y2.7119 
G01 X-1.5618 Y2.7149 
G01 X-1.5540 Y2.7165 
G01 X-1.5460 Y2.7165 
G01 X-1.5382 Y2.7149 
G01 X-1.5308 Y2.7119 
G01 X-1.5242 Y2.7075 
G01 X-1.5185 Y2.7018 
G01 X-1.5141 Y2.6952 
G01 X-1.5111 Y2.6878 
G01 X-1.5095 Y2.6800 
G01 X-1.5095 Y2.6200 
G01 X-1.5111 Y2.6122 
G01 X-1.5141 Y2.6048 
G01 X-1.5185 Y2.5982 
G01 X-1.5242 Y2.5925 
G01 X-1.5275 Y2.5903 
G01 X-1.5275 Y2.5765 
G01 X-1.4113 Y2.5765 
G01 X-1.4104 Y2.5777 
G01 X-1.4057 Y2.5824 
G01 X-1.4003 Y2.5863 
G01 X-1.3943 Y2.5894 
G01 X-1.3880 Y2.5915 
G01 X-1.3813 Y2.5925 
G01 X-1.3187 Y2.5925 
G01 X-1.3120 Y2.5915 
G01 X-1.3057 Y2.5894 
G01 X-1.2997 Y2.5863 
G01 X-1.2943 Y2.5824 
G01 X-1.2896 Y2.5777 
G01 X-1.2887 Y2.5765 
G01 X-1.2265 Y2.5765 
G01 X-1.2265 Y2.7106 
G01 X-1.2316 Y2.7055 
G01 X-1.2684 Y2.7055 
G01 X-1.2945 Y2.7316 
G01 X-1.2945 Y2.7684 
G01 X-1.2684 Y2.7945 
G01 X-1.2316 Y2.7945 
G01 X-1.2136 Y2.7765 
G01 X-1.1974 Y2.7765 
G01 X-1.1923 Y2.7755 
G01 X-1.1874 Y2.7735 
G01 X-1.1831 Y2.7706 
G01 X-1.1794 Y2.7669 
G01 X-1.1765 Y2.7626 
G01 X-1.1745 Y2.7577 
G01 X-1.1735 Y2.7526 
G01 X-1.1735 Y2.5370 
G01 X-1.1704 Y2.5347 
G01 X-1.1653 Y2.5296 
G01 X-1.1611 Y2.5238 
G01 X-1.1578 Y2.5175 
G01 X-1.1556 Y2.5107 
G01 X-1.1545 Y2.5036 
G01 X-1.1545 Y2.4964 
G01 X-1.1556 Y2.4893 
G01 X-1.1578 Y2.4825 
G01 X-1.1611 Y2.4762 
G01 X-1.1653 Y2.4704 
G01 X-1.1704 Y2.4653 
G01 X-1.1735 Y2.4630 
G01 X-1.1735 Y2.1308 
G01 X-1.1595 Y2.1168 
G01 X-1.1595 Y2.0832 
G01 X-1.1832 Y2.0595 
G01 X-1.2168 Y2.0595 
G01 X-1.2405 Y2.0832 
G01 X-1.2405 Y2.1168 
G01 X-1.2265 Y2.1308 
G01 X-1.2265 Y2.2162 
G01 X-1.2332 Y2.2095 
G01 X-1.2668 Y2.2095 
G01 X-1.2905 Y2.2332 
G00 Z0.1000 
G00 X-1.2945 Y2.9316 
G01 Z-0.0070 F10.00 
G01 X-1.2945 Y2.9684 F20.00 
G01 X-1.2684 Y2.9945 
G01 X-1.2316 Y2.9945 
G01 X-1.2136 Y2.9765 
G01 X-1.0974 Y2.9765 
G01 X-1.0923 Y2.9755 
G01 X-1.0874 Y2.9735 
G01 X-1.0831 Y2.9706 
G01 X-1.0794 Y2.9669 
G01 X-1.0765 Y2.9626 
G01 X-1.0745 Y2.9577 
G01 X-1.0735 Y2.9526 
G01 X-1.0735 Y2.5378 
G01 X-1.0545 Y2.5188 
G01 X-1.0545 Y2.4812 
G01 X-1.0735 Y2.4622 
G01 X-1.0735 Y1.8474 
G01 X-1.0745 Y1.8423 
G01 X-1.0765 Y1.8374 
G01 X-1.0794 Y1.8331 
G01 X-1.0831 Y1.8294 
G01 X-1.0874 Y1.8265 
G01 X-1.0923 Y1.8245 
G01 X-1.0974 Y1.8235 
G01 X-2.0526 Y1.8235 
G01 X-2.0577 Y1.8245 
G01 X-2.0626 Y1.8265 
G01 X-2.0669 Y1.8294 
G01 X-2.0706 Y1.8331 
G01 X-2.0735 Y1.8374 
G01 X-2.0755 Y1.8423 
G01 X-2.0765 Y1.8474 
G01 X-2.0765 Y2.8887 
G01 X-2.0777 Y2.8896 
G01 X-2.0824 Y2.8943 
G01 X-2.0863 Y2.8997 
G01 X-2.0894 Y2.9057 
G01 X-2.0915 Y2.9120 
G01 X-2.0925 Y2.9187 
G01 X-2.0925 Y2.9813 
G01 X-2.0915 Y2.9880 
G01 X-2.0894 Y2.9943 
G01 X-2.0863 Y3.0003 
G01 X-2.0824 Y3.0057 
G01 X-2.0777 Y3.0104 
G01 X-2.0723 Y3.0143 
G01 X-2.0663 Y3.0174 
G01 X-2.0600 Y3.0195 
G01 X-2.0533 Y3.0205 
G01 X-2.0467 Y3.0205 
G01 X-2.0400 Y3.0195 
G01 X-2.0337 Y3.0174 
G01 X-2.0277 Y3.0143 
G01 X-2.0223 Y3.0104 
G01 X-2.0176 Y3.0057 
G01 X-2.0137 Y3.0003 
G01 X-2.0106 Y2.9943 
G01 X-2.0085 Y2.9880 
G01 X-2.0075 Y2.9813 
G01 X-2.0075 Y2.9187 
G01 X-2.0085 Y2.9120 
G01 X-2.0106 Y2.9057 
G01 X-2.0137 Y2.8997 
G01 X-2.0176 Y2.8943 
G01 X-2.0223 Y2.8896 
G01 X-2.0235 Y2.8887 
G01 X-2.0235 Y2.4416 
G01 X-2.0191 Y2.4460 
G01 X-1.9809 Y2.4460 
G01 X-1.9614 Y2.4265 
G01 X-1.8474 Y2.4265 
G01 X-1.8423 Y2.4255 
G01 X-1.8374 Y2.4235 
G01 X-1.8331 Y2.4206 
G01 X-1.8294 Y2.4169 
G01 X-1.8265 Y2.4126 
G01 X-1.8245 Y2.4077 
G01 X-1.8242 Y2.4075 
G01 X-1.8185 Y2.4018 
G01 X-1.8141 Y2.3952 
G01 X-1.8111 Y2.3878 
G01 X-1.8095 Y2.3800 
G01 X-1.8095 Y2.3200 
G01 X-1.8111 Y2.3122 
G01 X-1.8141 Y2.3048 
G01 X-1.8185 Y2.2982 
G01 X-1.8235 Y2.2932 
G01 X-1.8235 Y2.2386 
G01 X-1.8040 Y2.2191 
G01 X-1.8040 Y2.1809 
G01 X-1.8309 Y2.1540 
G01 X-1.8691 Y2.1540 
G01 X-1.8960 Y2.1809 
G01 X-1.8960 Y2.2191 
G01 X-1.8765 Y2.2386 
G01 X-1.8765 Y2.2932 
G01 X-1.8815 Y2.2982 
G01 X-1.8859 Y2.3048 
G01 X-1.8889 Y2.3122 
G01 X-1.8905 Y2.3200 
G01 X-1.8905 Y2.3735 
G01 X-1.9614 Y2.3735 
G01 X-1.9809 Y2.3540 
G01 X-2.0191 Y2.3540 
G01 X-2.0235 Y2.3584 
G01 X-2.0235 Y2.2416 
G01 X-2.0191 Y2.2460 
G01 X-1.9809 Y2.2460 
G01 X-1.9540 Y2.2191 
G01 X-1.9540 Y2.1809 
G01 X-1.9735 Y2.1614 
G01 X-1.9735 Y2.0265 
G01 X-1.8808 Y2.0265 
G01 X-1.8758 Y2.0315 
G01 X-1.8692 Y2.0359 
G01 X-1.8618 Y2.0389 
G01 X-1.8540 Y2.0405 
G01 X-1.8460 Y2.0405 
G01 X-1.8382 Y2.0389 
G01 X-1.8308 Y2.0359 
G01 X-1.8242 Y2.0315 
G01 X-1.8192 Y2.0265 
G01 X-1.7765 Y2.0265 
G01 X-1.7765 Y2.2932 
G01 X-1.7815 Y2.2982 
G01 X-1.7859 Y2.3048 
G01 X-1.7889 Y2.3122 
G01 X-1.7905 Y2.3200 
G01 X-1.7905 Y2.3800 
G01 X-1.7889 Y2.3878 
G01 X-1.7859 Y2.3952 
G01 X-1.7815 Y2.4018 
G01 X-1.7758 Y2.4075 
G01 X-1.7692 Y2.4119 
G01 X-1.7618 Y2.4149 
G01 X-1.7540 Y2.4165 
G01 X-1.7460 Y2.4165 
G01 X-1.7382 Y2.4149 
G01 X-1.7308 Y2.4119 
G01 X-1.7242 Y2.4075 
G01 X-1.7185 Y2.4018 
G01 X-1.7141 Y2.3952 
G01 X-1.7111 Y2.3878 
G01 X-1.7095 Y2.3800 
G01 X-1.7095 Y2.3200 
G01 X-1.7111 Y2.3122 
G01 X-1.7141 Y2.3048 
G01 X-1.7185 Y2.2982 
G01 X-1.7235 Y2.2932 
G01 X-1.7235 Y1.9974 
G01 X-1.7245 Y1.9923 
G01 X-1.7265 Y1.9874 
G01 X-1.7294 Y1.9831 
G01 X-1.7331 Y1.9794 
G01 X-1.7374 Y1.9765 
G01 X-1.7423 Y1.9745 
G01 X-1.7474 Y1.9735 
G01 X-1.8192 Y1.9735 
G01 X-1.8242 Y1.9685 
G01 X-1.8308 Y1.9641 
G01 X-1.8382 Y1.9611 
G01 X-1.8460 Y1.9595 
G01 X-1.8540 Y1.9595 
G01 X-1.8618 Y1.9611 
G01 X-1.8692 Y1.9641 
G01 X-1.8758 Y1.9685 
G01 X-1.8808 Y1.9735 
G01 X-2.0026 Y1.9735 
G01 X-2.0077 Y1.9745 
G01 X-2.0126 Y1.9765 
G01 X-2.0169 Y1.9794 
G01 X-2.0206 Y1.9831 
G01 X-2.0235 Y1.9874 
G01 X-2.0235 Y1.8765 
G01 X-1.3765 Y1.8765 
G01 X-1.3765 Y2.4075 
G01 X-1.3813 Y2.4075 
G01 X-1.3880 Y2.4085 
G01 X-1.3943 Y2.4106 
G01 X-1.4003 Y2.4137 
G01 X-1.4057 Y2.4176 
G01 X-1.4104 Y2.4223 
G01 X-1.4143 Y2.4277 
G01 X-1.4157 Y2.4304 
G01 X-1.4157 Y2.4283 
G01 X-1.4167 Y2.4246 
G01 X-1.4186 Y2.4213 
G01 X-1.4213 Y2.4186 
G01 X-1.4235 Y2.4173 
G01 X-1.4235 Y2.3474 
G01 X-1.4245 Y2.3423 
G01 X-1.4265 Y2.3374 
G01 X-1.4294 Y2.3331 
G01 X-1.4331 Y2.3294 
G01 X-1.4374 Y2.3265 
G01 X-1.4423 Y2.3245 
G01 X-1.4474 Y2.3235 
G01 X-1.5095 Y2.3235 
G01 X-1.5095 Y2.3200 
G01 X-1.5111 Y2.3122 
G01 X-1.5141 Y2.3048 
G01 X-1.5185 Y2.2982 
G01 X-1.5235 Y2.2932 
G01 X-1.5235 Y2.2808 
G01 X-1.5095 Y2.2668 
G01 X-1.5095 Y2.2332 
G01 X-1.5332 Y2.2095 
G01 X-1.5668 Y2.2095 
G01 X-1.5905 Y2.2332 
G01 X-1.5905 Y2.2668 
G01 X-1.5765 Y2.2808 
G01 X-1.5765 Y2.2932 
G01 X-1.5815 Y2.2982 
G01 X-1.5859 Y2.3048 
G01 X-1.5889 Y2.3122 
G01 X-1.5905 Y2.3200 
G01 X-1.5905 Y2.3800 
G01 X-1.5889 Y2.3878 
G01 X-1.5859 Y2.3952 
G01 X-1.5815 Y2.4018 
G01 X-1.5758 Y2.4075 
G01 X-1.5692 Y2.4119 
G01 X-1.5618 Y2.4149 
G01 X-1.5540 Y2.4165 
G01 X-1.5460 Y2.4165 
G01 X-1.5382 Y2.4149 
G01 X-1.5308 Y2.4119 
G01 X-1.5242 Y2.4075 
G01 X-1.5185 Y2.4018 
G01 X-1.5141 Y2.3952 
G01 X-1.5111 Y2.3878 
G01 X-1.5095 Y2.3800 
G01 X-1.5095 Y2.3765 
G01 X-1.4765 Y2.3765 
G01 X-1.4765 Y2.4173 
G01 X-1.4787 Y2.4186 
G01 X-1.4814 Y2.4213 
G01 X-1.4833 Y2.4246 
G01 X-1.4843 Y2.4283 
G01 X-1.4843 Y2.4717 
G01 X-1.4833 Y2.4754 
G01 X-1.4814 Y2.4787 
G01 X-1.4787 Y2.4814 
G01 X-1.4754 Y2.4833 
G01 X-1.4717 Y2.4843 
G01 X-1.4283 Y2.4843 
G01 X-1.4246 Y2.4833 
G01 X-1.4213 Y2.4814 
G01 X-1.4186 Y2.4787 
G01 X-1.4167 Y2.4754 
G01 X-1.4157 Y2.4717 
G01 X-1.4157 Y2.4696 
G01 X-1.4143 Y2.4723 
G01 X-1.4104 Y2.4777 
G01 X-1.4057 Y2.4824 
G01 X-1.4003 Y2.4863 
G01 X-1.3943 Y2.4894 
G01 X-1.3880 Y2.4915 
G01 X-1.3813 Y2.4925 
G01 X-1.3187 Y2.4925 
G01 X-1.3120 Y2.4915 
G01 X-1.3057 Y2.4894 
G01 X-1.2997 Y2.4863 
G01 X-1.2943 Y2.4824 
G01 X-1.2896 Y2.4777 
G01 X-1.2857 Y2.4723 
G01 X-1.2826 Y2.4663 
G01 X-1.2805 Y2.4600 
G01 X-1.2795 Y2.4533 
G01 X-1.2795 Y2.4467 
G01 X-1.2805 Y2.4400 
G01 X-1.2826 Y2.4337 
G01 X-1.2857 Y2.4277 
G01 X-1.2896 Y2.4223 
G01 X-1.2943 Y2.4176 
G01 X-1.2997 Y2.4137 
G01 X-1.3057 Y2.4106 
G01 X-1.3120 Y2.4085 
G01 X-1.3187 Y2.4075 
G01 X-1.3235 Y2.4075 
G01 X-1.3235 Y1.8765 
G01 X-1.2265 Y1.8765 
G01 X-1.2265 Y1.9692 
G01 X-1.2405 Y1.9832 
G01 X-1.2405 Y2.0168 
G01 X-1.2168 Y2.0405 
G01 X-1.1832 Y2.0405 
G01 X-1.1595 Y2.0168 
G01 X-1.1595 Y1.9832 
G01 X-1.1735 Y1.9692 
G01 X-1.1735 Y1.8765 
G01 X-1.1265 Y1.8765 
G01 X-1.1265 Y2.4622 
G01 X-1.1455 Y2.4812 
G01 X-1.1455 Y2.5188 
G01 X-1.1265 Y2.5378 
G01 X-1.1265 Y2.8162 
G01 X-1.1283 Y2.8157 
G01 X-1.1717 Y2.8157 
G01 X-1.1754 Y2.8167 
G01 X-1.1787 Y2.8186 
G01 X-1.1814 Y2.8213 
G01 X-1.1827 Y2.8235 
G01 X-1.2136 Y2.8235 
G01 X-1.2316 Y2.8055 
G01 X-1.2684 Y2.8055 
G01 X-1.2945 Y2.8316 
G01 X-1.2945 Y2.8684 
G01 X-1.2684 Y2.8945 
G01 X-1.2316 Y2.8945 
G01 X-1.2136 Y2.8765 
G01 X-1.1827 Y2.8765 
G01 X-1.1814 Y2.8787 
G01 X-1.1787 Y2.8814 
G01 X-1.1754 Y2.8833 
G01 X-1.1717 Y2.8843 
G01 X-1.1283 Y2.8843 
G01 X-1.1265 Y2.8838 
G01 X-1.1265 Y2.9235 
G01 X-1.2136 Y2.9235 
G01 X-1.2316 Y2.9055 
G01 X-1.2684 Y2.9055 
G01 X-1.2945 Y2.9316 
G00 Z0.1000 
G00 X-1.3684 Y2.9945 
G01 Z-0.0070 F10.00 
G01 X-1.3316 Y2.9945 F20.00 
G01 X-1.3055 Y2.9684 
G01 X-1.3055 Y2.9316 
G01 X-1.3316 Y2.9055 
G01 X-1.3684 Y2.9055 
G01 X-1.3864 Y2.9235 
G01 X-1.4173 Y2.9235 
G01 X-1.4186 Y2.9213 
G01 X-1.4213 Y2.9186 
G01 X-1.4246 Y2.9167 
G01 X-1.4283 Y2.9157 
G01 X-1.4717 Y2.9157 
G01 X-1.4754 Y2.9167 
G01 X-1.4787 Y2.9186 
G01 X-1.4814 Y2.9213 
G01 X-1.4827 Y2.9235 
G01 X-1.5055 Y2.9235 
G01 X-1.5055 Y2.9181 
G01 X-1.5065 Y2.9144 
G01 X-1.5084 Y2.9111 
G01 X-1.5111 Y2.9084 
G01 X-1.5144 Y2.9065 
G01 X-1.5181 Y2.9055 
G01 X-1.5819 Y2.9055 
G01 X-1.5856 Y2.9065 
G01 X-1.5889 Y2.9084 
G01 X-1.5916 Y2.9111 
G01 X-1.5935 Y2.9144 
G01 X-1.5945 Y2.9181 
G01 X-1.5945 Y2.9819 
G01 X-1.5935 Y2.9856 
G01 X-1.5916 Y2.9889 
G01 X-1.5889 Y2.9916 
G01 X-1.5856 Y2.9935 
G01 X-1.5819 Y2.9945 
G01 X-1.5181 Y2.9945 
G01 X-1.5144 Y2.9935 
G01 X-1.5111 Y2.9916 
G01 X-1.5084 Y2.9889 
G01 X-1.5065 Y2.9856 
G01 X-1.5055 Y2.9819 
G01 X-1.5055 Y2.9765 
G01 X-1.4827 Y2.9765 
G01 X-1.4814 Y2.9787 
G01 X-1.4787 Y2.9814 
G01 X-1.4754 Y2.9833 
G01 X-1.4717 Y2.9843 
G01 X-1.4283 Y2.9843 
G01 X-1.4246 Y2.9833 
G01 X-1.4213 Y2.9814 
G01 X-1.4186 Y2.9787 
G01 X-1.4173 Y2.9765 
G01 X-1.3864 Y2.9765 
G01 X-1.3684 Y2.9945 
G00 Z0.1000 
G00 X-1.6095 Y2.6800 
G01 Z-0.0070 F10.00 
G01 X-1.6095 Y2.6200 F20.00 
G01 X-1.6111 Y2.6122 
G01 X-1.6141 Y2.6048 
G01 X-1.6185 Y2.5982 
G01 X-1.6242 Y2.5925 
G01 X-1.6308 Y2.5881 
G01 X-1.6382 Y2.5851 
G01 X-1.6460 Y2.5835 
G01 X-1.6540 Y2.5835 
G01 X-1.6618 Y2.5851 
G01 X-1.6692 Y2.5881 
G01 X-1.6758 Y2.5925 
G01 X-1.6815 Y2.5982 
G01 X-1.6859 Y2.6048 
G01 X-1.6889 Y2.6122 
G01 X-1.6905 Y2.6200 
G01 X-1.6905 Y2.6800 
G01 X-1.6889 Y2.6878 
G01 X-1.6859 Y2.6952 
G01 X-1.6815 Y2.7018 
G01 X-1.6758 Y2.7075 
G01 X-1.6725 Y2.7097 
G01 X-1.6725 Y2.7159 
G01 X-1.6754 Y2.7167 
G01 X-1.6787 Y2.7186 
G01 X-1.6814 Y2.7213 
G01 X-1.6833 Y2.7246 
G01 X-1.6843 Y2.7283 
G01 X-1.6843 Y2.7717 
G01 X-1.6838 Y2.7735 
G01 X-1.7235 Y2.7735 
G01 X-1.7235 Y2.7068 
G01 X-1.7185 Y2.7018 
G01 X-1.7141 Y2.6952 
G01 X-1.7111 Y2.6878 
G01 X-1.7095 Y2.6800 
G01 X-1.7095 Y2.6200 
G01 X-1.7111 Y2.6122 
G01 X-1.7141 Y2.6048 
G01 X-1.7185 Y2.5982 
G01 X-1.7242 Y2.5925 
G01 X-1.7308 Y2.5881 
G01 X-1.7382 Y2.5851 
G01 X-1.7460 Y2.5835 
G01 X-1.7540 Y2.5835 
G01 X-1.7618 Y2.5851 
G01 X-1.7692 Y2.5881 
G01 X-1.7758 Y2.5925 
G01 X-1.7815 Y2.5982 
G01 X-1.7859 Y2.6048 
G01 X-1.7889 Y2.6122 
G01 X-1.7905 Y2.6200 
G01 X-1.7905 Y2.6800 
G01 X-1.7889 Y2.6878 
G01 X-1.7859 Y2.6952 
G01 X-1.7815 Y2.7018 
G01 X-1.7765 Y2.7068 
G01 X-1.7765 Y2.9142 
G01 X-1.7790 Y2.9161 
G01 X-1.7839 Y2.9210 
G01 X-1.7881 Y2.9267 
G01 X-1.7912 Y2.9329 
G01 X-1.7934 Y2.9396 
G01 X-1.7945 Y2.9465 
G01 X-1.7945 Y2.9535 
G01 X-1.7934 Y2.9604 
G01 X-1.7912 Y2.9671 
G01 X-1.7881 Y2.9733 
G01 X-1.7839 Y2.9790 
G01 X-1.7790 Y2.9839 
G01 X-1.7733 Y2.9881 
G01 X-1.7671 Y2.9912 
G01 X-1.7604 Y2.9934 
G01 X-1.7535 Y2.9945 
G01 X-1.7465 Y2.9945 
G01 X-1.7396 Y2.9934 
G01 X-1.7329 Y2.9912 
G01 X-1.7267 Y2.9881 
G01 X-1.7210 Y2.9839 
G01 X-1.7161 Y2.9790 
G01 X-1.7119 Y2.9733 
G01 X-1.7088 Y2.9671 
G01 X-1.7066 Y2.9604 
G01 X-1.7055 Y2.9535 
G01 X-1.7055 Y2.9465 
G01 X-1.7066 Y2.9396 
G01 X-1.7088 Y2.9329 
G01 X-1.7119 Y2.9267 
G01 X-1.7161 Y2.9210 
G01 X-1.7210 Y2.9161 
G01 X-1.7235 Y2.9142 
G01 X-1.7235 Y2.8265 
G01 X-1.6838 Y2.8265 
G01 X-1.6843 Y2.8283 
G01 X-1.6843 Y2.8717 
G01 X-1.6833 Y2.8754 
G01 X-1.6814 Y2.8787 
G01 X-1.6787 Y2.8814 
G01 X-1.6765 Y2.8827 
G01 X-1.6765 Y2.9142 
G01 X-1.6790 Y2.9161 
G01 X-1.6839 Y2.9210 
G01 X-1.6881 Y2.9267 
G01 X-1.6912 Y2.9329 
G01 X-1.6934 Y2.9396 
G01 X-1.6945 Y2.9465 
G01 X-1.6945 Y2.9535 
G01 X-1.6934 Y2.9604 
G01 X-1.6912 Y2.9671 
G01 X-1.6881 Y2.9733 
G01 X-1.6839 Y2.9790 
G01 X-1.6790 Y2.9839 
G01 X-1.6733 Y2.9881 
G01 X-1.6671 Y2.9912 
G01 X-1.6604 Y2.9934 
G01 X-1.6535 Y2.9945 
G01 X-1.6465 Y2.9945 
G01 X-1.6396 Y2.9934 
G01 X-1.6329 Y2.9912 
G01 X-1.6267 Y2.9881 
G01 X-1.6210 Y2.9839 
G01 X-1.6161 Y2.9790 
G01 X-1.6119 Y2.9733 
G01 X-1.6088 Y2.9671 
G01 X-1.6066 Y2.9604 
G01 X-1.6055 Y2.9535 
G01 X-1.6055 Y2.9465 
G01 X-1.6066 Y2.9396 
G01 X-1.6088 Y2.9329 
G01 X-1.6119 Y2.9267 
G01 X-1.6161 Y2.9210 
G01 X-1.6210 Y2.9161 
G01 X-1.6235 Y2.9142 
G01 X-1.6235 Y2.8827 
G01 X-1.6213 Y2.8814 
G01 X-1.6186 Y2.8787 
G01 X-1.6173 Y2.8765 
G01 X-1.3864 Y2.8765 
G01 X-1.3684 Y2.8945 
G01 X-1.3316 Y2.8945 
G01 X-1.3055 Y2.8684 
G01 X-1.3055 Y2.8316 
G01 X-1.3316 Y2.8055 
G01 X-1.3684 Y2.8055 
G01 X-1.3864 Y2.8235 
G01 X-1.4375 Y2.8235 
G01 X-1.4331 Y2.8206 
G01 X-1.4294 Y2.8169 
G01 X-1.3890 Y2.7765 
G01 X-1.3858 Y2.7765 
G01 X-1.3839 Y2.7790 
G01 X-1.3790 Y2.7839 
G01 X-1.3733 Y2.7881 
G01 X-1.3671 Y2.7912 
G01 X-1.3604 Y2.7934 
G01 X-1.3535 Y2.7945 
G01 X-1.3465 Y2.7945 
G01 X-1.3396 Y2.7934 
G01 X-1.3329 Y2.7912 
G01 X-1.3267 Y2.7881 
G01 X-1.3210 Y2.7839 
G01 X-1.3161 Y2.7790 
G01 X-1.3119 Y2.7733 
G01 X-1.3088 Y2.7671 
G01 X-1.3066 Y2.7604 
G01 X-1.3055 Y2.7535 
G01 X-1.3055 Y2.7465 
G01 X-1.3066 Y2.7396 
G01 X-1.3088 Y2.7329 
G01 X-1.3119 Y2.7267 
G01 X-1.3161 Y2.7210 
G01 X-1.3210 Y2.7161 
G01 X-1.3267 Y2.7119 
G01 X-1.3329 Y2.7088 
G01 X-1.3396 Y2.7066 
G01 X-1.3465 Y2.7055 
G01 X-1.3535 Y2.7055 
G01 X-1.3604 Y2.7066 
G01 X-1.3671 Y2.7088 
G01 X-1.3733 Y2.7119 
G01 X-1.3790 Y2.7161 
G01 X-1.3839 Y2.7210 
G01 X-1.3858 Y2.7235 
G01 X-1.4026 Y2.7235 
G01 X-1.4077 Y2.7245 
G01 X-1.4126 Y2.7265 
G01 X-1.4169 Y2.7294 
G01 X-1.4610 Y2.7735 
G01 X-1.6162 Y2.7735 
G01 X-1.6157 Y2.7717 
G01 X-1.6157 Y2.7283 
G01 X-1.6167 Y2.7246 
G01 X-1.6186 Y2.7213 
G01 X-1.6213 Y2.7186 
G01 X-1.6246 Y2.7167 
G01 X-1.6275 Y2.7159 
G01 X-1.6275 Y2.7097 
G01 X-1.6242 Y2.7075 
G01 X-1.6185 Y2.7018 
G01 X-1.6141 Y2.6952 
G01 X-1.6111 Y2.6878 
G01 X-1.6095 Y2.6800 
G00 Z0.1000 
G00 X-1.8095 Y2.6800 
G01 Z-0.0070 F10.00 
G01 X-1.8095 Y2.6200 F20.00 
G01 X-1.8111 Y2.6122 
G01 X-1.8141 Y2.6048 
G01 X-1.8185 Y2.5982 
G01 X-1.8242 Y2.5925 
G01 X-1.8308 Y2.5881 
G01 X-1.8382 Y2.5851 
G01 X-1.8460 Y2.5835 
G01 X-1.8540 Y2.5835 
G01 X-1.8618 Y2.5851 
G01 X-1.8692 Y2.5881 
G01 X-1.8758 Y2.5925 
G01 X-1.8815 Y2.5982 
G01 X-1.8859 Y2.6048 
G01 X-1.8889 Y2.6122 
G01 X-1.8905 Y2.6200 
G01 X-1.8905 Y2.6800 
G01 X-1.8889 Y2.6878 
G01 X-1.8859 Y2.6952 
G01 X-1.8815 Y2.7018 
G01 X-1.8765 Y2.7068 
G01 X-1.8765 Y2.9142 
G01 X-1.8790 Y2.9161 
G01 X-1.8839 Y2.9210 
G01 X-1.8881 Y2.9267 
G01 X-1.8912 Y2.9329 
G01 X-1.8934 Y2.9396 
G01 X-1.8945 Y2.9465 
G01 X-1.8945 Y2.9535 
G01 X-1.8934 Y2.9604 
G01 X-1.8912 Y2.9671 
G01 X-1.8881 Y2.9733 
G01 X-1.8839 Y2.9790 
G01 X-1.8790 Y2.9839 
G01 X-1.8765 Y2.9858 
G01 X-1.8765 Y3.0526 
G01 X-1.8755 Y3.0577 
G01 X-1.8735 Y3.0626 
G01 X-1.8706 Y3.0669 
G01 X-1.8669 Y3.0706 
G01 X-1.8626 Y3.0735 
G01 X-1.8577 Y3.0755 
G01 X-1.8526 Y3.0765 
G01 X-1.1827 Y3.0765 
G01 X-1.1814 Y3.0787 
G01 X-1.1787 Y3.0814 
G01 X-1.1754 Y3.0833 
G01 X-1.1717 Y3.0843 
G01 X-1.1283 Y3.0843 
G01 X-1.1246 Y3.0833 
G01 X-1.1213 Y3.0814 
G01 X-1.1186 Y3.0787 
G01 X-1.1167 Y3.0754 
G01 X-1.1157 Y3.0717 
G01 X-1.1157 Y3.0283 
G01 X-1.1167 Y3.0246 
G01 X-1.1186 Y3.0213 
G01 X-1.1213 Y3.0186 
G01 X-1.1246 Y3.0167 
G01 X-1.1283 Y3.0157 
G01 X-1.1717 Y3.0157 
G01 X-1.1754 Y3.0167 
G01 X-1.1787 Y3.0186 
G01 X-1.1814 Y3.0213 
G01 X-1.1827 Y3.0235 
G01 X-1.8235 Y3.0235 
G01 X-1.8235 Y2.9858 
G01 X-1.8210 Y2.9839 
G01 X-1.8161 Y2.9790 
G01 X-1.8119 Y2.9733 
G01 X-1.8088 Y2.9671 
G01 X-1.8066 Y2.9604 
G01 X-1.8055 Y2.9535 
G01 X-1.8055 Y2.9465 
G01 X-1.8066 Y2.9396 
G01 X-1.8088 Y2.9329 
G01 X-1.8119 Y2.9267 
G01 X-1.8161 Y2.9210 
G01 X-1.8210 Y2.9161 
G01 X-1.8235 Y2.9142 
G01 X-1.8235 Y2.7068 
G01 X-1.8185 Y2.7018 
G01 X-1.8141 Y2.6952 
G01 X-1.8111 Y2.6878 
G01 X-1.8095 Y2.6800 
G00 Z0.1000 
G00 X-1.6095 Y2.3800 
G01 Z-0.0070 F10.00 
G01 X-1.6095 Y2.3200 F20.00 
G01 X-1.6111 Y2.3122 
G01 X-1.6141 Y2.3048 
G01 X-1.6185 Y2.2982 
G01 X-1.6235 Y2.2932 
G01 X-1.6235 Y2.2386 
G01 X-1.6040 Y2.2191 
G01 X-1.6040 Y2.1809 
G01 X-1.6235 Y2.1614 
G01 X-1.6235 Y2.0308 
G01 X-1.6185 Y2.0258 
G01 X-1.6141 Y2.0192 
G01 X-1.6111 Y2.0118 
G01 X-1.6095 Y2.0040 
G01 X-1.6095 Y1.9960 
G01 X-1.6111 Y1.9882 
G01 X-1.6141 Y1.9808 
G01 X-1.6185 Y1.9742 
G01 X-1.6242 Y1.9685 
G01 X-1.6308 Y1.9641 
G01 X-1.6382 Y1.9611 
G01 X-1.6460 Y1.9595 
G01 X-1.6540 Y1.9595 
G01 X-1.6618 Y1.9611 
G01 X-1.6692 Y1.9641 
G01 X-1.6758 Y1.9685 
G01 X-1.6815 Y1.9742 
G01 X-1.6859 Y1.9808 
G01 X-1.6889 Y1.9882 
G01 X-1.6905 Y1.9960 
G01 X-1.6905 Y2.0040 
G01 X-1.6889 Y2.0118 
G01 X-1.6859 Y2.0192 
G01 X-1.6815 Y2.0258 
G01 X-1.6765 Y2.0308 
G01 X-1.6765 Y2.1614 
G01 X-1.6960 Y2.1809 
G01 X-1.6960 Y2.2191 
G01 X-1.6765 Y2.2386 
G01 X-1.6765 Y2.2932 
G01 X-1.6815 Y2.2982 
G01 X-1.6859 Y2.3048 
G01 X-1.6889 Y2.3122 
G01 X-1.6905 Y2.3200 
G01 X-1.6905 Y2.3800 
G01 X-1.6889 Y2.3878 
G01 X-1.6859 Y2.3952 
G01 X-1.6815 Y2.4018 
G01 X-1.6758 Y2.4075 
G01 X-1.6692 Y2.4119 
G01 X-1.6618 Y2.4149 
G01 X-1.6540 Y2.4165 
G01 X-1.6460 Y2.4165 
G01 X-1.6382 Y2.4149 
G01 X-1.6308 Y2.4119 
G01 X-1.6242 Y2.4075 
G01 X-1.6185 Y2.4018 
G01 X-1.6141 Y2.3952 
G01 X-1.6111 Y2.3878 
G01 X-1.6095 Y2.3800 
G00 Z0.1000 
G00 X-1.7153 Y2.7056 
G01 Z-0.0070 F10.00 
G01 X-1.7111 Y2.6998 F20.00 
G01 X-1.7078 Y2.6935 
G01 X-1.7056 Y2.6867 
G01 X-1.7045 Y2.6796 
G01 X-1.7045 Y2.6204 
G01 X-1.7056 Y2.6133 
G01 X-1.7078 Y2.6065 
G01 X-1.7111 Y2.6002 
G01 X-1.7153 Y2.5944 
G01 X-1.7204 Y2.5893 
G01 X-1.7262 Y2.5851 
G01 X-1.7325 Y2.5818 
G01 X-1.7336 Y2.5815 
G01 X-1.6664 Y2.5815 
G01 X-1.6675 Y2.5818 
G01 X-1.6738 Y2.5851 
G01 X-1.6796 Y2.5893 
G01 X-1.6847 Y2.5944 
G01 X-1.6889 Y2.6002 
G01 X-1.6922 Y2.6065 
G01 X-1.6944 Y2.6133 
G01 X-1.6955 Y2.6204 
G01 X-1.6955 Y2.6796 
G01 X-1.6944 Y2.6867 
G01 X-1.6922 Y2.6935 
G01 X-1.6889 Y2.6998 
G01 X-1.6847 Y2.7056 
G01 X-1.6796 Y2.7107 
G01 X-1.6776 Y2.7122 
G01 X-1.6818 Y2.7146 
G01 X-1.6854 Y2.7182 
G01 X-1.6880 Y2.7227 
G01 X-1.6893 Y2.7276 
G01 X-1.6893 Y2.7685 
G01 X-1.7185 Y2.7685 
G01 X-1.7185 Y2.7088 
G01 X-1.7153 Y2.7056 
G00 Z0.1000 
G00 X-1.2995 Y2.8295 
G01 Z-0.0070 F10.00 
G01 X-1.2995 Y2.8705 F20.00 
G01 X-1.2705 Y2.8995 
G01 X-1.2295 Y2.8995 
G01 X-1.2115 Y2.8815 
G01 X-1.1856 Y2.8815 
G01 X-1.1854 Y2.8818 
G01 X-1.1818 Y2.8854 
G01 X-1.1773 Y2.8880 
G01 X-1.1724 Y2.8893 
G01 X-1.1315 Y2.8893 
G01 X-1.1315 Y2.9185 
G01 X-1.2115 Y2.9185 
G01 X-1.2295 Y2.9005 
G01 X-1.2705 Y2.9005 
G01 X-1.2995 Y2.9295 
G01 X-1.2995 Y2.9705 
G01 X-1.2705 Y2.9995 
G01 X-1.2295 Y2.9995 
G01 X-1.2115 Y2.9815 
G01 X-1.0969 Y2.9815 
G01 X-1.0908 Y2.9803 
G01 X-1.0851 Y2.9779 
G01 X-1.0799 Y2.9745 
G01 X-1.0755 Y2.9701 
G01 X-1.0721 Y2.9649 
G01 X-1.0697 Y2.9592 
G01 X-1.0685 Y2.9531 
G01 X-1.0685 Y2.5399 
G01 X-1.0495 Y2.5209 
G01 X-1.0495 Y2.4791 
G01 X-1.0685 Y2.4601 
G01 X-1.0685 Y1.8469 
G01 X-1.0697 Y1.8408 
G01 X-1.0721 Y1.8351 
G01 X-1.0755 Y1.8299 
G01 X-1.0799 Y1.8255 
G01 X-1.0851 Y1.8221 
G01 X-1.0908 Y1.8197 
G01 X-1.0969 Y1.8185 
G01 X-2.0531 Y1.8185 
G01 X-2.0592 Y1.8197 
G01 X-2.0649 Y1.8221 
G01 X-2.0701 Y1.8255 
G01 X-2.0745 Y1.8299 
G01 X-2.0779 Y1.8351 
G01 X-2.0803 Y1.8408 
G01 X-2.0815 Y1.8469 
G01 X-2.0815 Y2.8863 
G01 X-2.0862 Y2.8911 
G01 X-2.0906 Y2.8971 
G01 X-2.0940 Y2.9038 
G01 X-2.0963 Y2.9109 
G01 X-2.0975 Y2.9183 
G01 X-2.0975 Y2.9817 
G01 X-2.0963 Y2.9891 
G01 X-2.0940 Y2.9962 
G01 X-2.0906 Y3.0029 
G01 X-2.0862 Y3.0089 
G01 X-2.0809 Y3.0142 
G01 X-2.0749 Y3.0186 
G01 X-2.0682 Y3.0220 
G01 X-2.0611 Y3.0243 
G01 X-2.0537 Y3.0255 
G01 X-2.0463 Y3.0255 
G01 X-2.0389 Y3.0243 
G01 X-2.0318 Y3.0220 
G01 X-2.0251 Y3.0186 
G01 X-2.0191 Y3.0142 
G01 X-2.0138 Y3.0089 
G01 X-2.0094 Y3.0029 
G01 X-2.0060 Y2.9962 
G01 X-2.0037 Y2.9891 
G01 X-2.0025 Y2.9817 
G01 X-2.0025 Y2.9183 
G01 X-2.0037 Y2.9109 
G01 X-2.0060 Y2.9038 
G01 X-2.0094 Y2.8971 
G01 X-2.0138 Y2.8911 
G01 X-2.0185 Y2.8863 
G01 X-2.0185 Y2.4510 
G01 X-1.9789 Y2.4510 
G01 X-1.9594 Y2.4315 
G01 X-1.8469 Y2.4315 
G01 X-1.8408 Y2.4303 
G01 X-1.8351 Y2.4279 
G01 X-1.8299 Y2.4245 
G01 X-1.8255 Y2.4201 
G01 X-1.8221 Y2.4149 
G01 X-1.8203 Y2.4107 
G01 X-1.8153 Y2.4056 
G01 X-1.8111 Y2.3998 
G01 X-1.8078 Y2.3935 
G01 X-1.8056 Y2.3867 
G01 X-1.8045 Y2.3796 
G01 X-1.8045 Y2.3204 
G01 X-1.8056 Y2.3133 
G01 X-1.8078 Y2.3065 
G01 X-1.8111 Y2.3002 
G01 X-1.8153 Y2.2944 
G01 X-1.8185 Y2.2912 
G01 X-1.8185 Y2.2406 
G01 X-1.7990 Y2.2211 
G01 X-1.7990 Y2.1789 
G01 X-1.8289 Y2.1490 
G01 X-1.8711 Y2.1490 
G01 X-1.9010 Y2.1789 
G01 X-1.9010 Y2.2211 
G01 X-1.8815 Y2.2406 
G01 X-1.8815 Y2.2912 
G01 X-1.8847 Y2.2944 
G01 X-1.8889 Y2.3002 
G01 X-1.8922 Y2.3065 
G01 X-1.8944 Y2.3133 
G01 X-1.8955 Y2.3204 
G01 X-1.8955 Y2.3685 
G01 X-1.9594 Y2.3685 
G01 X-1.9789 Y2.3490 
G01 X-2.0185 Y2.3490 
G01 X-2.0185 Y2.2510 
G01 X-1.9789 Y2.2510 
G01 X-1.9490 Y2.2211 
G01 X-1.9490 Y2.1789 
G01 X-1.9685 Y2.1594 
G01 X-1.9685 Y2.0315 
G01 X-1.8828 Y2.0315 
G01 X-1.8796 Y2.0347 
G01 X-1.8738 Y2.0389 
G01 X-1.8675 Y2.0422 
G01 X-1.8607 Y2.0444 
G01 X-1.8536 Y2.0455 
G01 X-1.8464 Y2.0455 
G01 X-1.8393 Y2.0444 
G01 X-1.8325 Y2.0422 
G01 X-1.8262 Y2.0389 
G01 X-1.8204 Y2.0347 
G01 X-1.8172 Y2.0315 
G01 X-1.7815 Y2.0315 
G01 X-1.7815 Y2.2912 
G01 X-1.7847 Y2.2944 
G01 X-1.7889 Y2.3002 
G01 X-1.7922 Y2.3065 
G01 X-1.7944 Y2.3133 
G01 X-1.7955 Y2.3204 
G01 X-1.7955 Y2.3796 
G01 X-1.7944 Y2.3867 
G01 X-1.7922 Y2.3935 
G01 X-1.7889 Y2.3998 
G01 X-1.7847 Y2.4056 
G01 X-1.7796 Y2.4107 
G01 X-1.7738 Y2.4149 
G01 X-1.7675 Y2.4182 
G01 X-1.7607 Y2.4204 
G01 X-1.7536 Y2.4215 
G01 X-1.7464 Y2.4215 
G01 X-1.7393 Y2.4204 
G01 X-1.7325 Y2.4182 
G01 X-1.7262 Y2.4149 
G01 X-1.7204 Y2.4107 
G01 X-1.7153 Y2.4056 
G01 X-1.7111 Y2.3998 
G01 X-1.7078 Y2.3935 
G01 X-1.7056 Y2.3867 
G01 X-1.7045 Y2.3796 
G01 X-1.7045 Y2.3204 
G01 X-1.7056 Y2.3133 
G01 X-1.7078 Y2.3065 
G01 X-1.7111 Y2.3002 
G01 X-1.7153 Y2.2944 
G01 X-1.7185 Y2.2912 
G01 X-1.7185 Y1.9969 
G01 X-1.7197 Y1.9908 
G01 X-1.7221 Y1.9851 
G01 X-1.7255 Y1.9799 
G01 X-1.7299 Y1.9755 
G01 X-1.7351 Y1.9721 
G01 X-1.7408 Y1.9697 
G01 X-1.7469 Y1.9685 
G01 X-1.8172 Y1.9685 
G01 X-1.8204 Y1.9653 
G01 X-1.8262 Y1.9611 
G01 X-1.8325 Y1.9578 
G01 X-1.8393 Y1.9556 
G01 X-1.8464 Y1.9545 
G01 X-1.8536 Y1.9545 
G01 X-1.8607 Y1.9556 
G01 X-1.8675 Y1.9578 
G01 X-1.8738 Y1.9611 
G01 X-1.8796 Y1.9653 
G01 X-1.8828 Y1.9685 
G01 X-2.0031 Y1.9685 
G01 X-2.0092 Y1.9697 
G01 X-2.0149 Y1.9721 
G01 X-2.0185 Y1.9745 
G01 X-2.0185 Y1.8815 
G01 X-1.3815 Y1.8815 
G01 X-1.3815 Y2.4025 
G01 X-1.3817 Y2.4025 
G01 X-1.3891 Y2.4037 
G01 X-1.3962 Y2.4060 
G01 X-1.4029 Y2.4094 
G01 X-1.4089 Y2.4138 
G01 X-1.4141 Y2.4190 
G01 X-1.4146 Y2.4182 
G01 X-1.4182 Y2.4146 
G01 X-1.4185 Y2.4144 
G01 X-1.4185 Y2.3469 
G01 X-1.4197 Y2.3408 
G01 X-1.4221 Y2.3351 
G01 X-1.4255 Y2.3299 
G01 X-1.4299 Y2.3255 
G01 X-1.4351 Y2.3221 
G01 X-1.4408 Y2.3197 
G01 X-1.4469 Y2.3185 
G01 X-1.5048 Y2.3185 
G01 X-1.5056 Y2.3133 
G01 X-1.5078 Y2.3065 
G01 X-1.5111 Y2.3002 
G01 X-1.5153 Y2.2944 
G01 X-1.5185 Y2.2912 
G01 X-1.5185 Y2.2828 
G01 X-1.5045 Y2.2688 
G01 X-1.5045 Y2.2312 
G01 X-1.5312 Y2.2045 
G01 X-1.5688 Y2.2045 
G01 X-1.5955 Y2.2312 
G01 X-1.5955 Y2.2688 
G01 X-1.5815 Y2.2828 
G01 X-1.5815 Y2.2912 
G01 X-1.5847 Y2.2944 
G01 X-1.5889 Y2.3002 
G01 X-1.5922 Y2.3065 
G01 X-1.5944 Y2.3133 
G01 X-1.5955 Y2.3204 
G01 X-1.5955 Y2.3796 
G01 X-1.5944 Y2.3867 
G01 X-1.5922 Y2.3935 
G01 X-1.5889 Y2.3998 
G01 X-1.5847 Y2.4056 
G01 X-1.5796 Y2.4107 
G01 X-1.5738 Y2.4149 
G01 X-1.5675 Y2.4182 
G01 X-1.5607 Y2.4204 
G01 X-1.5536 Y2.4215 
G01 X-1.5464 Y2.4215 
G01 X-1.5393 Y2.4204 
G01 X-1.5325 Y2.4182 
G01 X-1.5262 Y2.4149 
G01 X-1.5204 Y2.4107 
G01 X-1.5153 Y2.4056 
G01 X-1.5111 Y2.3998 
G01 X-1.5078 Y2.3935 
G01 X-1.5056 Y2.3867 
G01 X-1.5048 Y2.3815 
G01 X-1.4815 Y2.3815 
G01 X-1.4815 Y2.4144 
G01 X-1.4818 Y2.4146 
G01 X-1.4854 Y2.4182 
G01 X-1.4880 Y2.4227 
G01 X-1.4893 Y2.4276 
G01 X-1.4893 Y2.4724 
G01 X-1.4880 Y2.4773 
G01 X-1.4854 Y2.4818 
G01 X-1.4818 Y2.4854 
G01 X-1.4773 Y2.4880 
G01 X-1.4724 Y2.4893 
G01 X-1.4276 Y2.4893 
G01 X-1.4227 Y2.4880 
G01 X-1.4182 Y2.4854 
G01 X-1.4146 Y2.4818 
G01 X-1.4141 Y2.4810 
G01 X-1.4089 Y2.4862 
G01 X-1.4029 Y2.4906 
G01 X-1.3962 Y2.4940 
G01 X-1.3891 Y2.4963 
G01 X-1.3817 Y2.4975 
G01 X-1.3183 Y2.4975 
G01 X-1.3109 Y2.4963 
G01 X-1.3038 Y2.4940 
G01 X-1.2971 Y2.4906 
G01 X-1.2911 Y2.4862 
G01 X-1.2858 Y2.4809 
G01 X-1.2814 Y2.4749 
G01 X-1.2780 Y2.4682 
G01 X-1.2757 Y2.4611 
G01 X-1.2745 Y2.4537 
G01 X-1.2745 Y2.4463 
G01 X-1.2757 Y2.4389 
G01 X-1.2780 Y2.4318 
G01 X-1.2814 Y2.4251 
G01 X-1.2858 Y2.4191 
G01 X-1.2911 Y2.4138 
G01 X-1.2971 Y2.4094 
G01 X-1.3038 Y2.4060 
G01 X-1.3109 Y2.4037 
G01 X-1.3183 Y2.4025 
G01 X-1.3185 Y2.4025 
G01 X-1.3185 Y1.8815 
G01 X-1.2315 Y1.8815 
G01 X-1.2315 Y1.9672 
G01 X-1.2455 Y1.9812 
G01 X-1.2455 Y2.0188 
G01 X-1.2188 Y2.0455 
G01 X-1.1812 Y2.0455 
G01 X-1.1545 Y2.0188 
G01 X-1.1545 Y1.9812 
G01 X-1.1685 Y1.9672 
G01 X-1.1685 Y1.8815 
G01 X-1.1315 Y1.8815 
G01 X-1.1315 Y2.4601 
G01 X-1.1505 Y2.4791 
G01 X-1.1505 Y2.4897 
G01 X-1.1507 Y2.4882 
G01 X-1.1532 Y2.4806 
G01 X-1.1568 Y2.4735 
G01 X-1.1615 Y2.4671 
G01 X-1.1671 Y2.4615 
G01 X-1.1685 Y2.4605 
G01 X-1.1685 Y2.1328 
G01 X-1.1545 Y2.1188 
G01 X-1.1545 Y2.0812 
G01 X-1.1812 Y2.0545 
G01 X-1.2188 Y2.0545 
G01 X-1.2455 Y2.0812 
G01 X-1.2455 Y2.1188 
G01 X-1.2315 Y2.1328 
G01 X-1.2315 Y2.2045 
G01 X-1.2688 Y2.2045 
G01 X-1.2955 Y2.2312 
G01 X-1.2955 Y2.2688 
G01 X-1.2688 Y2.2955 
G01 X-1.2315 Y2.2955 
G01 X-1.2315 Y2.4605 
G01 X-1.2329 Y2.4615 
G01 X-1.2385 Y2.4671 
G01 X-1.2432 Y2.4735 
G01 X-1.2468 Y2.4806 
G01 X-1.2493 Y2.4882 
G01 X-1.2505 Y2.4960 
G01 X-1.2505 Y2.5040 
G01 X-1.2493 Y2.5118 
G01 X-1.2471 Y2.5185 
G01 X-1.2863 Y2.5185 
G01 X-1.2911 Y2.5138 
G01 X-1.2971 Y2.5094 
G01 X-1.3038 Y2.5060 
G01 X-1.3109 Y2.5037 
G01 X-1.3183 Y2.5025 
G01 X-1.3817 Y2.5025 
G01 X-1.3891 Y2.5037 
G01 X-1.3962 Y2.5060 
G01 X-1.4029 Y2.5094 
G01 X-1.4089 Y2.5138 
G01 X-1.4137 Y2.5185 
G01 X-1.9531 Y2.5185 
G01 X-1.9592 Y2.5197 
G01 X-1.9649 Y2.5221 
G01 X-1.9701 Y2.5255 
G01 X-1.9745 Y2.5299 
G01 X-1.9779 Y2.5351 
G01 X-1.9803 Y2.5408 
G01 X-1.9815 Y2.5469 
G01 X-1.9815 Y2.8863 
G01 X-1.9862 Y2.8911 
G01 X-1.9906 Y2.8971 
G01 X-1.9940 Y2.9038 
G01 X-1.9963 Y2.9109 
G01 X-1.9975 Y2.9183 
G01 X-1.9975 Y2.9817 
G01 X-1.9963 Y2.9891 
G01 X-1.9940 Y2.9962 
G01 X-1.9906 Y3.0029 
G01 X-1.9862 Y3.0089 
G01 X-1.9809 Y3.0142 
G01 X-1.9749 Y3.0186 
G01 X-1.9682 Y3.0220 
G01 X-1.9611 Y3.0243 
G01 X-1.9537 Y3.0255 
G01 X-1.9463 Y3.0255 
G01 X-1.9389 Y3.0243 
G01 X-1.9318 Y3.0220 
G01 X-1.9251 Y3.0186 
G01 X-1.9191 Y3.0142 
G01 X-1.9138 Y3.0089 
G01 X-1.9094 Y3.0029 
G01 X-1.9060 Y2.9962 
G01 X-1.9037 Y2.9891 
G01 X-1.9025 Y2.9817 
G01 X-1.9025 Y2.9183 
G01 X-1.9037 Y2.9109 
G01 X-1.9060 Y2.9038 
G01 X-1.9094 Y2.8971 
G01 X-1.9138 Y2.8911 
G01 X-1.9185 Y2.8863 
G01 X-1.9185 Y2.5815 
G01 X-1.8664 Y2.5815 
G01 X-1.8675 Y2.5818 
G01 X-1.8738 Y2.5851 
G01 X-1.8796 Y2.5893 
G01 X-1.8847 Y2.5944 
G01 X-1.8889 Y2.6002 
G01 X-1.8922 Y2.6065 
G01 X-1.8944 Y2.6133 
G01 X-1.8955 Y2.6204 
G01 X-1.8955 Y2.6796 
G01 X-1.8944 Y2.6867 
G01 X-1.8922 Y2.6935 
G01 X-1.8889 Y2.6998 
G01 X-1.8847 Y2.7056 
G01 X-1.8815 Y2.7088 
G01 X-1.8815 Y2.9117 
G01 X-1.8822 Y2.9122 
G01 X-1.8878 Y2.9178 
G01 X-1.8923 Y2.9241 
G01 X-1.8959 Y2.9310 
G01 X-1.8983 Y2.9384 
G01 X-1.8995 Y2.9461 
G01 X-1.8995 Y2.9539 
G01 X-1.8983 Y2.9616 
G01 X-1.8959 Y2.9690 
G01 X-1.8923 Y2.9759 
G01 X-1.8878 Y2.9822 
G01 X-1.8822 Y2.9878 
G01 X-1.8815 Y2.9883 
G01 X-1.8815 Y3.0531 
G01 X-1.8803 Y3.0592 
G01 X-1.8779 Y3.0649 
G01 X-1.8745 Y3.0701 
G01 X-1.8701 Y3.0745 
G01 X-1.8649 Y3.0779 
G01 X-1.8592 Y3.0803 
G01 X-1.8531 Y3.0815 
G01 X-1.1856 Y3.0815 
G01 X-1.1854 Y3.0818 
G01 X-1.1818 Y3.0854 
G01 X-1.1773 Y3.0880 
G01 X-1.1724 Y3.0893 
G01 X-1.1276 Y3.0893 
G01 X-1.1227 Y3.0880 
G01 X-1.1182 Y3.0854 
G01 X-1.1146 Y3.0818 
G01 X-1.1120 Y3.0773 
G01 X-1.1107 Y3.0724 
G01 X-1.1107 Y3.0276 
G01 X-1.1120 Y3.0227 
G01 X-1.1146 Y3.0182 
G01 X-1.1182 Y3.0146 
G01 X-1.1227 Y3.0120 
G01 X-1.1276 Y3.0107 
G01 X-1.1724 Y3.0107 
G01 X-1.1773 Y3.0120 
G01 X-1.1818 Y3.0146 
G01 X-1.1854 Y3.0182 
G01 X-1.1856 Y3.0185 
G01 X-1.8185 Y3.0185 
G01 X-1.8185 Y2.9883 
G01 X-1.8178 Y2.9878 
G01 X-1.8122 Y2.9822 
G01 X-1.8077 Y2.9759 
G01 X-1.8041 Y2.9690 
G01 X-1.8017 Y2.9616 
G01 X-1.8005 Y2.9539 
G01 X-1.8005 Y2.9461 
G01 X-1.8017 Y2.9384 
G01 X-1.8041 Y2.9310 
G01 X-1.8077 Y2.9241 
G01 X-1.8122 Y2.9178 
G01 X-1.8178 Y2.9122 
G01 X-1.8185 Y2.9117 
G01 X-1.8185 Y2.7088 
G01 X-1.8153 Y2.7056 
G01 X-1.8111 Y2.6998 
G01 X-1.8078 Y2.6935 
G01 X-1.8056 Y2.6867 
G01 X-1.8045 Y2.6796 
G01 X-1.8045 Y2.6204 
G01 X-1.8056 Y2.6133 
G01 X-1.8078 Y2.6065 
G01 X-1.8111 Y2.6002 
G01 X-1.8153 Y2.5944 
G01 X-1.8204 Y2.5893 
G01 X-1.8262 Y2.5851 
G01 X-1.8325 Y2.5818 
G01 X-1.8336 Y2.5815 
G01 X-1.7664 Y2.5815 
G01 X-1.7675 Y2.5818 
G01 X-1.7738 Y2.5851 
G01 X-1.7796 Y2.5893 
G01 X-1.7847 Y2.5944 
G01 X-1.7889 Y2.6002 
G01 X-1.7922 Y2.6065 
G01 X-1.7944 Y2.6133 
G01 X-1.7955 Y2.6204 
G01 X-1.7955 Y2.6796 
G01 X-1.7944 Y2.6867 
G01 X-1.7922 Y2.6935 
G01 X-1.7889 Y2.6998 
G01 X-1.7847 Y2.7056 
G01 X-1.7815 Y2.7088 
G01 X-1.7815 Y2.9117 
G01 X-1.7822 Y2.9122 
G01 X-1.7878 Y2.9178 
G01 X-1.7923 Y2.9241 
G01 X-1.7959 Y2.9310 
G01 X-1.7983 Y2.9384 
G01 X-1.7995 Y2.9461 
G01 X-1.7995 Y2.9539 
G01 X-1.7983 Y2.9616 
G01 X-1.7959 Y2.9690 
G01 X-1.7923 Y2.9759 
G01 X-1.7878 Y2.9822 
G01 X-1.7822 Y2.9878 
G01 X-1.7759 Y2.9923 
G01 X-1.7690 Y2.9959 
G01 X-1.7616 Y2.9983 
G01 X-1.7539 Y2.9995 
G01 X-1.7461 Y2.9995 
G01 X-1.7384 Y2.9983 
G01 X-1.7310 Y2.9959 
G01 X-1.7241 Y2.9923 
G01 X-1.7178 Y2.9878 
G01 X-1.7122 Y2.9822 
G01 X-1.7077 Y2.9759 
G01 X-1.7041 Y2.9690 
G01 X-1.7017 Y2.9616 
G01 X-1.7005 Y2.9539 
G01 X-1.7005 Y2.9461 
G01 X-1.7017 Y2.9384 
G01 X-1.7041 Y2.9310 
G01 X-1.7077 Y2.9241 
G01 X-1.7122 Y2.9178 
G01 X-1.7178 Y2.9122 
G01 X-1.7185 Y2.9117 
G01 X-1.7185 Y2.8315 
G01 X-1.6893 Y2.8315 
G01 X-1.6893 Y2.8724 
G01 X-1.6880 Y2.8773 
G01 X-1.6854 Y2.8818 
G01 X-1.6818 Y2.8854 
G01 X-1.6815 Y2.8856 
G01 X-1.6815 Y2.9117 
G01 X-1.6822 Y2.9122 
G01 X-1.6878 Y2.9178 
G01 X-1.6923 Y2.9241 
G01 X-1.6959 Y2.9310 
G01 X-1.6983 Y2.9384 
G01 X-1.6995 Y2.9461 
G01 X-1.6995 Y2.9539 
G01 X-1.6983 Y2.9616 
G01 X-1.6959 Y2.9690 
G01 X-1.6923 Y2.9759 
G01 X-1.6878 Y2.9822 
G01 X-1.6822 Y2.9878 
G01 X-1.6759 Y2.9923 
G01 X-1.6690 Y2.9959 
G01 X-1.6616 Y2.9983 
G01 X-1.6539 Y2.9995 
G01 X-1.6461 Y2.9995 
G01 X-1.6384 Y2.9983 
G01 X-1.6310 Y2.9959 
G01 X-1.6241 Y2.9923 
G01 X-1.6178 Y2.9878 
G01 X-1.6122 Y2.9822 
G01 X-1.6077 Y2.9759 
G01 X-1.6041 Y2.9690 
G01 X-1.6017 Y2.9616 
G01 X-1.6005 Y2.9539 
G01 X-1.6005 Y2.9461 
G01 X-1.6017 Y2.9384 
G01 X-1.6041 Y2.9310 
G01 X-1.6077 Y2.9241 
G01 X-1.6122 Y2.9178 
G01 X-1.6178 Y2.9122 
G01 X-1.6185 Y2.9117 
G01 X-1.6185 Y2.8856 
G01 X-1.6182 Y2.8854 
G01 X-1.6146 Y2.8818 
G01 X-1.6144 Y2.8815 
G01 X-1.3885 Y2.8815 
G01 X-1.3705 Y2.8995 
G01 X-1.3295 Y2.8995 
G01 X-1.3005 Y2.8705 
G01 X-1.3005 Y2.8295 
G01 X-1.3295 Y2.8005 
G01 X-1.3705 Y2.8005 
G01 X-1.3885 Y2.8185 
G01 X-1.4240 Y2.8185 
G01 X-1.3877 Y2.7823 
G01 X-1.3822 Y2.7878 
G01 X-1.3759 Y2.7923 
G01 X-1.3690 Y2.7959 
G01 X-1.3616 Y2.7983 
G01 X-1.3539 Y2.7995 
G01 X-1.3461 Y2.7995 
G01 X-1.3384 Y2.7983 
G01 X-1.3310 Y2.7959 
G01 X-1.3241 Y2.7923 
G01 X-1.3178 Y2.7878 
G01 X-1.3122 Y2.7822 
G01 X-1.3077 Y2.7759 
G01 X-1.3041 Y2.7690 
G01 X-1.3017 Y2.7616 
G01 X-1.3005 Y2.7539 
G01 X-1.3005 Y2.7461 
G01 X-1.3017 Y2.7384 
G01 X-1.3041 Y2.7310 
G01 X-1.3077 Y2.7241 
G01 X-1.3122 Y2.7178 
G01 X-1.3178 Y2.7122 
G01 X-1.3241 Y2.7077 
G01 X-1.3310 Y2.7041 
G01 X-1.3384 Y2.7017 
G01 X-1.3461 Y2.7005 
G01 X-1.3539 Y2.7005 
G01 X-1.3616 Y2.7017 
G01 X-1.3690 Y2.7041 
G01 X-1.3759 Y2.7077 
G01 X-1.3822 Y2.7122 
G01 X-1.3878 Y2.7178 
G01 X-1.3883 Y2.7185 
G01 X-1.4031 Y2.7185 
G01 X-1.4092 Y2.7197 
G01 X-1.4149 Y2.7221 
G01 X-1.4201 Y2.7255 
G01 X-1.4630 Y2.7685 
G01 X-1.6107 Y2.7685 
G01 X-1.6107 Y2.7276 
G01 X-1.6120 Y2.7227 
G01 X-1.6146 Y2.7182 
G01 X-1.6182 Y2.7146 
G01 X-1.6224 Y2.7122 
G01 X-1.6204 Y2.7107 
G01 X-1.6153 Y2.7056 
G01 X-1.6111 Y2.6998 
G01 X-1.6078 Y2.6935 
G01 X-1.6056 Y2.6867 
G01 X-1.6045 Y2.6796 
G01 X-1.6045 Y2.6204 
G01 X-1.6056 Y2.6133 
G01 X-1.6078 Y2.6065 
G01 X-1.6111 Y2.6002 
G01 X-1.6153 Y2.5944 
G01 X-1.6204 Y2.5893 
G01 X-1.6262 Y2.5851 
G01 X-1.6325 Y2.5818 
G01 X-1.6336 Y2.5815 
G01 X-1.5775 Y2.5815 
G01 X-1.5775 Y2.5877 
G01 X-1.5796 Y2.5893 
G01 X-1.5847 Y2.5944 
G01 X-1.5889 Y2.6002 
G01 X-1.5922 Y2.6065 
G01 X-1.5944 Y2.6133 
G01 X-1.5955 Y2.6204 
G01 X-1.5955 Y2.6796 
G01 X-1.5944 Y2.6867 
G01 X-1.5922 Y2.6935 
G01 X-1.5889 Y2.6998 
G01 X-1.5847 Y2.7056 
G01 X-1.5796 Y2.7107 
G01 X-1.5738 Y2.7149 
G01 X-1.5675 Y2.7182 
G01 X-1.5607 Y2.7204 
G01 X-1.5536 Y2.7215 
G01 X-1.5464 Y2.7215 
G01 X-1.5393 Y2.7204 
G01 X-1.5325 Y2.7182 
G01 X-1.5262 Y2.7149 
G01 X-1.5204 Y2.7107 
G01 X-1.5153 Y2.7056 
G01 X-1.5111 Y2.6998 
G01 X-1.5078 Y2.6935 
G01 X-1.5056 Y2.6867 
G01 X-1.5045 Y2.6796 
G01 X-1.5045 Y2.6204 
G01 X-1.5056 Y2.6133 
G01 X-1.5078 Y2.6065 
G01 X-1.5111 Y2.6002 
G01 X-1.5153 Y2.5944 
G01 X-1.5204 Y2.5893 
G01 X-1.5225 Y2.5877 
G01 X-1.5225 Y2.5815 
G01 X-1.4137 Y2.5815 
G01 X-1.4089 Y2.5862 
G01 X-1.4029 Y2.5906 
G01 X-1.3962 Y2.5940 
G01 X-1.3891 Y2.5963 
G01 X-1.3817 Y2.5975 
G01 X-1.3183 Y2.5975 
G01 X-1.3109 Y2.5963 
G01 X-1.3038 Y2.5940 
G01 X-1.2971 Y2.5906 
G01 X-1.2911 Y2.5862 
G01 X-1.2863 Y2.5815 
G01 X-1.2315 Y2.5815 
G01 X-1.2315 Y2.7005 
G01 X-1.2705 Y2.7005 
G01 X-1.2995 Y2.7295 
G01 X-1.2995 Y2.7705 
G01 X-1.2705 Y2.7995 
G01 X-1.2295 Y2.7995 
G01 X-1.2115 Y2.7815 
G01 X-1.1969 Y2.7815 
G01 X-1.1908 Y2.7803 
G01 X-1.1851 Y2.7779 
G01 X-1.1799 Y2.7745 
G01 X-1.1755 Y2.7701 
G01 X-1.1721 Y2.7649 
G01 X-1.1697 Y2.7592 
G01 X-1.1685 Y2.7531 
G01 X-1.1685 Y2.5395 
G01 X-1.1671 Y2.5385 
G01 X-1.1615 Y2.5329 
G01 X-1.1568 Y2.5265 
G01 X-1.1532 Y2.5194 
G01 X-1.1507 Y2.5118 
G01 X-1.1505 Y2.5103 
G01 X-1.1505 Y2.5209 
G01 X-1.1315 Y2.5399 
G01 X-1.1315 Y2.8107 
G01 X-1.1724 Y2.8107 
G01 X-1.1773 Y2.8120 
G01 X-1.1818 Y2.8146 
G01 X-1.1854 Y2.8182 
G01 X-1.1856 Y2.8185 
G01 X-1.2115 Y2.8185 
G01 X-1.2295 Y2.8005 
G01 X-1.2705 Y2.8005 
G01 X-1.2995 Y2.8295 
G00 Z0.1000 
G00 X-1.3705 Y2.9995 
G01 Z-0.0070 F10.00 
G01 X-1.3295 Y2.9995 F20.00 
G01 X-1.3005 Y2.9705 
G01 X-1.3005 Y2.9295 
G01 X-1.3295 Y2.9005 
G01 X-1.3705 Y2.9005 
G01 X-1.3885 Y2.9185 
G01 X-1.4144 Y2.9185 
G01 X-1.4146 Y2.9182 
G01 X-1.4182 Y2.9146 
G01 X-1.4227 Y2.9120 
G01 X-1.4276 Y2.9107 
G01 X-1.4724 Y2.9107 
G01 X-1.4773 Y2.9120 
G01 X-1.4818 Y2.9146 
G01 X-1.4854 Y2.9182 
G01 X-1.4856 Y2.9185 
G01 X-1.5005 Y2.9185 
G01 X-1.5005 Y2.9174 
G01 X-1.5018 Y2.9125 
G01 X-1.5044 Y2.9080 
G01 X-1.5080 Y2.9044 
G01 X-1.5125 Y2.9018 
G01 X-1.5174 Y2.9005 
G01 X-1.5826 Y2.9005 
G01 X-1.5875 Y2.9018 
G01 X-1.5920 Y2.9044 
G01 X-1.5956 Y2.9080 
G01 X-1.5982 Y2.9125 
G01 X-1.5995 Y2.9174 
G01 X-1.5995 Y2.9826 
G01 X-1.5982 Y2.9875 
G01 X-1.5956 Y2.9920 
G01 X-1.5920 Y2.9956 
G01 X-1.5875 Y2.9982 
G01 X-1.5826 Y2.9995 
G01 X-1.5174 Y2.9995 
G01 X-1.5125 Y2.9982 
G01 X-1.5080 Y2.9956 
G01 X-1.5044 Y2.9920 
G01 X-1.5018 Y2.9875 
G01 X-1.5005 Y2.9826 
G01 X-1.5005 Y2.9815 
G01 X-1.4856 Y2.9815 
G01 X-1.4854 Y2.9818 
G01 X-1.4818 Y2.9854 
G01 X-1.4773 Y2.9880 
G01 X-1.4724 Y2.9893 
G01 X-1.4276 Y2.9893 
G01 X-1.4227 Y2.9880 
G01 X-1.4182 Y2.9854 
G01 X-1.4146 Y2.9818 
G01 X-1.4144 Y2.9815 
G01 X-1.3885 Y2.9815 
G01 X-1.3705 Y2.9995 
G00 Z0.1000 
G00 X-1.6045 Y2.3796 
G01 Z-0.0070 F10.00 
G01 X-1.6045 Y2.3204 F20.00 
G01 X-1.6056 Y2.3133 
G01 X-1.6078 Y2.3065 
G01 X-1.6111 Y2.3002 
G01 X-1.6153 Y2.2944 
G01 X-1.6185 Y2.2912 
G01 X-1.6185 Y2.2406 
G01 X-1.5990 Y2.2211 
G01 X-1.5990 Y2.1789 
G01 X-1.6185 Y2.1594 
G01 X-1.6185 Y2.0328 
G01 X-1.6153 Y2.0296 
G01 X-1.6111 Y2.0238 
G01 X-1.6078 Y2.0175 
G01 X-1.6056 Y2.0107 
G01 X-1.6045 Y2.0036 
G01 X-1.6045 Y1.9964 
G01 X-1.6056 Y1.9893 
G01 X-1.6078 Y1.9825 
G01 X-1.6111 Y1.9762 
G01 X-1.6153 Y1.9704 
G01 X-1.6204 Y1.9653 
G01 X-1.6262 Y1.9611 
G01 X-1.6325 Y1.9578 
G01 X-1.6393 Y1.9556 
G01 X-1.6464 Y1.9545 
G01 X-1.6536 Y1.9545 
G01 X-1.6607 Y1.9556 
G01 X-1.6675 Y1.9578 
G01 X-1.6738 Y1.9611 
G01 X-1.6796 Y1.9653 
G01 X-1.6847 Y1.9704 
G01 X-1.6889 Y1.9762 
G01 X-1.6922 Y1.9825 
G01 X-1.6944 Y1.9893 
G01 X-1.6955 Y1.9964 
G01 X-1.6955 Y2.0036 
G01 X-1.6944 Y2.0107 
G01 X-1.6922 Y2.0175 
G01 X-1.6889 Y2.0238 
G01 X-1.6847 Y2.0296 
G01 X-1.6815 Y2.0328 
G01 X-1.6815 Y2.1594 
G01 X-1.7010 Y2.1789 
G01 X-1.7010 Y2.2211 
G01 X-1.6815 Y2.2406 
G01 X-1.6815 Y2.2912 
G01 X-1.6847 Y2.2944 
G01 X-1.6889 Y2.3002 
G01 X-1.6922 Y2.3065 
G01 X-1.6944 Y2.3133 
G01 X-1.6955 Y2.3204 
G01 X-1.6955 Y2.3796 
G01 X-1.6944 Y2.3867 
G01 X-1.6922 Y2.3935 
G01 X-1.6889 Y2.3998 
G01 X-1.6847 Y2.4056 
G01 X-1.6796 Y2.4107 
G01 X-1.6738 Y2.4149 
G01 X-1.6675 Y2.4182 
G01 X-1.6607 Y2.4204 
G01 X-1.6536 Y2.4215 
G01 X-1.6464 Y2.4215 
G01 X-1.6393 Y2.4204 
G01 X-1.6325 Y2.4182 
G01 X-1.6262 Y2.4149 
G01 X-1.6204 Y2.4107 
G01 X-1.6153 Y2.4056 
G01 X-1.6111 Y2.3998 
G01 X-1.6078 Y2.3935 
G01 X-1.6056 Y2.3867 
G01 X-1.6045 Y2.3796 
G00 Z0.1000 
G00 X-1.4963 Y2.9135 
G01 Z-0.0070 F10.00 
G01 X-1.4964 Y2.9129 F20.00 
G01 X-1.4983 Y2.9084 
G01 X-1.5010 Y2.9044 
G01 X-1.5044 Y2.9010 
G01 X-1.5084 Y2.8983 
G01 X-1.5129 Y2.8964 
G01 X-1.5176 Y2.8955 
G01 X-1.5824 Y2.8955 
G01 X-1.5871 Y2.8964 
G01 X-1.5916 Y2.8983 
G01 X-1.5956 Y2.9010 
G01 X-1.5990 Y2.9044 
G01 X-1.6017 Y2.9084 
G01 X-1.6036 Y2.9129 
G01 X-1.6045 Y2.9176 
G01 X-1.6045 Y2.9199 
G01 X-1.6084 Y2.9145 
G01 X-1.6135 Y2.9094 
G01 X-1.6135 Y2.8878 
G01 X-1.6122 Y2.8865 
G01 X-1.3906 Y2.8865 
G01 X-1.3771 Y2.9000 
G01 X-1.3906 Y2.9135 
G01 X-1.4122 Y2.9135 
G01 X-1.4146 Y2.9112 
G01 X-1.4186 Y2.9085 
G01 X-1.4230 Y2.9066 
G01 X-1.4278 Y2.9057 
G01 X-1.4722 Y2.9057 
G01 X-1.4770 Y2.9066 
G01 X-1.4814 Y2.9085 
G01 X-1.4854 Y2.9112 
G01 X-1.4878 Y2.9135 
G01 X-1.4963 Y2.9135 
G00 Z0.1000 
G00 X-1.3247 Y2.7983 
G01 Z-0.0070 F10.00 
G01 X-1.3214 Y2.7966 F20.00 
G01 X-1.3145 Y2.7916 
G01 X-1.3084 Y2.7855 
G01 X-1.3034 Y2.7786 
G01 X-1.3017 Y2.7753 
G01 X-1.2771 Y2.8000 
G01 X-1.3000 Y2.8229 
G01 X-1.3247 Y2.7983 
G00 Z0.1000 
G00 X-1.3229 Y2.9000 
G01 Z-0.0070 F10.00 
G01 X-1.3000 Y2.8771 F20.00 
G01 X-1.2771 Y2.9000 
G01 X-1.3000 Y2.9229 
G01 X-1.3229 Y2.9000 
G00 Z0.1000 
G00 X-1.8007 Y2.6122 
G01 Z-0.0070 F10.00 
G01 X-1.8032 Y2.6046 F20.00 
G01 X-1.8068 Y2.5975 
G01 X-1.8115 Y2.5911 
G01 X-1.8161 Y2.5865 
G01 X-1.7839 Y2.5865 
G01 X-1.7885 Y2.5911 
G01 X-1.7932 Y2.5975 
G01 X-1.7968 Y2.6046 
G01 X-1.7993 Y2.6122 
G01 X-1.8000 Y2.6169 
G01 X-1.8007 Y2.6122 
G00 Z0.1000 
G00 X-1.5885 Y2.5911 
G01 Z-0.0070 F10.00 
G01 X-1.5932 Y2.5975 F20.00 
G01 X-1.5968 Y2.6046 
G01 X-1.5993 Y2.6122 
G01 X-1.6000 Y2.6169 
G01 X-1.6007 Y2.6122 
G01 X-1.6032 Y2.6046 
G01 X-1.6068 Y2.5975 
G01 X-1.6115 Y2.5911 
G01 X-1.6161 Y2.5865 
G01 X-1.5839 Y2.5865 
G01 X-1.5885 Y2.5911 
G00 Z0.1000 
G00 X-1.6885 Y2.5911 
G01 Z-0.0070 F10.00 
G01 X-1.6932 Y2.5975 F20.00 
G01 X-1.6968 Y2.6046 
G01 X-1.6993 Y2.6122 
G01 X-1.7000 Y2.6169 
G01 X-1.7007 Y2.6122 
G01 X-1.7032 Y2.6046 
G01 X-1.7068 Y2.5975 
G01 X-1.7115 Y2.5911 
G01 X-1.7161 Y2.5865 
G01 X-1.6839 Y2.5865 
G01 X-1.6885 Y2.5911 
G00 Z0.1000 
G00 X-1.4122 Y2.4900 
G01 Z-0.0070 F10.00 
G01 X-1.4055 Y2.4949 F20.00 
G01 X-1.3982 Y2.4987 
G01 X-1.3940 Y2.5000 
G01 X-1.3982 Y2.5013 
G01 X-1.4055 Y2.5051 
G01 X-1.4122 Y2.5100 
G01 X-1.4157 Y2.5135 
G01 X-1.9536 Y2.5135 
G01 X-1.9606 Y2.5149 
G01 X-1.9673 Y2.5177 
G01 X-1.9733 Y2.5216 
G01 X-1.9784 Y2.5267 
G01 X-1.9823 Y2.5327 
G01 X-1.9851 Y2.5394 
G01 X-1.9865 Y2.5464 
G01 X-1.9865 Y2.8843 
G01 X-1.9900 Y2.8878 
G01 X-1.9949 Y2.8945 
G01 X-1.9987 Y2.9018 
G01 X-2.0000 Y2.9060 
G01 X-2.0013 Y2.9018 
G01 X-2.0051 Y2.8945 
G01 X-2.0100 Y2.8878 
G01 X-2.0135 Y2.8843 
G01 X-2.0135 Y2.4560 
G01 X-1.9768 Y2.4560 
G01 X-1.9573 Y2.4365 
G01 X-1.8464 Y2.4365 
G01 X-1.8394 Y2.4351 
G01 X-1.8327 Y2.4323 
G01 X-1.8267 Y2.4284 
G01 X-1.8216 Y2.4233 
G01 X-1.8177 Y2.4173 
G01 X-1.8161 Y2.4135 
G01 X-1.8115 Y2.4089 
G01 X-1.8068 Y2.4025 
G01 X-1.8032 Y2.3954 
G01 X-1.8007 Y2.3878 
G01 X-1.8000 Y2.3831 
G01 X-1.7993 Y2.3878 
G01 X-1.7968 Y2.3954 
G01 X-1.7932 Y2.4025 
G01 X-1.7885 Y2.4089 
G01 X-1.7829 Y2.4145 
G01 X-1.7765 Y2.4192 
G01 X-1.7694 Y2.4228 
G01 X-1.7618 Y2.4253 
G01 X-1.7540 Y2.4265 
G01 X-1.7460 Y2.4265 
G01 X-1.7382 Y2.4253 
G01 X-1.7306 Y2.4228 
G01 X-1.7235 Y2.4192 
G01 X-1.7171 Y2.4145 
G01 X-1.7115 Y2.4089 
G01 X-1.7068 Y2.4025 
G01 X-1.7032 Y2.3954 
G01 X-1.7007 Y2.3878 
G01 X-1.7000 Y2.3831 
G01 X-1.6993 Y2.3878 
G01 X-1.6968 Y2.3954 
G01 X-1.6932 Y2.4025 
G01 X-1.6885 Y2.4089 
G01 X-1.6829 Y2.4145 
G01 X-1.6765 Y2.4192 
G01 X-1.6694 Y2.4228 
G01 X-1.6618 Y2.4253 
G01 X-1.6540 Y2.4265 
G01 X-1.6460 Y2.4265 
G01 X-1.6382 Y2.4253 
G01 X-1.6306 Y2.4228 
G01 X-1.6235 Y2.4192 
G01 X-1.6171 Y2.4145 
G01 X-1.6115 Y2.4089 
G01 X-1.6068 Y2.4025 
G01 X-1.6032 Y2.3954 
G01 X-1.6007 Y2.3878 
G01 X-1.6000 Y2.3831 
G01 X-1.5993 Y2.3878 
G01 X-1.5968 Y2.3954 
G01 X-1.5932 Y2.4025 
G01 X-1.5885 Y2.4089 
G01 X-1.5829 Y2.4145 
G01 X-1.5765 Y2.4192 
G01 X-1.5694 Y2.4228 
G01 X-1.5618 Y2.4253 
G01 X-1.5540 Y2.4265 
G01 X-1.5460 Y2.4265 
G01 X-1.5382 Y2.4253 
G01 X-1.5306 Y2.4228 
G01 X-1.5235 Y2.4192 
G01 X-1.5171 Y2.4145 
G01 X-1.5115 Y2.4089 
G01 X-1.5068 Y2.4025 
G01 X-1.5032 Y2.3954 
G01 X-1.5007 Y2.3878 
G01 X-1.5005 Y2.3865 
G01 X-1.4865 Y2.3865 
G01 X-1.4865 Y2.4122 
G01 X-1.4888 Y2.4146 
G01 X-1.4915 Y2.4186 
G01 X-1.4934 Y2.4230 
G01 X-1.4943 Y2.4278 
G01 X-1.4943 Y2.4722 
G01 X-1.4934 Y2.4770 
G01 X-1.4915 Y2.4814 
G01 X-1.4888 Y2.4854 
G01 X-1.4854 Y2.4888 
G01 X-1.4814 Y2.4915 
G01 X-1.4770 Y2.4934 
G01 X-1.4722 Y2.4943 
G01 X-1.4278 Y2.4943 
G01 X-1.4230 Y2.4934 
G01 X-1.4186 Y2.4915 
G01 X-1.4146 Y2.4888 
G01 X-1.4140 Y2.4883 
G01 X-1.4122 Y2.4900 
G00 Z0.1000 
G00 X-2.0135 Y1.8865 
G01 Z-0.0070 F10.00 
G01 X-1.3865 Y1.8865 F20.00 
G01 X-1.3865 Y2.3982 
G01 X-1.3903 Y2.3988 
G01 X-1.3982 Y2.4013 
G01 X-1.4055 Y2.4051 
G01 X-1.4122 Y2.4100 
G01 X-1.4135 Y2.4113 
G01 X-1.4135 Y2.3464 
G01 X-1.4149 Y2.3394 
G01 X-1.4177 Y2.3327 
G01 X-1.4216 Y2.3267 
G01 X-1.4267 Y2.3216 
G01 X-1.4327 Y2.3177 
G01 X-1.4394 Y2.3149 
G01 X-1.4464 Y2.3135 
G01 X-1.5005 Y2.3135 
G01 X-1.5007 Y2.3122 
G01 X-1.5032 Y2.3046 
G01 X-1.5068 Y2.2975 
G01 X-1.5115 Y2.2911 
G01 X-1.5135 Y2.2891 
G01 X-1.5135 Y2.2849 
G01 X-1.4995 Y2.2709 
G01 X-1.4995 Y2.2291 
G01 X-1.5291 Y2.1995 
G01 X-1.5709 Y2.1995 
G01 X-1.5940 Y2.2226 
G01 X-1.5940 Y2.1768 
G01 X-1.6135 Y2.1573 
G01 X-1.6135 Y2.0349 
G01 X-1.6115 Y2.0329 
G01 X-1.6068 Y2.0265 
G01 X-1.6032 Y2.0194 
G01 X-1.6007 Y2.0118 
G01 X-1.5995 Y2.0040 
G01 X-1.5995 Y1.9960 
G01 X-1.6007 Y1.9882 
G01 X-1.6032 Y1.9806 
G01 X-1.6068 Y1.9735 
G01 X-1.6115 Y1.9671 
G01 X-1.6171 Y1.9615 
G01 X-1.6235 Y1.9568 
G01 X-1.6306 Y1.9532 
G01 X-1.6382 Y1.9507 
G01 X-1.6460 Y1.9495 
G01 X-1.6540 Y1.9495 
G01 X-1.6618 Y1.9507 
G01 X-1.6694 Y1.9532 
G01 X-1.6765 Y1.9568 
G01 X-1.6829 Y1.9615 
G01 X-1.6885 Y1.9671 
G01 X-1.6932 Y1.9735 
G01 X-1.6968 Y1.9806 
G01 X-1.6993 Y1.9882 
G01 X-1.7005 Y1.9960 
G01 X-1.7005 Y2.0040 
G01 X-1.6993 Y2.0118 
G01 X-1.6968 Y2.0194 
G01 X-1.6932 Y2.0265 
G01 X-1.6885 Y2.0329 
G01 X-1.6865 Y2.0349 
G01 X-1.6865 Y2.1573 
G01 X-1.7060 Y2.1768 
G01 X-1.7060 Y2.2232 
G01 X-1.6865 Y2.2427 
G01 X-1.6865 Y2.2891 
G01 X-1.6885 Y2.2911 
G01 X-1.6932 Y2.2975 
G01 X-1.6968 Y2.3046 
G01 X-1.6993 Y2.3122 
G01 X-1.7000 Y2.3169 
G01 X-1.7007 Y2.3122 
G01 X-1.7032 Y2.3046 
G01 X-1.7068 Y2.2975 
G01 X-1.7115 Y2.2911 
G01 X-1.7135 Y2.2891 
G01 X-1.7135 Y1.9964 
G01 X-1.7149 Y1.9894 
G01 X-1.7177 Y1.9827 
G01 X-1.7216 Y1.9767 
G01 X-1.7267 Y1.9716 
G01 X-1.7327 Y1.9677 
G01 X-1.7394 Y1.9649 
G01 X-1.7464 Y1.9635 
G01 X-1.8151 Y1.9635 
G01 X-1.8171 Y1.9615 
G01 X-1.8235 Y1.9568 
G01 X-1.8306 Y1.9532 
G01 X-1.8382 Y1.9507 
G01 X-1.8460 Y1.9495 
G01 X-1.8540 Y1.9495 
G01 X-1.8618 Y1.9507 
G01 X-1.8694 Y1.9532 
G01 X-1.8765 Y1.9568 
G01 X-1.8829 Y1.9615 
G01 X-1.8849 Y1.9635 
G01 X-2.0036 Y1.9635 
G01 X-2.0106 Y1.9649 
G01 X-2.0135 Y1.9661 
G01 X-2.0135 Y1.8865 
G00 Z0.1000 
G00 X-1.8829 Y2.0385 
G01 Z-0.0070 F10.00 
G01 X-1.8765 Y2.0432 F20.00 
G01 X-1.8694 Y2.0468 
G01 X-1.8618 Y2.0493 
G01 X-1.8540 Y2.0505 
G01 X-1.8460 Y2.0505 
G01 X-1.8382 Y2.0493 
G01 X-1.8306 Y2.0468 
G01 X-1.8235 Y2.0432 
G01 X-1.8171 Y2.0385 
G01 X-1.8151 Y2.0365 
G01 X-1.7865 Y2.0365 
G01 X-1.7865 Y2.2891 
G01 X-1.7885 Y2.2911 
G01 X-1.7932 Y2.2975 
G01 X-1.7968 Y2.3046 
G01 X-1.7993 Y2.3122 
G01 X-1.8000 Y2.3169 
G01 X-1.8007 Y2.3122 
G01 X-1.8032 Y2.3046 
G01 X-1.8068 Y2.2975 
G01 X-1.8115 Y2.2911 
G01 X-1.8135 Y2.2891 
G01 X-1.8135 Y2.2427 
G01 X-1.7940 Y2.2232 
G01 X-1.7940 Y2.1768 
G01 X-1.8268 Y2.1440 
G01 X-1.8732 Y2.1440 
G01 X-1.9060 Y2.1768 
G01 X-1.9060 Y2.2232 
G01 X-1.8865 Y2.2427 
G01 X-1.8865 Y2.2891 
G01 X-1.8885 Y2.2911 
G01 X-1.8932 Y2.2975 
G01 X-1.8968 Y2.3046 
G01 X-1.8993 Y2.3122 
G01 X-1.9005 Y2.3200 
G01 X-1.9005 Y2.3635 
G01 X-1.9573 Y2.3635 
G01 X-1.9768 Y2.3440 
G01 X-2.0135 Y2.3440 
G01 X-2.0135 Y2.2560 
G01 X-1.9768 Y2.2560 
G01 X-1.9440 Y2.2232 
G01 X-1.9440 Y2.1768 
G01 X-1.9635 Y2.1573 
G01 X-1.9635 Y2.0365 
G01 X-1.8849 Y2.0365 
G01 X-1.8829 Y2.0385 
G00 Z0.1000 
G00 X-1.1495 Y2.1209 
G01 Z-0.0070 F10.00 
G01 X-1.1495 Y2.0791 F20.00 
G01 X-1.1786 Y2.0500 
G01 X-1.1495 Y2.0209 
G01 X-1.1495 Y1.9791 
G01 X-1.1635 Y1.9651 
G01 X-1.1635 Y1.8865 
G01 X-1.1365 Y1.8865 
G01 X-1.1365 Y2.4580 
G01 X-1.1515 Y2.4730 
G01 X-1.1525 Y2.4709 
G01 X-1.1577 Y2.4638 
G01 X-1.1635 Y2.4580 
G01 X-1.1635 Y2.1349 
G01 X-1.1495 Y2.1209 
G00 Z0.1000 
G00 X-1.1365 Y2.9135 
G01 Z-0.0070 F10.00 
G01 X-1.2094 Y2.9135 F20.00 
G01 X-1.2229 Y2.9000 
G01 X-1.2094 Y2.8865 
G01 X-1.1878 Y2.8865 
G01 X-1.1854 Y2.8888 
G01 X-1.1814 Y2.8915 
G01 X-1.1770 Y2.8934 
G01 X-1.1722 Y2.8943 
G01 X-1.1365 Y2.8943 
G01 X-1.1365 Y2.9135 
G00 Z0.1000 
G00 X-1.1635 Y2.5420 
G01 Z-0.0070 F10.00 
G01 X-1.1577 Y2.5362 F20.00 
G01 X-1.1525 Y2.5291 
G01 X-1.1515 Y2.5270 
G01 X-1.1365 Y2.5420 
G01 X-1.1365 Y2.8057 
G01 X-1.1722 Y2.8057 
G01 X-1.1770 Y2.8066 
G01 X-1.1814 Y2.8085 
G01 X-1.1854 Y2.8112 
G01 X-1.1878 Y2.8135 
G01 X-1.2094 Y2.8135 
G01 X-1.2229 Y2.8000 
G01 X-1.2094 Y2.7865 
G01 X-1.1964 Y2.7865 
G01 X-1.1894 Y2.7851 
G01 X-1.1827 Y2.7823 
G01 X-1.1767 Y2.7784 
G01 X-1.1716 Y2.7733 
G01 X-1.1677 Y2.7673 
G01 X-1.1649 Y2.7606 
G01 X-1.1635 Y2.7536 
G01 X-1.1635 Y2.5464 
G01 X-1.1635 Y2.5420 
G00 Z0.1000 
G00 X-1.3855 Y2.7916 
G01 Z-0.0070 F10.00 
G01 X-1.3786 Y2.7966 F20.00 
G01 X-1.3753 Y2.7983 
G01 X-1.3906 Y2.8135 
G01 X-1.4119 Y2.8135 
G01 X-1.3877 Y2.7893 
G01 X-1.3855 Y2.7916 
G00 Z0.1000 
G00 X-1.2365 Y2.6955 
G01 Z-0.0070 F10.00 
G01 X-1.2726 Y2.6955 F20.00 
G01 X-1.3017 Y2.7247 
G01 X-1.3034 Y2.7214 
G01 X-1.3084 Y2.7145 
G01 X-1.3145 Y2.7084 
G01 X-1.3214 Y2.7034 
G01 X-1.3291 Y2.6995 
G01 X-1.3372 Y2.6968 
G01 X-1.3457 Y2.6955 
G01 X-1.3543 Y2.6955 
G01 X-1.3628 Y2.6968 
G01 X-1.3709 Y2.6995 
G01 X-1.3786 Y2.7034 
G01 X-1.3855 Y2.7084 
G01 X-1.3906 Y2.7135 
G01 X-1.4036 Y2.7135 
G01 X-1.4106 Y2.7149 
G01 X-1.4173 Y2.7177 
G01 X-1.4233 Y2.7216 
G01 X-1.4651 Y2.7635 
G01 X-1.6057 Y2.7635 
G01 X-1.6057 Y2.7278 
G01 X-1.6066 Y2.7230 
G01 X-1.6085 Y2.7186 
G01 X-1.6112 Y2.7146 
G01 X-1.6142 Y2.7116 
G01 X-1.6115 Y2.7089 
G01 X-1.6068 Y2.7025 
G01 X-1.6032 Y2.6954 
G01 X-1.6007 Y2.6878 
G01 X-1.6000 Y2.6831 
G01 X-1.5993 Y2.6878 
G01 X-1.5968 Y2.6954 
G01 X-1.5932 Y2.7025 
G01 X-1.5885 Y2.7089 
G01 X-1.5829 Y2.7145 
G01 X-1.5765 Y2.7192 
G01 X-1.5694 Y2.7228 
G01 X-1.5618 Y2.7253 
G01 X-1.5540 Y2.7265 
G01 X-1.5460 Y2.7265 
G01 X-1.5382 Y2.7253 
G01 X-1.5306 Y2.7228 
G01 X-1.5235 Y2.7192 
G01 X-1.5171 Y2.7145 
G01 X-1.5115 Y2.7089 
G01 X-1.5068 Y2.7025 
G01 X-1.5032 Y2.6954 
G01 X-1.5007 Y2.6878 
G01 X-1.4995 Y2.6800 
G01 X-1.4995 Y2.6200 
G01 X-1.5007 Y2.6122 
G01 X-1.5032 Y2.6046 
G01 X-1.5068 Y2.5975 
G01 X-1.5115 Y2.5911 
G01 X-1.5161 Y2.5865 
G01 X-1.4157 Y2.5865 
G01 X-1.4122 Y2.5900 
G01 X-1.4055 Y2.5949 
G01 X-1.3982 Y2.5987 
G01 X-1.3903 Y2.6012 
G01 X-1.3821 Y2.6025 
G01 X-1.3179 Y2.6025 
G01 X-1.3097 Y2.6012 
G01 X-1.3018 Y2.5987 
G01 X-1.2945 Y2.5949 
G01 X-1.2878 Y2.5900 
G01 X-1.2843 Y2.5865 
G01 X-1.2365 Y2.5865 
G01 X-1.2365 Y2.6955 
G00 Z0.1000 
G00 X-1.7115 Y2.7089 
G01 Z-0.0070 F10.00 
G01 X-1.7068 Y2.7025 F20.00 
G01 X-1.7032 Y2.6954 
G01 X-1.7007 Y2.6878 
G01 X-1.7000 Y2.6831 
G01 X-1.6993 Y2.6878 
G01 X-1.6968 Y2.6954 
G01 X-1.6932 Y2.7025 
G01 X-1.6885 Y2.7089 
G01 X-1.6858 Y2.7116 
G01 X-1.6888 Y2.7146 
G01 X-1.6915 Y2.7186 
G01 X-1.6934 Y2.7230 
G01 X-1.6943 Y2.7278 
G01 X-1.6943 Y2.7635 
G01 X-1.7135 Y2.7635 
G01 X-1.7135 Y2.7109 
G01 X-1.7115 Y2.7089 
G00 Z0.1000 
G00 X-1.6865 Y2.9094 
G01 Z-0.0070 F10.00 
G01 X-1.6916 Y2.9145 F20.00 
G01 X-1.6966 Y2.9214 
G01 X-1.7000 Y2.9281 
G01 X-1.7034 Y2.9214 
G01 X-1.7084 Y2.9145 
G01 X-1.7135 Y2.9094 
G01 X-1.7135 Y2.8365 
G01 X-1.6943 Y2.8365 
G01 X-1.6943 Y2.8722 
G01 X-1.6934 Y2.8770 
G01 X-1.6915 Y2.8814 
G01 X-1.6888 Y2.8854 
G01 X-1.6865 Y2.8878 
G01 X-1.6865 Y2.9094 
G00 Z0.1000 
G00 X-1.7916 Y2.9145 
G01 Z-0.0070 F10.00 
G01 X-1.7966 Y2.9214 F20.00 
G01 X-1.8000 Y2.9281 
G01 X-1.8034 Y2.9214 
G01 X-1.8084 Y2.9145 
G01 X-1.8135 Y2.9094 
G01 X-1.8135 Y2.7109 
G01 X-1.8115 Y2.7089 
G01 X-1.8068 Y2.7025 
G01 X-1.8032 Y2.6954 
G01 X-1.8007 Y2.6878 
G01 X-1.8000 Y2.6831 
G01 X-1.7993 Y2.6878 
G01 X-1.7968 Y2.6954 
G01 X-1.7932 Y2.7025 
G01 X-1.7885 Y2.7089 
G01 X-1.7865 Y2.7109 
G01 X-1.7865 Y2.9094 
G01 X-1.7916 Y2.9145 
G00 Z0.1000 
G00 X-1.8916 Y2.9145 
G01 Z-0.0070 F10.00 
G01 X-1.8966 Y2.9214 F20.00 
G01 X-1.8975 Y2.9232 
G01 X-1.8975 Y2.9179 
G01 X-1.8988 Y2.9097 
G01 X-1.9013 Y2.9018 
G01 X-1.9051 Y2.8945 
G01 X-1.9100 Y2.8878 
G01 X-1.9135 Y2.8843 
G01 X-1.9135 Y2.5865 
G01 X-1.8839 Y2.5865 
G01 X-1.8885 Y2.5911 
G01 X-1.8932 Y2.5975 
G01 X-1.8968 Y2.6046 
G01 X-1.8993 Y2.6122 
G01 X-1.9005 Y2.6200 
G01 X-1.9005 Y2.6800 
G01 X-1.8993 Y2.6878 
G01 X-1.8968 Y2.6954 
G01 X-1.8932 Y2.7025 
G01 X-1.8885 Y2.7089 
G01 X-1.8865 Y2.7109 
G01 X-1.8865 Y2.9094 
G01 X-1.8916 Y2.9145 
G00 Z0.1000 
G00 X-1.3005 Y2.2291 
G01 Z-0.0070 F10.00 
G01 X-1.3005 Y2.2709 F20.00 
G01 X-1.2709 Y2.3005 
G01 X-1.2365 Y2.3005 
G01 X-1.2365 Y2.4580 
G01 X-1.2423 Y2.4638 
G01 X-1.2475 Y2.4709 
G01 X-1.2514 Y2.4787 
G01 X-1.2541 Y2.4870 
G01 X-1.2555 Y2.4956 
G01 X-1.2555 Y2.5044 
G01 X-1.2541 Y2.5130 
G01 X-1.2540 Y2.5135 
G01 X-1.2843 Y2.5135 
G01 X-1.2878 Y2.5100 
G01 X-1.2945 Y2.5051 
G01 X-1.3018 Y2.5013 
G01 X-1.3060 Y2.5000 
G01 X-1.3018 Y2.4987 
G01 X-1.2945 Y2.4949 
G01 X-1.2878 Y2.4900 
G01 X-1.2820 Y2.4842 
G01 X-1.2771 Y2.4775 
G01 X-1.2733 Y2.4702 
G01 X-1.2708 Y2.4623 
G01 X-1.2695 Y2.4541 
G01 X-1.2695 Y2.4459 
G01 X-1.2708 Y2.4377 
G01 X-1.2733 Y2.4298 
G01 X-1.2771 Y2.4225 
G01 X-1.2820 Y2.4158 
G01 X-1.2878 Y2.4100 
G01 X-1.2945 Y2.4051 
G01 X-1.3018 Y2.4013 
G01 X-1.3097 Y2.3988 
G01 X-1.3135 Y2.3982 
G01 X-1.3135 Y1.8865 
G01 X-1.2365 Y1.8865 
G01 X-1.2365 Y1.9651 
G01 X-1.2505 Y1.9791 
G01 X-1.2505 Y2.0209 
G01 X-1.2214 Y2.0500 
G01 X-1.2505 Y2.0791 
G01 X-1.2505 Y2.1209 
G01 X-1.2365 Y2.1349 
G01 X-1.2365 Y2.1995 
G01 X-1.2709 Y2.1995 
G01 X-1.3005 Y2.2291 
G00 Z0.1000 
G00 X-1.6005 Y2.2297 
G01 Z-0.0070 F10.00 
G01 X-1.6005 Y2.2709 F20.00 
G01 X-1.5865 Y2.2849 
G01 X-1.5865 Y2.2891 
G01 X-1.5885 Y2.2911 
G01 X-1.5932 Y2.2975 
G01 X-1.5968 Y2.3046 
G01 X-1.5993 Y2.3122 
G01 X-1.6000 Y2.3169 
G01 X-1.6007 Y2.3122 
G01 X-1.6032 Y2.3046 
G01 X-1.6068 Y2.2975 
G01 X-1.6115 Y2.2911 
G01 X-1.6135 Y2.2891 
G01 X-1.6135 Y2.2427 
G01 X-1.6005 Y2.2297 
G00 Z0.1000 
G00 X-1.3906 Y2.9865 
G01 Z-0.0070 F10.00 
G01 X-1.3726 Y3.0045 F20.00 
G01 X-1.3274 Y3.0045 
G01 X-1.3000 Y2.9771 
G01 X-1.2726 Y3.0045 
G01 X-1.2274 Y3.0045 
G01 X-1.2094 Y2.9865 
G01 X-1.0964 Y2.9865 
G01 X-1.0894 Y2.9851 
G01 X-1.0827 Y2.9823 
G01 X-1.0767 Y2.9784 
G01 X-1.0716 Y2.9733 
G01 X-1.0677 Y2.9673 
G01 X-1.0649 Y2.9606 
G01 X-1.0635 Y2.9536 
G01 X-1.0635 Y2.5420 
G01 X-1.0445 Y2.5230 
G01 X-1.0445 Y2.4770 
G01 X-1.0635 Y2.4580 
G01 X-1.0635 Y1.8464 
G01 X-1.0649 Y1.8394 
G01 X-1.0677 Y1.8327 
G01 X-1.0716 Y1.8267 
G01 X-1.0767 Y1.8216 
G01 X-1.0827 Y1.8177 
G01 X-1.0894 Y1.8149 
G01 X-1.0964 Y1.8135 
G01 X-2.0536 Y1.8135 
G01 X-2.0606 Y1.8149 
G01 X-2.0673 Y1.8177 
G01 X-2.0733 Y1.8216 
G01 X-2.0784 Y1.8267 
G01 X-2.0823 Y1.8327 
G01 X-2.0851 Y1.8394 
G01 X-2.0865 Y1.8464 
G01 X-2.0865 Y2.8843 
G01 X-2.0900 Y2.8878 
G01 X-2.0949 Y2.8945 
G01 X-2.0987 Y2.9018 
G01 X-2.1012 Y2.9097 
G01 X-2.1025 Y2.9179 
G01 X-2.1025 Y2.9821 
G01 X-2.1012 Y2.9903 
G01 X-2.0987 Y2.9982 
G01 X-2.0949 Y3.0055 
G01 X-2.0900 Y3.0122 
G01 X-2.0842 Y3.0180 
G01 X-2.0775 Y3.0229 
G01 X-2.0702 Y3.0267 
G01 X-2.0623 Y3.0292 
G01 X-2.0541 Y3.0305 
G01 X-2.0459 Y3.0305 
G01 X-2.0377 Y3.0292 
G01 X-2.0298 Y3.0267 
G01 X-2.0225 Y3.0229 
G01 X-2.0158 Y3.0180 
G01 X-2.0100 Y3.0122 
G01 X-2.0051 Y3.0055 
G01 X-2.0013 Y2.9982 
G01 X-2.0000 Y2.9940 
G01 X-1.9987 Y2.9982 
G01 X-1.9949 Y3.0055 
G01 X-1.9900 Y3.0122 
G01 X-1.9842 Y3.0180 
G01 X-1.9775 Y3.0229 
G01 X-1.9702 Y3.0267 
G01 X-1.9623 Y3.0292 
G01 X-1.9541 Y3.0305 
G01 X-1.9459 Y3.0305 
G01 X-1.9377 Y3.0292 
G01 X-1.9298 Y3.0267 
G01 X-1.9225 Y3.0229 
G01 X-1.9158 Y3.0180 
G01 X-1.9100 Y3.0122 
G01 X-1.9051 Y3.0055 
G01 X-1.9013 Y2.9982 
G01 X-1.8988 Y2.9903 
G01 X-1.8975 Y2.9821 
G01 X-1.8975 Y2.9768 
G01 X-1.8966 Y2.9786 
G01 X-1.8916 Y2.9855 
G01 X-1.8865 Y2.9906 
G01 X-1.8865 Y3.0536 
G01 X-1.8851 Y3.0606 
G01 X-1.8823 Y3.0673 
G01 X-1.8784 Y3.0733 
G01 X-1.8733 Y3.0784 
G01 X-1.8673 Y3.0823 
G01 X-1.8606 Y3.0851 
G01 X-1.8536 Y3.0865 
G01 X-1.1878 Y3.0865 
G01 X-1.1854 Y3.0888 
G01 X-1.1814 Y3.0915 
G01 X-1.1770 Y3.0934 
G01 X-1.1722 Y3.0943 
G01 X-1.1278 Y3.0943 
G01 X-1.1230 Y3.0934 
G01 X-1.1186 Y3.0915 
G01 X-1.1146 Y3.0888 
G01 X-1.1112 Y3.0854 
G01 X-1.1085 Y3.0814 
G01 X-1.1066 Y3.0770 
G01 X-1.1057 Y3.0722 
G01 X-1.1057 Y3.0278 
G01 X-1.1066 Y3.0230 
G01 X-1.1085 Y3.0186 
G01 X-1.1112 Y3.0146 
G01 X-1.1146 Y3.0112 
G01 X-1.1186 Y3.0085 
G01 X-1.1230 Y3.0066 
G01 X-1.1278 Y3.0057 
G01 X-1.1722 Y3.0057 
G01 X-1.1770 Y3.0066 
G01 X-1.1814 Y3.0085 
G01 X-1.1854 Y3.0112 
G01 X-1.1878 Y3.0135 
G01 X-1.8135 Y3.0135 
G01 X-1.8135 Y2.9906 
G01 X-1.8084 Y2.9855 
G01 X-1.8034 Y2.9786 
G01 X-1.8000 Y2.9719 
G01 X-1.7966 Y2.9786 
G01 X-1.7916 Y2.9855 
G01 X-1.7855 Y2.9916 
G01 X-1.7786 Y2.9966 
G01 X-1.7709 Y3.0005 
G01 X-1.7628 Y3.0032 
G01 X-1.7543 Y3.0045 
G01 X-1.7457 Y3.0045 
G01 X-1.7372 Y3.0032 
G01 X-1.7291 Y3.0005 
G01 X-1.7214 Y2.9966 
G01 X-1.7145 Y2.9916 
G01 X-1.7084 Y2.9855 
G01 X-1.7034 Y2.9786 
G01 X-1.7000 Y2.9719 
G01 X-1.6966 Y2.9786 
G01 X-1.6916 Y2.9855 
G01 X-1.6855 Y2.9916 
G01 X-1.6786 Y2.9966 
G01 X-1.6709 Y3.0005 
G01 X-1.6628 Y3.0032 
G01 X-1.6543 Y3.0045 
G01 X-1.6457 Y3.0045 
G01 X-1.6372 Y3.0032 
G01 X-1.6291 Y3.0005 
G01 X-1.6214 Y2.9966 
G01 X-1.6145 Y2.9916 
G01 X-1.6084 Y2.9855 
G01 X-1.6045 Y2.9801 
G01 X-1.6045 Y2.9824 
G01 X-1.6036 Y2.9871 
G01 X-1.6017 Y2.9916 
G01 X-1.5990 Y2.9956 
G01 X-1.5956 Y2.9990 
G01 X-1.5916 Y3.0017 
G01 X-1.5871 Y3.0036 
G01 X-1.5824 Y3.0045 
G01 X-1.5176 Y3.0045 
G01 X-1.5129 Y3.0036 
G01 X-1.5084 Y3.0017 
G01 X-1.5044 Y2.9990 
G01 X-1.5010 Y2.9956 
G01 X-1.4983 Y2.9916 
G01 X-1.4964 Y2.9871 
G01 X-1.4963 Y2.9865 
G01 X-1.4878 Y2.9865 
G01 X-1.4854 Y2.9888 
G01 X-1.4814 Y2.9915 
G01 X-1.4770 Y2.9934 
G01 X-1.4722 Y2.9943 
G01 X-1.4278 Y2.9943 
G01 X-1.4230 Y2.9934 
G01 X-1.4186 Y2.9915 
G01 X-1.4146 Y2.9888 
G01 X-1.4122 Y2.9865 
G01 X-1.3906 Y2.9865 
G00 Z0.1000 
G82 X-1.4500 Y2.9500 Z-0.0110 F10.00 R0.1000 P1.000000
G82 X-1.4500 Y2.4500 
G82 X-1.6500 Y2.7500 
G82 X-1.6500 Y2.7500 
G82 X-1.6500 Y2.8500 
G82 X-1.1500 Y2.8500 
G82 X-1.1500 Y3.0500 
G82 X-1.1500 Y2.8500 
G82 X-1.1500 Y3.0500 
G82 X-1.4500 Y2.4500 
G82 X-1.4500 Y2.9500 
G82 X-1.2000 Y2.1000 
G82 X-1.2000 Y2.0000 
G82 X-1.2000 Y2.5000 
G82 X-1.1000 Y2.5000 
G82 X-2.0000 Y2.2000 
G82 X-2.0000 Y2.4000 
G82 X-1.6500 Y2.2000 
G82 X-1.8500 Y2.2000 
G82 X-1.5500 Y2.3500 
G82 X-1.6500 Y2.3500 
G82 X-1.7500 Y2.3500 
G82 X-1.8500 Y2.3500 
G82 X-1.8500 Y2.6500 
G82 X-1.7500 Y2.6500 
G82 X-1.6500 Y2.6500 
G82 X-1.5500 Y2.6500 
G82 X-1.3500 Y2.7500 
G82 X-1.2500 Y2.7500 
G82 X-1.3500 Y2.8500 
G82 X-1.2500 Y2.8500 
G82 X-1.3500 Y2.9500 
G82 X-1.2500 Y2.9500 
G82 X-2.0500 Y2.9500 
G82 X-1.9500 Y2.9500 
G82 X-1.5500 Y2.9500 
G82 X-1.6500 Y2.9500 
G82 X-1.7500 Y2.9500 
G82 X-1.8500 Y2.9500 
G82 X-1.3500 Y2.4500 
G82 X-1.3500 Y2.5500 
G82 X-1.8500 Y2.0000 
G82 X-1.6500 Y2.0000 
G82 X-1.2500 Y2.2500 
G82 X-1.5500 Y2.2500 
G00 Z0.5000 
M05
M02
