(.../pcb-gcode-3.6.0.4/pcb-gcode.ulp)
(Copyright 2005 - 2012 by John Johnson)
(See readme.txt for licensing terms.)
(This file generated from the board:)
(.../tba810as stereo/tba810as stereo.brd)
(Current profile is .../pcb-gcode-3.6.0.4/profiles/emc.pp  )
(This file generated 06.01.15 20:29)
(Settings from pcb-machine.h)
(  Tool Size)
(0.2500 )
(Z Axis Settings)
(  High     Up        Down     Drill)
(1.0000 	1.0000 	0.0000 	-0.1000 )
(spindle on time = 0.0000)
(milling depth = 0.0000)
(text depth = -0.1270)
(tool change at 12.7000 15.2400 25.4000 )
(feed rate xy = F300.00 )
(feed rate z  = F300.00 )
(Settings from pcb-defaults.h)
(isolate min = 0.2500)
(isolate max = 0.5080)
(isolate step = 0.1270)
(Generated bottom outlines, bottom drill, )
(Unit of measure: mm)
(Metric Mode)
G21
(Absolute Coordinates)
G90
G00 X0.0000 Y0.0000 
M03
G04 P0.000000
G00 Z1.0000 
G00 X-35.0326 Y49.0026 
G01 Z0.0000 F300.00 
G01 X-35.0326 Y0.5274 F300.00 
G01 X-0.5274 Y0.5274 
Y49.0026 
X-35.0326 
G00 Z1.0000 
G00 X-6.9102 Y22.6254 
G01 Z0.0000 F300.00 
G01 X-6.8154 Y22.6000 F300.00 
G01 X-6.0900 Y22.6000 
Y35.8200 
X-15.3395 
X-15.5346 Y35.8588 
X-15.7184 Y35.9350 
X-15.8838 Y36.0455 
X-16.0245 Y36.1862 
X-16.1350 Y36.3516 
X-16.2112 Y36.5354 
X-16.2500 Y36.7305 
Y38.2581 
X-16.2704 Y38.2698 
X-16.3402 Y38.3396 
X-16.3895 Y38.4252 
X-16.4151 Y38.5205 
Y40.2195 
X-16.3895 Y40.3148 
X-16.3402 Y40.4004 
X-16.2704 Y40.4702 
X-16.1848 Y40.5195 
X-16.0895 Y40.5451 
X-14.3905 
X-14.2952 Y40.5195 
X-14.2096 Y40.4702 
X-14.1398 Y40.4004 
X-14.0905 Y40.3148 
X-14.0649 Y40.2195 
Y38.5205 
X-14.0905 Y38.4252 
X-14.1398 Y38.3396 
X-14.2096 Y38.2698 
X-14.2300 Y38.2581 
Y37.8400 
X-4.9805 
X-4.7854 Y37.8012 
X-4.6016 Y37.7250 
X-4.4362 Y37.6145 
X-4.2955 Y37.4738 
X-4.1850 Y37.3084 
X-4.1088 Y37.1246 
X-4.0700 Y36.9295 
Y21.4905 
X-4.1088 Y21.2954 
X-4.1850 Y21.1116 
X-4.2955 Y20.9462 
X-4.4362 Y20.8055 
X-4.6016 Y20.6950 
X-4.7854 Y20.6188 
X-4.9805 Y20.5800 
X-6.8154 
X-6.9102 Y20.5546 
X-7.2916 
X-7.3656 Y20.5305 
X-7.5345 Y20.5038 
X-11.5155 
X-11.6844 Y20.5305 
X-11.7584 Y20.5546 
X-12.1398 
X-12.2351 Y20.5802 
X-12.3207 Y20.6295 
X-12.3905 Y20.6993 
X-12.4398 Y20.7849 
X-12.4654 Y20.8802 
Y21.2616 
X-12.4894 Y21.3356 
X-12.5162 Y21.5045 
Y21.6755 
X-12.4894 Y21.8444 
X-12.4654 Y21.9184 
Y22.2998 
X-12.4398 Y22.3951 
X-12.3905 Y22.4807 
X-12.3207 Y22.5505 
X-12.2351 Y22.5998 
X-12.1398 Y22.6254 
X-11.7584 
X-11.6844 Y22.6495 
X-11.5155 Y22.6762 
X-7.5345 
X-7.3656 Y22.6495 
X-7.2916 Y22.6254 
X-6.9102 
G00 Z1.0000 
G00 X-28.9754 Y18.3402 
G01 Z0.0000 F300.00 
G01 X-28.9754 Y19.7598 F300.00 
G01 X-28.9500 Y19.8546 
Y22.6755 
X-29.0689 
X-29.1642 Y22.7011 
X-29.2498 Y22.7504 
X-29.3196 Y22.8202 
X-29.3689 Y22.9058 
X-29.3945 Y23.0011 
Y25.2589 
X-29.3689 Y25.3542 
X-29.3196 Y25.4398 
X-29.2498 Y25.5096 
X-29.1642 Y25.5589 
X-29.0689 Y25.5845 
X-26.8111 
X-26.7158 Y25.5589 
X-26.6302 Y25.5096 
X-26.5604 Y25.4398 
X-26.5111 Y25.3542 
X-26.4855 Y25.2589 
Y23.0011 
X-26.5111 Y22.9058 
X-26.5604 Y22.8202 
X-26.6302 Y22.7504 
X-26.7158 Y22.7011 
X-26.8111 Y22.6755 
X-26.9300 
Y19.8546 
X-26.9046 Y19.7598 
Y18.3402 
X-26.9302 Y18.2449 
X-26.9795 Y18.1593 
X-27.0493 Y18.0895 
X-27.1349 Y18.0402 
X-27.2302 Y18.0146 
X-28.6498 
X-28.7451 Y18.0402 
X-28.8307 Y18.0895 
X-28.9005 Y18.1593 
X-28.9498 Y18.2449 
X-28.9754 Y18.3402 
G00 Z1.0000 
G00 X-8.3298 Y13.7354 
G01 Z0.0000 F300.00 
G01 X-6.9102 Y13.7354 F300.00 
G01 X-6.8154 Y13.7100 
X-4.9805 
X-4.7854 Y13.6712 
X-4.6016 Y13.5950 
X-4.4362 Y13.4845 
X-4.2955 Y13.3438 
X-4.1850 Y13.1784 
X-4.1088 Y12.9946 
X-4.0700 Y12.7995 
Y6.5345 
X-3.9511 
X-3.8558 Y6.5089 
X-3.7702 Y6.4596 
X-3.7004 Y6.3898 
X-3.6511 Y6.3042 
X-3.6255 Y6.2089 
Y3.9511 
X-3.6511 Y3.8558 
X-3.7004 Y3.7702 
X-3.7702 Y3.7004 
X-3.8558 Y3.6511 
X-3.9511 Y3.6255 
X-4.0700 
Y2.4405 
X-4.1088 Y2.2454 
X-4.1850 Y2.0616 
X-4.2955 Y1.8962 
X-4.4362 Y1.7555 
X-4.6016 Y1.6450 
X-4.7854 Y1.5688 
X-4.9805 Y1.5300 
X-13.5950 
Y1.2206 
X-13.6206 Y1.1253 
X-13.6699 Y1.0397 
X-13.7397 Y0.9699 
X-13.8253 Y0.9206 
X-13.9206 Y0.8950 
X-16.5594 
X-16.6547 Y0.9206 
X-16.7403 Y0.9699 
X-16.8101 Y1.0397 
X-16.8594 Y1.1253 
X-16.8850 Y1.2206 
Y1.5300 
X-28.0395 
X-28.2346 Y1.5688 
X-28.4184 Y1.6450 
X-28.5838 Y1.7555 
X-28.7245 Y1.8962 
X-28.8350 Y2.0616 
X-28.9112 Y2.2454 
X-28.9500 Y2.4405 
Y7.7781 
X-28.9704 Y7.7898 
X-29.0402 Y7.8596 
X-29.0519 Y7.8800 
X-33.1195 
X-33.3146 Y7.9188 
X-33.4984 Y7.9950 
X-33.6638 Y8.1055 
X-33.8045 Y8.2462 
X-33.9150 Y8.4116 
X-33.9912 Y8.5954 
X-34.0300 Y8.7905 
Y22.6755 
X-34.1489 
X-34.2442 Y22.7011 
X-34.3298 Y22.7504 
X-34.3996 Y22.8202 
X-34.4489 Y22.9058 
X-34.4745 Y23.0011 
Y25.2589 
X-34.4489 Y25.3542 
X-34.3996 Y25.4398 
X-34.3298 Y25.5096 
X-34.2442 Y25.5589 
X-34.1489 Y25.5845 
X-34.0300 
Y38.5654 
X-34.0554 Y38.6602 
Y40.0798 
X-34.0300 Y40.1746 
Y42.0095 
X-33.9912 Y42.2046 
X-33.9150 Y42.3884 
X-33.8045 Y42.5538 
X-33.6638 Y42.6945 
X-33.4984 Y42.8050 
X-33.3146 Y42.8812 
X-33.1195 Y42.9200 
X-22.6000 
Y47.0895 
X-22.5612 Y47.2846 
X-22.4850 Y47.4684 
X-22.3745 Y47.6338 
X-22.2338 Y47.7745 
X-22.0684 Y47.8850 
X-21.8846 Y47.9612 
X-21.6895 Y48.0000 
X-20.5045 
Y48.1189 
X-20.4789 Y48.2142 
X-20.4296 Y48.2998 
X-20.3598 Y48.3696 
X-20.2742 Y48.4189 
X-20.1789 Y48.4445 
X-17.9211 
X-17.8258 Y48.4189 
X-17.7402 Y48.3696 
X-17.6704 Y48.2998 
X-17.6211 Y48.2142 
X-17.5955 Y48.1189 
Y45.8611 
X-17.6211 Y45.7658 
X-17.6704 Y45.6802 
X-17.7402 Y45.6104 
X-17.8258 Y45.5611 
X-17.9211 Y45.5355 
X-20.1789 
X-20.2742 Y45.5611 
X-20.3598 Y45.6104 
X-20.4296 Y45.6802 
X-20.4789 Y45.7658 
X-20.5045 Y45.8611 
Y45.9800 
X-20.5800 
Y41.8105 
X-20.6188 Y41.6154 
X-20.6950 Y41.4316 
X-20.8055 Y41.2662 
X-20.9462 Y41.1255 
X-21.1116 Y41.0149 
X-21.2954 Y40.9388 
X-21.4905 Y40.9000 
X-32.0100 
Y40.1746 
X-31.9846 Y40.0798 
Y38.6602 
X-32.0100 Y38.5654 
Y36.5700 
X-26.5119 
X-26.5002 Y36.5904 
X-26.4304 Y36.6602 
X-26.3448 Y36.7095 
X-26.2495 Y36.7351 
X-24.5505 
X-24.4552 Y36.7095 
X-24.3696 Y36.6602 
X-24.2998 Y36.5904 
X-24.2881 Y36.5700 
X-22.7605 
X-22.5654 Y36.5312 
X-22.3816 Y36.4550 
X-22.2162 Y36.3445 
X-22.0755 Y36.2038 
X-21.9650 Y36.0384 
X-21.8888 Y35.8546 
X-21.8500 Y35.6595 
Y30.2200 
X-19.8546 
X-19.7598 Y30.2454 
X-18.3402 
X-18.2449 Y30.2198 
X-18.1593 Y30.1705 
X-18.0895 Y30.1007 
X-18.0402 Y30.0151 
X-18.0146 Y29.9198 
Y28.5002 
X-18.0402 Y28.4049 
X-18.0895 Y28.3193 
X-18.1593 Y28.2495 
X-18.2449 Y28.2002 
X-18.3402 Y28.1746 
X-19.7598 
X-19.8546 Y28.2000 
X-21.8500 
Y22.6000 
X-19.8546 
X-19.7598 Y22.6254 
X-18.3402 
X-18.2449 Y22.5998 
X-18.1593 Y22.5505 
X-18.0895 Y22.4807 
X-18.0402 Y22.3951 
X-18.0146 Y22.2998 
Y20.8802 
X-18.0402 Y20.7849 
X-18.0895 Y20.6993 
X-18.1593 Y20.6295 
X-18.2449 Y20.5802 
X-18.3402 Y20.5546 
X-19.7598 
X-19.8546 Y20.5800 
X-22.9595 
X-23.1546 Y20.6188 
X-23.3384 Y20.6950 
X-23.5038 Y20.8055 
X-23.6445 Y20.9462 
X-23.7550 Y21.1116 
X-23.8312 Y21.2954 
X-23.8700 Y21.4905 
Y34.5500 
X-24.2881 
X-24.2998 Y34.5296 
X-24.3696 Y34.4598 
X-24.4552 Y34.4105 
X-24.5505 Y34.3849 
X-26.2495 
X-26.3448 Y34.4105 
X-26.4304 Y34.4598 
X-26.5002 Y34.5296 
X-26.5119 Y34.5500 
X-32.0100 
Y25.5845 
X-31.8911 
X-31.7958 Y25.5589 
X-31.7102 Y25.5096 
X-31.6404 Y25.4398 
X-31.5911 Y25.3542 
X-31.5655 Y25.2589 
Y23.0011 
X-31.5911 Y22.9058 
X-31.6404 Y22.8202 
X-31.7102 Y22.7504 
X-31.7958 Y22.7011 
X-31.8911 Y22.6755 
X-32.0100 
Y9.9000 
X-29.0519 
X-29.0402 Y9.9204 
X-28.9704 Y9.9902 
X-28.9500 Y10.0019 
Y11.5295 
X-28.9112 Y11.7246 
X-28.8350 Y11.9084 
X-28.7245 Y12.0738 
X-28.5838 Y12.2145 
X-28.4184 Y12.3250 
X-28.2346 Y12.4012 
X-28.0395 Y12.4400 
X-23.6646 
X-23.5698 Y12.4654 
X-22.1502 
X-22.0549 Y12.4398 
X-21.9693 Y12.3905 
X-21.8995 Y12.3207 
X-21.8502 Y12.2351 
X-21.8246 Y12.1398 
Y10.7202 
X-21.8502 Y10.6249 
X-21.8995 Y10.5393 
X-21.9693 Y10.4695 
X-22.0549 Y10.4202 
X-22.1502 Y10.3946 
X-23.5698 
X-23.6646 Y10.4200 
X-26.9300 
Y10.0019 
X-26.9096 Y9.9902 
X-26.8398 Y9.9204 
X-26.7905 Y9.8348 
X-26.7649 Y9.7395 
Y8.0405 
X-26.7905 Y7.9452 
X-26.8398 Y7.8596 
X-26.9096 Y7.7898 
X-26.9300 Y7.7781 
Y3.5500 
X-16.8850 
Y3.8594 
X-16.8594 Y3.9547 
X-16.8101 Y4.0403 
X-16.7403 Y4.1101 
X-16.6547 Y4.1594 
X-16.5594 Y4.1850 
X-13.9206 
X-13.8253 Y4.1594 
X-13.7397 Y4.1101 
X-13.6699 Y4.0403 
X-13.6206 Y3.9547 
X-13.5950 Y3.8594 
Y3.5500 
X-6.0900 
Y3.6255 
X-6.2089 
X-6.3042 Y3.6511 
X-6.3898 Y3.7004 
X-6.4596 Y3.7702 
X-6.5089 Y3.8558 
X-6.5345 Y3.9511 
Y6.2089 
X-6.5089 Y6.3042 
X-6.4596 Y6.3898 
X-6.3898 Y6.4596 
X-6.3042 Y6.5089 
X-6.2089 Y6.5345 
X-6.0900 
Y7.8546 
X-7.0598 
X-7.1551 Y7.8802 
X-7.2407 Y7.9295 
X-7.3105 Y7.9993 
X-7.3598 Y8.0849 
X-7.3854 Y8.1802 
Y9.5998 
X-7.3598 Y9.6951 
X-7.3105 Y9.7807 
X-7.2407 Y9.8505 
X-7.1551 Y9.8998 
X-7.0598 Y9.9254 
X-6.0900 
Y11.6900 
X-6.8154 
X-6.9102 Y11.6646 
X-8.3298 
X-8.4251 Y11.6902 
X-8.5107 Y11.7395 
X-8.5805 Y11.8093 
X-8.6298 Y11.8949 
X-8.6554 Y11.9902 
Y13.4098 
X-8.6298 Y13.5051 
X-8.5805 Y13.5907 
X-8.5107 Y13.6605 
X-8.4251 Y13.7098 
X-8.3298 Y13.7354 
G00 Z1.0000 
G00 X-6.5846 Y15.9498 
G01 Z0.0000 F300.00 
G01 X-6.5846 Y14.5302 F300.00 
G01 X-6.6102 Y14.4349 
X-6.6595 Y14.3493 
X-6.7293 Y14.2795 
X-6.8149 Y14.2302 
X-6.9102 Y14.2046 
X-8.3298 
X-8.4251 Y14.2302 
X-8.5107 Y14.2795 
X-8.5805 Y14.3493 
X-8.6298 Y14.4349 
X-8.6554 Y14.5302 
Y15.9498 
X-8.6300 Y16.0446 
Y18.0400 
X-10.6254 
X-10.7202 Y18.0146 
X-12.1398 
X-12.2351 Y18.0402 
X-12.3207 Y18.0895 
X-12.3905 Y18.1593 
X-12.4398 Y18.2449 
X-12.4654 Y18.3402 
Y19.7598 
X-12.4398 Y19.8551 
X-12.3905 Y19.9407 
X-12.3207 Y20.0105 
X-12.2351 Y20.0598 
X-12.1398 Y20.0854 
X-10.7202 
X-10.6254 Y20.0600 
X-8.4246 
X-8.3298 Y20.0854 
X-6.9102 
X-6.8149 Y20.0598 
X-6.7293 Y20.0105 
X-6.6595 Y19.9407 
X-6.6102 Y19.8551 
X-6.5846 Y19.7598 
Y18.3402 
X-6.6100 Y18.2454 
Y16.0446 
X-6.5846 Y15.9498 
G00 Z1.0000 
G00 X-26.5751 Y8.0405 
G01 Z0.0000 F300.00 
G01 X-26.5751 Y9.7395 F300.00 
G01 X-26.5495 Y9.8348 
X-26.5002 Y9.9204 
X-26.4304 Y9.9902 
X-26.3448 Y10.0395 
X-26.2495 Y10.0651 
X-24.5505 
X-24.4552 Y10.0395 
X-24.3696 Y9.9902 
X-24.2998 Y9.9204 
X-24.2881 Y9.9000 
X-20.0600 
Y11.8954 
X-20.0854 Y11.9902 
Y13.4098 
X-20.0598 Y13.5051 
X-20.0105 Y13.5907 
X-19.9407 Y13.6605 
X-19.8551 Y13.7098 
X-19.7598 Y13.7354 
X-18.3402 
X-18.2449 Y13.7098 
X-18.1593 Y13.6605 
X-18.0895 Y13.5907 
X-18.0402 Y13.5051 
X-18.0146 Y13.4098 
Y11.9902 
X-18.0400 Y11.8954 
Y8.7905 
X-18.0788 Y8.5954 
X-18.1549 Y8.4116 
X-18.2655 Y8.2462 
X-18.4062 Y8.1055 
X-18.5716 Y7.9950 
X-18.7554 Y7.9188 
X-18.9505 Y7.8800 
X-24.2881 
X-24.2998 Y7.8596 
X-24.3696 Y7.7898 
X-24.4552 Y7.7405 
X-24.5505 Y7.7149 
X-26.2495 
X-26.3448 Y7.7405 
X-26.4304 Y7.7898 
X-26.5002 Y7.8596 
X-26.5495 Y7.9452 
X-26.5751 Y8.0405 
G00 Z1.0000 
G00 X-5.0306 Y42.2850 
G01 Z0.0000 F300.00 
G01 X-4.9353 Y42.2594 F300.00 
G01 X-4.8497 Y42.2101 
X-4.7799 Y42.1403 
X-4.7306 Y42.0547 
X-4.7050 Y41.9594 
Y40.3800 
X-2.4405 
X-2.2454 Y40.3412 
X-2.0616 Y40.2650 
X-1.8962 Y40.1545 
X-1.7555 Y40.0138 
X-1.6450 Y39.8484 
X-1.5688 Y39.6646 
X-1.5300 Y39.4695 
Y18.9505 
X-1.5688 Y18.7554 
X-1.6450 Y18.5716 
X-1.7555 Y18.4062 
X-1.8962 Y18.2655 
X-2.0616 Y18.1549 
X-2.2454 Y18.0788 
X-2.4405 Y18.0400 
X-4.2754 
X-4.3702 Y18.0146 
X-5.7898 
X-5.8851 Y18.0402 
X-5.9707 Y18.0895 
X-6.0405 Y18.1593 
X-6.0898 Y18.2449 
X-6.1154 Y18.3402 
Y19.7598 
X-6.0898 Y19.8551 
X-6.0405 Y19.9407 
X-5.9707 Y20.0105 
X-5.8851 Y20.0598 
X-5.7898 Y20.0854 
X-4.3702 
X-4.2754 Y20.0600 
X-3.5500 
Y38.3600 
X-6.4495 
X-6.6446 Y38.3988 
X-6.8284 Y38.4749 
X-6.9938 Y38.5855 
X-7.1345 Y38.7262 
X-7.2450 Y38.8916 
X-7.2879 Y38.9950 
X-7.6694 
X-7.7647 Y39.0206 
X-7.8503 Y39.0699 
X-7.9201 Y39.1397 
X-7.9694 Y39.2253 
X-7.9950 Y39.3206 
Y40.9000 
X-14.1281 
X-14.1398 Y40.8796 
X-14.2096 Y40.8098 
X-14.2952 Y40.7605 
X-14.3905 Y40.7349 
X-16.0895 
X-16.1848 Y40.7605 
X-16.2704 Y40.8098 
X-16.3402 Y40.8796 
X-16.3519 Y40.9000 
X-18.0400 
Y35.0946 
X-18.0146 Y34.9998 
Y33.5802 
X-18.0402 Y33.4849 
X-18.0895 Y33.3993 
X-18.1593 Y33.3295 
X-18.2449 Y33.2802 
X-18.3402 Y33.2546 
X-19.7598 
X-19.8551 Y33.2802 
X-19.9407 Y33.3295 
X-20.0105 Y33.3993 
X-20.0598 Y33.4849 
X-20.0854 Y33.5802 
Y34.9998 
X-20.0600 Y35.0946 
Y38.3346 
X-21.0298 
X-21.1251 Y38.3602 
X-21.2107 Y38.4095 
X-21.2805 Y38.4793 
X-21.3298 Y38.5649 
X-21.3554 Y38.6602 
Y40.0798 
X-21.3298 Y40.1751 
X-21.2805 Y40.2607 
X-21.2107 Y40.3305 
X-21.1251 Y40.3798 
X-21.0298 Y40.4054 
X-20.0600 
Y42.0095 
X-20.0212 Y42.2046 
X-19.9450 Y42.3884 
X-19.8345 Y42.5538 
X-19.6938 Y42.6945 
X-19.5284 Y42.8050 
X-19.3446 Y42.8812 
X-19.1495 Y42.9200 
X-16.3519 
X-16.3402 Y42.9404 
X-16.2704 Y43.0102 
X-16.1848 Y43.0595 
X-16.0895 Y43.0851 
X-14.3905 
X-14.2952 Y43.0595 
X-14.2096 Y43.0102 
X-14.1398 Y42.9404 
X-14.1281 Y42.9200 
X-6.2505 
X-6.0554 Y42.8812 
X-5.8716 Y42.8050 
X-5.7062 Y42.6945 
X-5.5655 Y42.5538 
X-5.4550 Y42.3884 
X-5.4121 Y42.2850 
X-5.0306 
G00 Z1.0000 
G00 X-12.4654 Y31.0402 
G01 Z0.0000 F300.00 
G01 X-12.4654 Y32.4598 F300.00 
G01 X-12.4398 Y32.5551 
X-12.3905 Y32.6407 
X-12.3207 Y32.7105 
X-12.2351 Y32.7598 
X-12.1398 Y32.7854 
X-10.7202 
X-10.6249 Y32.7598 
X-10.5393 Y32.7105 
X-10.4695 Y32.6407 
X-10.4202 Y32.5551 
X-10.3946 Y32.4598 
Y31.0402 
X-10.4202 Y30.9449 
X-10.4695 Y30.8593 
X-10.5393 Y30.7895 
X-10.6249 Y30.7402 
X-10.7202 Y30.7146 
X-12.1398 
X-12.2351 Y30.7402 
X-12.3207 Y30.7895 
X-12.3905 Y30.8593 
X-12.4398 Y30.9449 
X-12.4654 Y31.0402 
G00 Z1.0000 
G00 X-12.4654 Y15.8002 
G01 Z0.0000 F300.00 
G01 X-12.4654 Y17.2198 F300.00 
G01 X-12.4398 Y17.3151 
X-12.3905 Y17.4007 
X-12.3207 Y17.4705 
X-12.2351 Y17.5198 
X-12.1398 Y17.5454 
X-10.7202 
X-10.6249 Y17.5198 
X-10.5393 Y17.4705 
X-10.4695 Y17.4007 
X-10.4202 Y17.3151 
X-10.3946 Y17.2198 
Y15.8002 
X-10.4200 Y15.7054 
Y13.5046 
X-10.3946 Y13.4098 
Y11.9902 
X-10.4202 Y11.8949 
X-10.4695 Y11.8093 
X-10.5393 Y11.7395 
X-10.6249 Y11.6902 
X-10.7202 Y11.6646 
X-12.1398 
X-12.2351 Y11.6902 
X-12.3207 Y11.7395 
X-12.3905 Y11.8093 
X-12.4398 Y11.8949 
X-12.4654 Y11.9902 
Y13.4098 
X-12.4400 Y13.5046 
Y15.7054 
X-12.4654 Y15.8002 
G00 Z1.0000 
G00 X-12.4654 Y28.5002 
G01 Z0.0000 F300.00 
G01 X-12.4654 Y28.8816 F300.00 
G01 X-12.4894 Y28.9556 
X-12.5162 Y29.1245 
Y29.2955 
X-12.4894 Y29.4644 
X-12.4654 Y29.5384 
Y29.9198 
X-12.4398 Y30.0151 
X-12.3905 Y30.1007 
X-12.3207 Y30.1705 
X-12.2351 Y30.2198 
X-12.1398 Y30.2454 
X-11.7584 
X-11.6844 Y30.2695 
X-11.5155 Y30.2962 
X-8.7062 
Y33.2038 
X-11.5155 
X-11.6844 Y33.2305 
X-11.7584 Y33.2546 
X-12.1398 
X-12.2346 Y33.2800 
X-12.9600 
Y9.9000 
X-9.6946 
X-9.5998 Y9.9254 
X-8.1802 
X-8.0849 Y9.8998 
X-7.9993 Y9.8505 
X-7.9295 Y9.7807 
X-7.8802 Y9.6951 
X-7.8546 Y9.5998 
Y8.1802 
X-7.8800 Y8.0854 
Y6.5345 
X-7.7611 
X-7.6658 Y6.5089 
X-7.5802 Y6.4596 
X-7.5104 Y6.3898 
X-7.4611 Y6.3042 
X-7.4355 Y6.2089 
Y3.9511 
X-7.4611 Y3.8558 
X-7.5104 Y3.7702 
X-7.5802 Y3.7004 
X-7.6658 Y3.6511 
X-7.7611 Y3.6255 
X-10.0189 
X-10.1142 Y3.6511 
X-10.1998 Y3.7004 
X-10.2696 Y3.7702 
X-10.3189 Y3.8558 
X-10.3445 Y3.9511 
Y6.2089 
X-10.3189 Y6.3042 
X-10.2696 Y6.3898 
X-10.1998 Y6.4596 
X-10.1142 Y6.5089 
X-10.0189 Y6.5345 
X-9.9000 
Y7.8800 
X-12.9600 
Y7.5205 
X-12.9988 Y7.3254 
X-13.0750 Y7.1416 
X-13.1855 Y6.9762 
X-13.3262 Y6.8355 
X-13.4916 Y6.7250 
X-13.5950 Y6.6821 
Y6.3006 
X-13.6206 Y6.2053 
X-13.6699 Y6.1197 
X-13.7397 Y6.0499 
X-13.8253 Y6.0006 
X-13.9206 Y5.9750 
X-16.5594 
X-16.6547 Y6.0006 
X-16.7403 Y6.0499 
X-16.8101 Y6.1197 
X-16.8594 Y6.2053 
X-16.8850 Y6.3006 
Y8.9394 
X-16.8594 Y9.0347 
X-16.8101 Y9.1203 
X-16.7403 Y9.1901 
X-16.6547 Y9.2394 
X-16.5594 Y9.2650 
X-14.9800 
Y34.3895 
X-14.9412 Y34.5846 
X-14.8650 Y34.7684 
X-14.7545 Y34.9338 
X-14.6138 Y35.0745 
X-14.4484 Y35.1850 
X-14.2646 Y35.2612 
X-14.0695 Y35.3000 
X-12.2346 
X-12.1398 Y35.3254 
X-11.7584 
X-11.6844 Y35.3495 
X-11.5155 Y35.3762 
X-7.5345 
X-7.3656 Y35.3495 
X-7.2030 Y35.2966 
X-7.0507 Y35.2190 
X-6.9124 Y35.1185 
X-6.7915 Y34.9976 
X-6.6910 Y34.8593 
X-6.6134 Y34.7070 
X-6.5605 Y34.5444 
X-6.5338 Y34.3755 
Y29.1245 
X-6.5605 Y28.9556 
X-6.5846 Y28.8816 
Y28.5002 
X-6.6102 Y28.4049 
X-6.6595 Y28.3193 
X-6.7293 Y28.2495 
X-6.8149 Y28.2002 
X-6.9102 Y28.1746 
X-7.2916 
X-7.3656 Y28.1505 
X-7.5345 Y28.1238 
X-11.5155 
X-11.6844 Y28.1505 
X-11.7584 Y28.1746 
X-12.1398 
X-12.2351 Y28.2002 
X-12.3207 Y28.2495 
X-12.3905 Y28.3193 
X-12.4398 Y28.4049 
X-12.4654 Y28.5002 
G00 Z1.0000 
G00 X-12.4654 Y25.9602 
G01 Z0.0000 F300.00 
G01 X-12.4654 Y27.3798 F300.00 
G01 X-12.4398 Y27.4751 
X-12.3905 Y27.5607 
X-12.3207 Y27.6305 
X-12.2351 Y27.6798 
X-12.1398 Y27.7054 
X-10.7202 
X-10.6249 Y27.6798 
X-10.5393 Y27.6305 
X-10.4695 Y27.5607 
X-10.4202 Y27.4751 
X-10.3946 Y27.3798 
Y25.9602 
X-10.4202 Y25.8649 
X-10.4695 Y25.7793 
X-10.5393 Y25.7095 
X-10.6249 Y25.6602 
X-10.7202 Y25.6346 
X-12.1398 
X-12.2351 Y25.6602 
X-12.3207 Y25.7095 
X-12.3905 Y25.7793 
X-12.4398 Y25.8649 
X-12.4654 Y25.9602 
G00 Z1.0000 
G00 X-12.4654 Y23.4202 
G01 Z0.0000 F300.00 
G01 X-12.4654 Y24.8398 F300.00 
G01 X-12.4398 Y24.9351 
X-12.3905 Y25.0207 
X-12.3207 Y25.0905 
X-12.2351 Y25.1398 
X-12.1398 Y25.1654 
X-10.7202 
X-10.6249 Y25.1398 
X-10.5393 Y25.0905 
X-10.4695 Y25.0207 
X-10.4202 Y24.9351 
X-10.3946 Y24.8398 
Y23.4202 
X-10.4202 Y23.3249 
X-10.4695 Y23.2393 
X-10.5393 Y23.1695 
X-10.6249 Y23.1202 
X-10.7202 Y23.0946 
X-12.1398 
X-12.2351 Y23.1202 
X-12.3207 Y23.1695 
X-12.3905 Y23.2393 
X-12.4398 Y23.3249 
X-12.4654 Y23.4202 
G00 Z1.0000 
G00 X-19.7598 Y17.5454 
G01 Z0.0000 F300.00 
G01 X-18.3402 Y17.5454 F300.00 
G01 X-18.2449 Y17.5198 
X-18.1593 Y17.4705 
X-18.0895 Y17.4007 
X-18.0402 Y17.3151 
X-18.0146 Y17.2198 
Y15.8002 
X-18.0402 Y15.7049 
X-18.0895 Y15.6193 
X-18.1593 Y15.5495 
X-18.2449 Y15.5002 
X-18.3402 Y15.4746 
X-19.7598 
X-19.8546 Y15.5000 
X-30.5795 
X-30.7746 Y15.5388 
X-30.9584 Y15.6150 
X-31.1238 Y15.7255 
X-31.2645 Y15.8662 
X-31.3750 Y16.0316 
X-31.4512 Y16.2154 
X-31.4900 Y16.4105 
Y33.1195 
X-31.4512 Y33.3146 
X-31.3750 Y33.4984 
X-31.2645 Y33.6638 
X-31.1238 Y33.8045 
X-30.9584 Y33.9150 
X-30.7746 Y33.9912 
X-30.5795 Y34.0300 
X-26.5119 
X-26.5002 Y34.0504 
X-26.4304 Y34.1202 
X-26.3448 Y34.1695 
X-26.2495 Y34.1951 
X-24.5505 
X-24.4552 Y34.1695 
X-24.3696 Y34.1202 
X-24.2998 Y34.0504 
X-24.2505 Y33.9648 
X-24.2249 Y33.8695 
Y32.1705 
X-24.2505 Y32.0752 
X-24.2998 Y31.9896 
X-24.3696 Y31.9198 
X-24.4552 Y31.8705 
X-24.5505 Y31.8449 
X-26.2495 
X-26.3448 Y31.8705 
X-26.4304 Y31.9198 
X-26.5002 Y31.9896 
X-26.5119 Y32.0100 
X-29.4700 
Y17.5200 
X-19.8546 
X-19.7598 Y17.5454 
G00 Z1.0000 
G00 X-19.7598 Y20.0854 
G01 Z0.0000 F300.00 
G01 X-18.3402 Y20.0854 F300.00 
G01 X-18.2449 Y20.0598 
X-18.1593 Y20.0105 
X-18.0895 Y19.9407 
X-18.0402 Y19.8551 
X-18.0146 Y19.7598 
Y18.3402 
X-18.0402 Y18.2449 
X-18.0895 Y18.1593 
X-18.1593 Y18.0895 
X-18.2449 Y18.0402 
X-18.3402 Y18.0146 
X-19.7598 
X-19.8546 Y18.0400 
X-22.0554 
X-22.1502 Y18.0146 
X-23.5698 
X-23.6646 Y18.0400 
X-24.5954 
X-24.6902 Y18.0146 
X-26.1098 
X-26.2051 Y18.0402 
X-26.2907 Y18.0895 
X-26.3605 Y18.1593 
X-26.4098 Y18.2449 
X-26.4354 Y18.3402 
Y19.7598 
X-26.4098 Y19.8551 
X-26.3605 Y19.9407 
X-26.2907 Y20.0105 
X-26.2051 Y20.0598 
X-26.1098 Y20.0854 
X-24.6902 
X-24.5954 Y20.0600 
X-23.6646 
X-23.5698 Y20.0854 
X-22.1502 
X-22.0554 Y20.0600 
X-19.8546 
X-19.7598 Y20.0854 
G00 Z1.0000 
G00 X-20.0854 Y23.4202 
G01 Z0.0000 F300.00 
G01 X-20.0854 Y24.8398 F300.00 
G01 X-20.0598 Y24.9351 
X-20.0105 Y25.0207 
X-19.9407 Y25.0905 
X-19.8551 Y25.1398 
X-19.7598 Y25.1654 
X-18.3402 
X-18.2449 Y25.1398 
X-18.1593 Y25.0905 
X-18.0895 Y25.0207 
X-18.0402 Y24.9351 
X-18.0146 Y24.8398 
Y23.4202 
X-18.0402 Y23.3249 
X-18.0895 Y23.2393 
X-18.1593 Y23.1695 
X-18.2449 Y23.1202 
X-18.3402 Y23.0946 
X-19.7598 
X-19.8551 Y23.1202 
X-19.9407 Y23.1695 
X-20.0105 Y23.2393 
X-20.0598 Y23.3249 
X-20.0854 Y23.4202 
G00 Z1.0000 
G00 X-20.0854 Y25.9602 
G01 Z0.0000 F300.00 
G01 X-20.0854 Y27.3798 F300.00 
G01 X-20.0598 Y27.4751 
X-20.0105 Y27.5607 
X-19.9407 Y27.6305 
X-19.8551 Y27.6798 
X-19.7598 Y27.7054 
X-18.3402 
X-18.2449 Y27.6798 
X-18.1593 Y27.6305 
X-18.0895 Y27.5607 
X-18.0402 Y27.4751 
X-18.0146 Y27.3798 
Y25.9602 
X-18.0402 Y25.8649 
X-18.0895 Y25.7793 
X-18.1593 Y25.7095 
X-18.2449 Y25.6602 
X-18.3402 Y25.6346 
X-19.7598 
X-19.8551 Y25.6602 
X-19.9407 Y25.7095 
X-20.0105 Y25.7793 
X-20.0598 Y25.8649 
X-20.0854 Y25.9602 
G00 Z1.0000 
G00 X-20.0854 Y31.0402 
G01 Z0.0000 F300.00 
G01 X-20.0854 Y32.4598 F300.00 
G01 X-20.0598 Y32.5551 
X-20.0105 Y32.6407 
X-19.9407 Y32.7105 
X-19.8551 Y32.7598 
X-19.7598 Y32.7854 
X-18.3402 
X-18.2449 Y32.7598 
X-18.1593 Y32.7105 
X-18.0895 Y32.6407 
X-18.0402 Y32.5551 
X-18.0146 Y32.4598 
Y31.0402 
X-18.0402 Y30.9449 
X-18.0895 Y30.8593 
X-18.1593 Y30.7895 
X-18.2449 Y30.7402 
X-18.3402 Y30.7146 
X-19.7598 
X-19.8551 Y30.7402 
X-19.9407 Y30.7895 
X-20.0105 Y30.8593 
X-20.0598 Y30.9449 
X-20.0854 Y31.0402 
G00 Z1.0000 
G00 X-14.1545 Y45.8611 
G01 Z0.0000 F300.00 
G01 X-14.1545 Y48.1189 F300.00 
G01 X-14.1289 Y48.2142 
X-14.0796 Y48.2998 
X-14.0098 Y48.3696 
X-13.9242 Y48.4189 
X-13.8289 Y48.4445 
X-11.5711 
X-11.4758 Y48.4189 
X-11.3902 Y48.3696 
X-11.3204 Y48.2998 
X-11.2711 Y48.2142 
X-11.2455 Y48.1189 
Y48.0000 
X-6.2505 
X-6.0554 Y47.9612 
X-5.8716 Y47.8850 
X-5.7062 Y47.7745 
X-5.5655 Y47.6338 
X-5.4550 Y47.4684 
X-5.4121 Y47.3650 
X-5.0306 
X-4.9353 Y47.3394 
X-4.8497 Y47.2901 
X-4.7799 Y47.2203 
X-4.7306 Y47.1347 
X-4.7050 Y47.0394 
Y44.4006 
X-4.7306 Y44.3053 
X-4.7799 Y44.2197 
X-4.8497 Y44.1499 
X-4.9353 Y44.1006 
X-5.0306 Y44.0750 
X-7.6694 
X-7.7647 Y44.1006 
X-7.8503 Y44.1499 
X-7.9201 Y44.2197 
X-7.9694 Y44.3053 
X-7.9950 Y44.4006 
Y45.9800 
X-11.2455 
Y45.8611 
X-11.2711 Y45.7658 
X-11.3204 Y45.6802 
X-11.3902 Y45.6104 
X-11.4758 Y45.5611 
X-11.5711 Y45.5355 
X-13.8289 
X-13.9242 Y45.5611 
X-14.0098 Y45.6104 
X-14.0796 Y45.6802 
X-14.1289 Y45.7658 
X-14.1545 Y45.8611 
G00 Z1.0000 
G00 X-21.8246 Y40.0798 
G01 Z0.0000 F300.00 
G01 X-21.8246 Y38.6602 F300.00 
G01 X-21.8502 Y38.5649 
X-21.8995 Y38.4793 
X-21.9693 Y38.4095 
X-22.0549 Y38.3602 
X-22.1502 Y38.3346 
X-23.5698 
X-23.6646 Y38.3600 
X-24.5954 
X-24.6902 Y38.3346 
X-26.1098 
X-26.2051 Y38.3602 
X-26.2907 Y38.4095 
X-26.3605 Y38.4793 
X-26.4098 Y38.5649 
X-26.4354 Y38.6602 
Y40.0798 
X-26.4098 Y40.1751 
X-26.3605 Y40.2607 
X-26.2907 Y40.3305 
X-26.2051 Y40.3798 
X-26.1098 Y40.4054 
X-24.6902 
X-24.5954 Y40.3800 
X-23.6646 
X-23.5698 Y40.4054 
X-22.1502 
X-22.0549 Y40.3798 
X-21.9693 Y40.3305 
X-21.8995 Y40.2607 
X-21.8502 Y40.1751 
X-21.8246 Y40.0798 
G00 Z1.0000 
G82 X-8.8900 Y5.0800 Z-0.1000 F300.00 R1.0000 P0.000000
G82 X-5.0800 Y5.0800 
G82 X-15.2400 Y7.6200 
G82 X-15.2400 Y2.5400 
G82 X-25.4000 Y19.0500 
G82 X-27.9400 Y19.0500 
G82 X-6.3500 Y8.8900 
G82 X-8.8900 Y8.8900 
G82 X-25.4000 Y33.0200 
G82 X-25.4000 Y35.5600 
G82 X-7.6200 Y19.0500 
G82 X-5.0800 Y19.0500 
G82 X-25.4000 Y8.8900 
G82 X-27.9400 Y8.8900 
G82 X-7.6200 Y12.7000 
G82 X-7.6200 Y15.2400 
G82 X-6.3500 Y40.6400 
G82 X-6.3500 Y45.7200 
G82 X-15.2400 Y39.3700 
G82 X-15.2400 Y41.9100 
G82 X-22.8600 Y39.3700 
G82 X-20.3200 Y39.3700 
G82 X-27.9400 Y24.1300 
G82 X-33.0200 Y24.1300 
G82 X-11.4300 Y34.2900 
G82 X-11.4300 Y31.7500 
G82 X-11.4300 Y29.2100 
G82 X-11.4300 Y26.6700 
G82 X-11.4300 Y24.1300 
G82 X-11.4300 Y21.5900 
G82 X-11.4300 Y19.0500 
G82 X-11.4300 Y16.5100 
G82 X-19.0500 Y16.5100 
G82 X-19.0500 Y19.0500 
G82 X-19.0500 Y21.5900 
G82 X-19.0500 Y24.1300 
G82 X-19.0500 Y26.6700 
G82 X-19.0500 Y29.2100 
G82 X-19.0500 Y31.7500 
G82 X-19.0500 Y34.2900 
G82 X-12.7000 Y46.9900 
G82 X-19.0500 Y46.9900 
G82 X-19.0500 Y12.7000 
G82 X-11.4300 Y12.7000 
G82 X-7.6200 Y21.5900 
G82 X-7.6200 Y29.2100 
G82 X-22.8600 Y11.4300 
G82 X-22.8600 Y19.0500 
G82 X-25.4000 Y39.3700 
G82 X-33.0200 Y39.3700 
M05
M02
