(.../pcb-gcode-3.6.0.4/pcb-gcode.ulp)
(Copyright 2005 - 2012 by John Johnson)
(See readme.txt for licensing terms.)
(This file generated from the board:)
(.../tba810as stereo/tba810as stereo.brd)
(Current profile is .../pcb-gcode-3.6.0.4/profiles/emc.pp  )
(This file generated 06.01.15 20:29)
(Settings from pcb-machine.h)
(  Tool Size)
(0.2500 )
(Z Axis Settings)
(  High     Up        Down     Drill)
(1.0000 	1.0000 	0.0000 	-0.1000 )
(spindle on time = 0.0000)
(milling depth = 0.0000)
(text depth = -0.1270)
(tool change at 12.7000 15.2400 25.4000 )
(feed rate xy = F300.00 )
(feed rate z  = F300.00 )
(Settings from pcb-defaults.h)
(isolate min = 0.2500)
(isolate max = 0.5080)
(isolate step = 0.1270)
(Generated bottom outlines, bottom drill, )
(Unit of measure: mm)
( Tool|       Size       |  Min Sub |  Max Sub |   Count )
( T01 | 0.813mm 0.0320in | 0.0000in | 0.0000in |       0 )
( T02 | 1.016mm 0.0400in | 0.0000in | 0.0000in |       0 )
(Metric Mode)
G21
(Absolute Coordinates)
G90
M05
G00 Z25.4000 
G00 X12.7000 Y15.2400 
M06 T01 (0.8128 )
G01 Z0.0000 F300.00 
M06 T01 (0.8128 )
G00 Z1.0000 
M03
G04 P0.000000
G82 X-33.0200 Y39.3700 Z-0.1000 F300.00 R1.0000 P0.000000
G82 X-5.0800 Y19.0500 
G82 X-6.3500 Y8.8900 
G82 X-7.6200 Y12.7000 
G82 X-7.6200 Y15.2400 
G82 X-7.6200 Y19.0500 
G82 X-7.6200 Y21.5900 
G82 X-7.6200 Y29.2100 
G82 X-8.8900 Y8.8900 
G82 X-11.4300 Y31.7500 
G82 X-11.4300 Y34.2900 
G82 X-11.4300 Y12.7000 
G82 X-11.4300 Y16.5100 
G82 X-11.4300 Y19.0500 
G82 X-11.4300 Y21.5900 
G82 X-11.4300 Y24.1300 
G82 X-11.4300 Y26.6700 
G82 X-11.4300 Y29.2100 
G82 X-15.2400 Y39.3700 
G82 X-15.2400 Y41.9100 
G82 X-19.0500 Y31.7500 
G82 X-19.0500 Y34.2900 
G82 X-19.0500 Y12.7000 
G82 X-19.0500 Y16.5100 
G82 X-19.0500 Y19.0500 
G82 X-19.0500 Y21.5900 
G82 X-19.0500 Y24.1300 
G82 X-19.0500 Y26.6700 
G82 X-19.0500 Y29.2100 
G82 X-20.3200 Y39.3700 
G82 X-22.8600 Y39.3700 
G82 X-22.8600 Y11.4300 
G82 X-22.8600 Y19.0500 
G82 X-25.4000 Y33.0200 
G82 X-25.4000 Y35.5600 
G82 X-25.4000 Y39.3700 
G82 X-25.4000 Y8.8900 
G82 X-25.4000 Y19.0500 
G82 X-27.9400 Y8.8900 
G82 X-27.9400 Y19.0500 
M05
G00 Z25.4000 
M06 T02 (1.0160 )
G01 Z0.0000 F300.00 
M06 T02 (1.0160 )
G00 Z1.0000 
M03
G04 P0.000000
G82 X-33.0200 Y24.1300 Z-0.1000 F300.00 R1.0000 P0.000000
G82 X-5.0800 Y5.0800 
G82 X-6.3500 Y40.6400 
G82 X-6.3500 Y45.7200 
G82 X-8.8900 Y5.0800 
G82 X-12.7000 Y46.9900 
G82 X-15.2400 Y7.6200 
G82 X-15.2400 Y2.5400 
G82 X-19.0500 Y46.9900 
G82 X-27.9400 Y24.1300 
T01 
M05
M02
