(/home/mst/.eagle/ulp/pcb-gcode.ulp)
(Copyright 2005 - 2012 by John Johnson)
(See readme.txt for licensing terms.)
(This file generated from the board:)
(.../mst/eagle/ovc3868/ovc3868-2.brd)
(Current profile is .../mst/.eagle/ulp/profiles/emc.pp  )
(This file generated 12.02.16 01:06)
(Settings from pcb-machine.h)
(spindle on time = 1.0000)
(  Tool Size)
(0.5000 )
(spindle speed = 30000.0000)
(tool change at 0.0000 0.0000 25.4000 )
(feed rate xy = F508.00 )
(feed rate z  = F254.00 )
(Z Axis Settings)
(  High     Up        Down     Drill)
(5.0000 	2.0000 	-0.1500 	-0.2000 )
(Settings from pcb-defaults.h)
(isolate min = 0.0600)
(isolate max = 0.5080)
(isolate step = 0.1270)
(Generated top outlines, bottom outlines, )
(Unit of measure: mm)
(Metric Mode)
G21
(Absolute Coordinates)
G90
S30000
G00 Z5.0000 
G00 X0.0000 Y0.0000 
M03
G04 P1.000000
G00 Z2.0000 
G00 X-0.5375 Y13.1153 
G01 Z-0.1500 F254.00 
G01 X-0.4967 Y13.1859 F508.00 
G01 X-0.4756 Y13.2648 
Y15.1752 
X-0.4967 Y15.2541 
X-0.5375 Y15.3247 
X-0.5953 Y15.3825 
X-0.6659 Y15.4233 
X-0.7448 Y15.4444 
X-2.6552 
X-2.7341 Y15.4233 
X-2.8047 Y15.3825 
X-2.8625 Y15.3247 
X-2.9033 Y15.2541 
X-2.9244 Y15.1752 
Y13.2648 
X-2.9033 Y13.1859 
X-2.8625 Y13.1153 
X-2.8047 Y13.0575 
X-2.7341 Y13.0167 
X-2.6552 Y12.9956 
X-0.7448 
X-0.6659 Y13.0167 
X-0.5953 Y13.0575 
X-0.5375 Y13.1153 
G00 Z2.0000 
G00 X-0.5375 Y15.6553 
G01 Z-0.1500 F254.00 
G01 X-0.4967 Y15.7259 F508.00 
G01 X-0.4756 Y15.8048 
Y17.7152 
X-0.4967 Y17.7941 
X-0.5375 Y17.8647 
X-0.5953 Y17.9225 
X-0.6659 Y17.9633 
X-0.7448 Y17.9844 
X-2.6552 
X-2.7341 Y17.9633 
X-2.8047 Y17.9225 
X-2.8625 Y17.8647 
X-2.9033 Y17.7941 
X-2.9244 Y17.7152 
Y15.8048 
X-2.9033 Y15.7259 
X-2.8625 Y15.6553 
X-2.8047 Y15.5975 
X-2.7341 Y15.5567 
X-2.6552 Y15.5356 
X-0.7448 
X-0.6659 Y15.5567 
X-0.5953 Y15.5975 
X-0.5375 Y15.6553 
G00 Z2.0000 
G00 X-0.5375 Y18.1953 
G01 Z-0.1500 F254.00 
G01 X-0.4967 Y18.2659 F508.00 
G01 X-0.4756 Y18.3448 
Y20.2552 
X-0.4967 Y20.3341 
X-0.5375 Y20.4047 
X-0.5953 Y20.4625 
X-0.6659 Y20.5033 
X-0.7448 Y20.5244 
X-2.6552 
X-2.7341 Y20.5033 
X-2.8047 Y20.4625 
X-2.8625 Y20.4047 
X-2.9033 Y20.3341 
X-2.9244 Y20.2552 
Y18.3448 
X-2.9033 Y18.2659 
X-2.8625 Y18.1953 
X-2.8047 Y18.1375 
X-2.7341 Y18.0967 
X-2.6552 Y18.0756 
X-0.7448 
X-0.6659 Y18.0967 
X-0.5953 Y18.1375 
X-0.5375 Y18.1953 
G00 Z2.0000 
G00 X-0.5375 Y20.7353 
G01 Z-0.1500 F254.00 
G01 X-0.4967 Y20.8059 F508.00 
G01 X-0.4756 Y20.8848 
Y22.7952 
X-0.4967 Y22.8741 
X-0.5375 Y22.9447 
X-0.5953 Y23.0025 
X-0.6659 Y23.0433 
X-0.7448 Y23.0644 
X-2.6552 
X-2.7341 Y23.0433 
X-2.8047 Y23.0025 
X-2.8625 Y22.9447 
X-2.9033 Y22.8741 
X-2.9244 Y22.7952 
Y20.8848 
X-2.9033 Y20.8059 
X-2.8625 Y20.7353 
X-2.8047 Y20.6775 
X-2.7341 Y20.6367 
X-2.6552 Y20.6156 
X-0.7448 
X-0.6659 Y20.6367 
X-0.5953 Y20.6775 
X-0.5375 Y20.7353 
G00 Z2.0000 
G00 X-0.5375 Y23.2753 
G01 Z-0.1500 F254.00 
G01 X-0.4967 Y23.3459 F508.00 
G01 X-0.4756 Y23.4248 
Y25.3352 
X-0.4967 Y25.4141 
X-0.5375 Y25.4847 
X-0.5953 Y25.5425 
X-0.6659 Y25.5833 
X-0.7448 Y25.6044 
X-2.6552 
X-2.7341 Y25.5833 
X-2.8047 Y25.5425 
X-2.8625 Y25.4847 
X-2.9033 Y25.4141 
X-2.9244 Y25.3352 
Y23.4248 
X-2.9033 Y23.3459 
X-2.8625 Y23.2753 
X-2.8047 Y23.2175 
X-2.7341 Y23.1767 
X-2.6552 Y23.1556 
X-0.7448 
X-0.6659 Y23.1767 
X-0.5953 Y23.2175 
X-0.5375 Y23.2753 
G00 Z2.0000 
G00 X-0.5375 Y25.8153 
G01 Z-0.1500 F254.00 
G01 X-0.4967 Y25.8859 F508.00 
G01 X-0.4756 Y25.9648 
Y27.8752 
X-0.4967 Y27.9541 
X-0.5375 Y28.0247 
X-0.5953 Y28.0825 
X-0.6659 Y28.1233 
X-0.7448 Y28.1444 
X-2.6552 
X-2.7341 Y28.1233 
X-2.8047 Y28.0825 
X-2.8625 Y28.0247 
X-2.9033 Y27.9541 
X-2.9244 Y27.8752 
Y25.9648 
X-2.9033 Y25.8859 
X-2.8625 Y25.8153 
X-2.8047 Y25.7575 
X-2.7341 Y25.7167 
X-2.6552 Y25.6956 
X-0.7448 
X-0.6659 Y25.7167 
X-0.5953 Y25.7575 
X-0.5375 Y25.8153 
G00 Z2.0000 
G00 X-0.5375 Y28.3553 
G01 Z-0.1500 F254.00 
G01 X-0.4967 Y28.4259 F508.00 
G01 X-0.4756 Y28.5048 
Y30.4152 
X-0.4967 Y30.4941 
X-0.5375 Y30.5647 
X-0.5953 Y30.6225 
X-0.6659 Y30.6633 
X-0.7448 Y30.6844 
X-2.6552 
X-2.7341 Y30.6633 
X-2.8047 Y30.6225 
X-2.8625 Y30.5647 
X-2.9033 Y30.4941 
X-2.9244 Y30.4152 
Y28.5048 
X-2.9033 Y28.4259 
X-2.8625 Y28.3553 
X-2.8047 Y28.2975 
X-2.7341 Y28.2567 
X-2.6552 Y28.2356 
X-0.7448 
X-0.6659 Y28.2567 
X-0.5953 Y28.2975 
X-0.5375 Y28.3553 
G00 Z2.0000 
G00 X-0.5375 Y30.8953 
G01 Z-0.1500 F254.00 
G01 X-0.4967 Y30.9659 F508.00 
G01 X-0.4756 Y31.0448 
Y32.9552 
X-0.4967 Y33.0341 
X-0.5375 Y33.1047 
X-0.5953 Y33.1625 
X-0.6659 Y33.2033 
X-0.7448 Y33.2244 
X-2.6552 
X-2.7341 Y33.2033 
X-2.8047 Y33.1625 
X-2.8625 Y33.1047 
X-2.9033 Y33.0341 
X-2.9244 Y32.9552 
Y31.0448 
X-2.9033 Y30.9659 
X-2.8625 Y30.8953 
X-2.8047 Y30.8375 
X-2.7341 Y30.7967 
X-2.6552 Y30.7756 
X-0.7448 
X-0.6659 Y30.7967 
X-0.5953 Y30.8375 
X-0.5375 Y30.8953 
G00 Z2.0000 
G00 X-32.2875 Y30.8953 
G01 Z-0.1500 F254.00 
G01 X-32.2467 Y30.9659 F508.00 
G01 X-32.2256 Y31.0448 
Y32.9552 
X-32.2467 Y33.0341 
X-32.2875 Y33.1047 
X-32.3453 Y33.1625 
X-32.4159 Y33.2033 
X-32.4948 Y33.2244 
X-34.4052 
X-34.4841 Y33.2033 
X-34.5547 Y33.1625 
X-34.6125 Y33.1047 
X-34.6533 Y33.0341 
X-34.6744 Y32.9552 
Y31.0448 
X-34.6533 Y30.9659 
X-34.6125 Y30.8953 
X-34.5547 Y30.8375 
X-34.4841 Y30.7967 
X-34.4052 Y30.7756 
X-32.4948 
X-32.4159 Y30.7967 
X-32.3453 Y30.8375 
X-32.2875 Y30.8953 
G00 Z2.0000 
G00 X-32.3453 Y30.6225 
G01 Z-0.1500 F254.00 
G01 X-32.4159 Y30.6633 F508.00 
G01 X-32.4948 Y30.6844 
X-34.4052 
X-34.4841 Y30.6633 
X-34.5547 Y30.6225 
X-34.6125 Y30.5647 
X-34.6533 Y30.4941 
X-34.6744 Y30.4152 
Y28.5048 
X-34.6533 Y28.4259 
X-34.6125 Y28.3553 
X-34.5547 Y28.2975 
X-34.4841 Y28.2567 
X-34.4052 Y28.2356 
X-32.4948 
X-32.4159 Y28.2567 
X-32.3453 Y28.2975 
X-32.2875 Y28.3553 
X-32.2467 Y28.4259 
X-32.2256 Y28.5048 
Y30.4152 
X-32.2467 Y30.4941 
X-32.2875 Y30.5647 
X-32.3453 Y30.6225 
G00 Z2.0000 
G00 X-32.3453 Y28.0825 
G01 Z-0.1500 F254.00 
G01 X-32.4159 Y28.1233 F508.00 
G01 X-32.4948 Y28.1444 
X-34.4052 
X-34.4841 Y28.1233 
X-34.5547 Y28.0825 
X-34.6125 Y28.0247 
X-34.6533 Y27.9541 
X-34.6744 Y27.8752 
Y25.9648 
X-34.6533 Y25.8859 
X-34.6125 Y25.8153 
X-34.5547 Y25.7575 
X-34.4841 Y25.7167 
X-34.4052 Y25.6956 
X-32.4948 
X-32.4159 Y25.7167 
X-32.3453 Y25.7575 
X-32.2875 Y25.8153 
X-32.2467 Y25.8859 
X-32.2256 Y25.9648 
Y27.8752 
X-32.2467 Y27.9541 
X-32.2875 Y28.0247 
X-32.3453 Y28.0825 
G00 Z2.0000 
G00 X-32.3453 Y25.5425 
G01 Z-0.1500 F254.00 
G01 X-32.4159 Y25.5833 F508.00 
G01 X-32.4948 Y25.6044 
X-34.4052 
X-34.4841 Y25.5833 
X-34.5547 Y25.5425 
X-34.6125 Y25.4847 
X-34.6533 Y25.4141 
X-34.6744 Y25.3352 
Y23.4248 
X-34.6533 Y23.3459 
X-34.6125 Y23.2753 
X-34.5547 Y23.2175 
X-34.4841 Y23.1767 
X-34.4052 Y23.1556 
X-32.4948 
X-32.4159 Y23.1767 
X-32.3453 Y23.2175 
X-32.2875 Y23.2753 
X-32.2467 Y23.3459 
X-32.2256 Y23.4248 
Y25.3352 
X-32.2467 Y25.4141 
X-32.2875 Y25.4847 
X-32.3453 Y25.5425 
G00 Z2.0000 
G00 X-32.3453 Y23.0025 
G01 Z-0.1500 F254.00 
G01 X-32.4159 Y23.0433 F508.00 
G01 X-32.4948 Y23.0644 
X-34.4052 
X-34.4841 Y23.0433 
X-34.5547 Y23.0025 
X-34.6125 Y22.9447 
X-34.6533 Y22.8741 
X-34.6744 Y22.7952 
Y20.8848 
X-34.6533 Y20.8059 
X-34.6125 Y20.7353 
X-34.5547 Y20.6775 
X-34.4841 Y20.6367 
X-34.4052 Y20.6156 
X-32.4948 
X-32.4159 Y20.6367 
X-32.3453 Y20.6775 
X-32.2875 Y20.7353 
X-32.2467 Y20.8059 
X-32.2256 Y20.8848 
Y22.7952 
X-32.2467 Y22.8741 
X-32.2875 Y22.9447 
X-32.3453 Y23.0025 
G00 Z2.0000 
G00 X-32.3453 Y20.4625 
G01 Z-0.1500 F254.00 
G01 X-32.4159 Y20.5033 F508.00 
G01 X-32.4948 Y20.5244 
X-34.4052 
X-34.4841 Y20.5033 
X-34.5547 Y20.4625 
X-34.6125 Y20.4047 
X-34.6533 Y20.3341 
X-34.6744 Y20.2552 
Y18.3448 
X-34.6533 Y18.2659 
X-34.6125 Y18.1953 
X-34.5547 Y18.1375 
X-34.4841 Y18.0967 
X-34.4052 Y18.0756 
X-32.4948 
X-32.4159 Y18.0967 
X-32.3453 Y18.1375 
X-32.2875 Y18.1953 
X-32.2467 Y18.2659 
X-32.2256 Y18.3448 
Y20.2552 
X-32.2467 Y20.3341 
X-32.2875 Y20.4047 
X-32.3453 Y20.4625 
G00 Z2.0000 
G00 X-32.3453 Y17.9225 
G01 Z-0.1500 F254.00 
G01 X-32.4159 Y17.9633 F508.00 
G01 X-32.4948 Y17.9844 
X-34.4052 
X-34.4841 Y17.9633 
X-34.5547 Y17.9225 
X-34.6125 Y17.8647 
X-34.6533 Y17.7941 
X-34.6744 Y17.7152 
Y15.8048 
X-34.6533 Y15.7259 
X-34.6125 Y15.6553 
X-34.5547 Y15.5975 
X-34.4841 Y15.5567 
X-34.4052 Y15.5356 
X-32.4948 
X-32.4159 Y15.5567 
X-32.3453 Y15.5975 
X-32.2875 Y15.6553 
X-32.2467 Y15.7259 
X-32.2256 Y15.8048 
Y17.7152 
X-32.2467 Y17.7941 
X-32.2875 Y17.8647 
X-32.3453 Y17.9225 
G00 Z2.0000 
G00 X-32.3453 Y15.3825 
G01 Z-0.1500 F254.00 
G01 X-32.4159 Y15.4233 F508.00 
G01 X-32.4948 Y15.4444 
X-34.4052 
X-34.4841 Y15.4233 
X-34.5547 Y15.3825 
X-34.6125 Y15.3247 
X-34.6533 Y15.2541 
X-34.6744 Y15.1752 
Y13.2648 
X-34.6533 Y13.1859 
X-34.6125 Y13.1153 
X-34.5547 Y13.0575 
X-34.4841 Y13.0167 
X-34.4052 Y12.9956 
X-32.4948 
X-32.4159 Y13.0167 
X-32.3453 Y13.0575 
X-32.2875 Y13.1153 
X-32.2467 Y13.1859 
X-32.2256 Y13.2648 
Y15.1752 
X-32.2467 Y15.2541 
X-32.2875 Y15.3247 
X-32.3453 Y15.3825 
G00 Z2.0000 
G82 X-1.7000 Y14.2200 Z-0.2500 F508.00 R2.0000 P0.000000
G82 X-1.7000 Y16.7600 
G82 X-1.7000 Y19.3000 
G82 X-1.7000 Y21.8400 
G82 X-1.7000 Y24.3800 
G82 X-1.7000 Y26.9200 
G82 X-1.7000 Y29.4600 
G82 X-1.7000 Y32.0000 
G82 X-33.4500 Y14.2200 
G82 X-33.4500 Y16.7600 
G82 X-33.4500 Y19.3000 
G82 X-33.4500 Y21.8400 
G82 X-33.4500 Y24.3800 
G82 X-33.4500 Y26.9200 
G82 X-33.4500 Y29.4600 
G82 X-33.4500 Y32.0000 
G00 Z5.0000 
M05
M02
