(/home/mst/.eagle/ulp/pcb-gcode.ulp)
(Copyright 2005 - 2012 by John Johnson)
(See readme.txt for licensing terms.)
(This file generated from the board:)
(.../mst/eagle/ovc3868/ovc3868-1.brd)
(Current profile is .../mst/.eagle/ulp/profiles/emc.pp  )
(This file generated 12.02.16 00:07)
(Settings from pcb-machine.h)
(spindle on time = 1.0000)
(  Tool Size)
(0.5000 )
(spindle speed = 30000.0000)
(tool change at 0.0000 0.0000 25.4000 )
(feed rate xy = F508.00 )
(feed rate z  = F254.00 )
(Z Axis Settings)
(  High     Up        Down     Drill)
(5.0000 	2.0000 	-0.1500 	-0.2000 )
(Settings from pcb-defaults.h)
(isolate min = 0.0254)
(isolate max = 0.5080)
(isolate step = 0.1270)
(Generated top outlines, bottom outlines, )
(Unit of measure: mm)
(Metric Mode)
G21
(Absolute Coordinates)
G90
S30000
G00 Z5.0000 
G00 X0.0000 Y0.0000 
M03
G04 P1.000000
G00 Z2.0000 
G00 X38.4818 Y41.1514 
G01 Z-0.1500 F254.00 
G01 X38.6114 Y41.0218 F508.00 
G01 X38.7597 Y40.9141 
X38.9230 Y40.8309 
X39.0973 Y40.7743 
X39.2784 Y40.7456 
X42.9246 
Y39.4137 
X42.9434 Y39.3437 
X42.9796 Y39.2809 
X43.0309 Y39.2296 
X43.0937 Y39.1934 
X43.1637 Y39.1746 
X45.7363 
X45.8063 Y39.1934 
X45.8691 Y39.2296 
X45.9204 Y39.2809 
X45.9566 Y39.3437 
X45.9754 Y39.4137 
Y40.7456 
X50.8916 
X51.0727 Y40.7743 
X51.2470 Y40.8309 
X51.4103 Y40.9141 
X51.5586 Y41.0218 
X51.7871 Y41.2504 
X51.9168 Y41.3800 
X52.0245 Y41.5283 
X52.1077 Y41.6916 
X52.1643 Y41.8659 
X52.1930 Y42.0470 
Y42.9785 
X52.2043 Y42.9073 
X52.2609 Y42.7330 
X52.3441 Y42.5697 
X52.4518 Y42.4214 
X52.5814 Y42.2918 
X52.7297 Y42.1841 
X52.8930 Y42.1009 
X53.0673 Y42.0443 
X53.2484 Y42.0156 
X60.7046 
Y41.9537 
X60.7234 Y41.8837 
X60.7596 Y41.8209 
X60.8109 Y41.7696 
X60.8737 Y41.7334 
X60.9437 Y41.7146 
X63.5163 
X63.5863 Y41.7334 
X63.6491 Y41.7696 
X63.7004 Y41.8209 
X63.7366 Y41.8837 
X63.7554 Y41.9537 
Y45.5263 
X63.7366 Y45.5963 
X63.7004 Y45.6591 
X63.6491 Y45.7104 
X63.5863 Y45.7466 
X63.5163 Y45.7654 
X60.9437 
X60.8737 Y45.7466 
X60.8109 Y45.7104 
X60.7596 Y45.6591 
X60.7234 Y45.5963 
X60.7046 Y45.5263 
Y44.3444 
X54.5044 
Y47.0171 
X54.5157 Y46.9459 
X54.5723 Y46.7716 
X54.6555 Y46.6083 
X54.7632 Y46.4600 
X54.8928 Y46.3304 
X55.1214 Y46.1018 
X55.2697 Y45.9941 
X55.4330 Y45.9109 
X55.6073 Y45.8543 
X55.7884 Y45.8256 
X58.5116 
X58.6927 Y45.8543 
X58.8670 Y45.9109 
X59.0303 Y45.9941 
X59.1786 Y46.1018 
X59.3082 Y46.2314 
X59.4159 Y46.3797 
X59.4991 Y46.5430 
X59.5557 Y46.7173 
X59.5844 Y46.8984 
Y48.3656 
X60.7338 
X60.7596 Y48.3209 
X60.8109 Y48.2696 
X60.8737 Y48.2334 
X60.9437 Y48.2146 
X63.5163 
X63.5863 Y48.2334 
X63.6491 Y48.2696 
X63.7004 Y48.3209 
X63.7366 Y48.3837 
X63.7554 Y48.4537 
Y52.0263 
X63.7366 Y52.0963 
X63.7004 Y52.1591 
X63.6491 Y52.2104 
X63.5863 Y52.2466 
X63.5163 Y52.2654 
X62.4113 
X56.6386 Y58.0382 
X56.4903 Y58.1459 
X56.3270 Y58.2291 
X56.1527 Y58.2857 
X55.9716 Y58.3144 
X50.7084 
X50.5273 Y58.2857 
X50.3530 Y58.2291 
X50.1897 Y58.1459 
X50.0414 Y58.0382 
X49.9118 Y57.9086 
X46.5077 Y54.5044 
X44.7211 
X44.9323 Y54.7156 
X45.8116 
X45.9927 Y54.7443 
X46.1670 Y54.8009 
X46.3303 Y54.8841 
X46.4786 Y54.9918 
X47.7486 Y56.2618 
X47.8782 Y56.3914 
X47.9859 Y56.5397 
X48.0691 Y56.7030 
X48.1257 Y56.8773 
X48.1544 Y57.0584 
Y58.5256 
X56.6677 
X61.3418 Y53.8514 
X61.4714 Y53.7218 
X61.6197 Y53.6141 
X61.7830 Y53.5309 
X61.9573 Y53.4743 
X62.1384 Y53.4456 
X64.0183 
X64.2088 Y53.2551 
X65.3312 
X66.1249 Y54.0488 
Y55.1712 
X65.3312 Y55.9649 
X64.2088 
X64.0183 Y55.7744 
X62.7123 
X59.7148 Y58.7719 
X59.7998 Y58.7286 
X59.9551 Y58.6781 
X60.1164 Y58.6526 
X60.4312 
X60.5130 Y58.6109 
X60.6873 Y58.5543 
X60.8684 Y58.5256 
X61.7477 
X62.6118 Y57.6614 
X62.7414 Y57.5318 
X62.8897 Y57.4241 
X63.0530 Y57.3409 
X63.2273 Y57.2843 
X63.4084 Y57.2556 
X64.0183 
X64.2088 Y57.0651 
X65.3312 
X66.1249 Y57.8588 
Y58.9812 
X65.3312 Y59.7749 
X64.2088 
X64.0183 Y59.5844 
X63.9823 
X62.9886 Y60.5782 
X62.8403 Y60.6859 
X62.6770 Y60.7691 
X62.5027 Y60.8257 
X62.3216 Y60.8544 
X60.8684 
X60.6873 Y60.8257 
X60.5130 Y60.7691 
X60.4312 Y60.7274 
X60.1164 
X59.9551 Y60.7019 
X59.7998 Y60.6514 
X59.6543 Y60.5773 
X59.5222 Y60.4813 
X59.4067 Y60.3658 
X59.3107 Y60.2337 
X59.2366 Y60.0882 
X59.1861 Y59.9329 
X59.1606 Y59.7716 
Y59.6084 
X59.1861 Y59.4471 
X59.2366 Y59.2918 
X59.2799 Y59.2068 
X57.9086 Y60.5782 
X57.7603 Y60.6859 
X57.5970 Y60.7691 
X57.4227 Y60.8257 
X57.2416 Y60.8544 
X46.8984 
X46.7173 Y60.8257 
X46.5430 Y60.7691 
X46.3797 Y60.6859 
X46.2314 Y60.5782 
X46.1301 Y60.4768 
X46.1734 Y60.5618 
X46.2239 Y60.7171 
X46.2494 Y60.8784 
Y61.0416 
X46.2239 Y61.2029 
X46.1734 Y61.3582 
X46.0993 Y61.5037 
X46.0033 Y61.6358 
X45.8878 Y61.7513 
X45.7557 Y61.8473 
X45.6102 Y61.9214 
X45.4549 Y61.9719 
X45.2936 Y61.9974 
X44.9788 
X44.8970 Y62.0391 
X44.7227 Y62.0957 
X44.5416 Y62.1244 
X41.8184 
X41.6373 Y62.0957 
X41.4630 Y62.0391 
X41.2997 Y61.9559 
X41.1514 Y61.8482 
X39.0782 Y59.7749 
X38.8088 
X38.0151 Y58.9812 
Y57.8588 
X38.8088 Y57.0651 
X39.9312 
X40.7249 Y57.8588 
Y58.1282 
X42.3923 Y59.7956 
X44.5416 
X44.7227 Y59.8243 
X44.8970 Y59.8809 
X44.9788 Y59.9226 
X45.2936 
X45.4549 Y59.9481 
X45.6102 Y59.9986 
X45.7557 Y60.0727 
X45.8878 Y60.1687 
X45.9679 Y60.2488 
X45.9109 Y60.1370 
X45.8543 Y59.9627 
X45.8256 Y59.7816 
Y57.6323 
X45.2377 Y57.0444 
X44.3584 
X44.1773 Y57.0157 
X44.0030 Y56.9591 
X43.8397 Y56.8759 
X43.6914 Y56.7682 
X43.5618 Y56.6386 
X41.0218 Y54.0986 
X40.9141 Y53.9503 
X40.8309 Y53.7870 
X40.7743 Y53.6127 
X40.7456 Y53.4316 
Y50.7084 
X40.7743 Y50.5273 
X40.8309 Y50.3530 
X40.9141 Y50.1897 
X41.0218 Y50.0414 
X41.1514 Y49.9118 
X41.2997 Y49.8041 
X41.4630 Y49.7209 
X41.6373 Y49.6643 
X41.8184 Y49.6356 
X42.9961 
X42.9796 Y49.6191 
X42.9434 Y49.5563 
X42.9246 Y49.4863 
Y49.4244 
X40.5344 
Y53.8583 
X40.7249 Y54.0488 
Y54.3182 
X43.6623 Y57.2556 
X44.5416 
X44.7227 Y57.2843 
X44.8970 Y57.3409 
X45.0603 Y57.4241 
X45.2086 Y57.5318 
X45.3382 Y57.6614 
X45.4459 Y57.8097 
X45.5291 Y57.9730 
X45.5857 Y58.1473 
X45.6144 Y58.3284 
Y58.5116 
X45.5857 Y58.6927 
X45.5291 Y58.8670 
X45.4459 Y59.0303 
X45.3382 Y59.1786 
X45.2086 Y59.3082 
X45.0603 Y59.4159 
X44.8970 Y59.4991 
X44.7227 Y59.5557 
X44.5416 Y59.5844 
X43.0884 
X42.9073 Y59.5557 
X42.7330 Y59.4991 
X42.5697 Y59.4159 
X42.4214 Y59.3082 
X39.0782 Y55.9649 
X38.8088 
X38.0151 Y55.1712 
Y54.0488 
X38.2056 Y53.8583 
Y48.1684 
X38.2343 Y47.9873 
X38.2909 Y47.8130 
X38.3741 Y47.6497 
X38.4818 Y47.5014 
X38.6114 Y47.3718 
X38.7597 Y47.2641 
X38.9230 Y47.1809 
X39.0973 Y47.1243 
X39.2784 Y47.0956 
X42.9246 
Y45.9137 
X42.9434 Y45.8437 
X42.9796 Y45.7809 
X43.0309 Y45.7296 
X43.0937 Y45.6934 
X43.1637 Y45.6746 
X45.7363 
X45.8063 Y45.6934 
X45.8691 Y45.7296 
X45.9204 Y45.7809 
X45.9566 Y45.8437 
X45.9754 Y45.9137 
Y46.8687 
X51.6303 Y52.5236 
X52.1756 
Y47.9027 
X52.1643 Y47.9739 
X52.1077 Y48.1482 
X52.0245 Y48.3115 
X51.9168 Y48.4598 
X51.9136 Y48.4629 
Y48.8551 
X51.8948 Y48.9251 
X51.8586 Y48.9879 
X51.8073 Y49.0392 
X51.7445 Y49.0754 
X51.6745 Y49.0942 
X50.3827 
X50.3127 Y49.0754 
X50.2499 Y49.0392 
X50.1986 Y48.9879 
X50.1624 Y48.9251 
X50.1436 Y48.8551 
Y48.4629 
X50.1404 Y48.4598 
X50.0327 Y48.3115 
X49.9495 Y48.1482 
X49.8929 Y47.9739 
X49.8642 Y47.7928 
Y43.0744 
X45.9462 
X45.9204 Y43.1191 
X45.8691 Y43.1704 
X45.8063 Y43.2066 
X45.7363 Y43.2254 
X43.1637 
X43.0937 Y43.2066 
X43.0309 Y43.1704 
X42.9796 Y43.1191 
X42.9538 Y43.0744 
X40.5344 
Y43.6983 
X40.7249 Y43.8888 
Y45.0112 
X39.9312 Y45.8049 
X38.8088 
X38.0151 Y45.0112 
Y43.8888 
X38.2056 Y43.6983 
Y41.8184 
X38.2343 Y41.6373 
X38.2909 Y41.4630 
X38.3741 Y41.2997 
X38.4818 Y41.1514 
G00 Z2.0000 
G00 X44.9058 Y49.7254 
G01 Z-0.1500 F254.00 
G01 X45.0603 Y49.8041 F508.00 
G01 X45.2086 Y49.9118 
X45.3382 Y50.0414 
X45.4459 Y50.1897 
X45.5291 Y50.3530 
X45.5857 Y50.5273 
X45.6144 Y50.7084 
Y50.8916 
X45.5857 Y51.0727 
X45.5291 Y51.2470 
X45.4459 Y51.4103 
X45.3382 Y51.5586 
X45.2086 Y51.6882 
X45.0603 Y51.7959 
X44.8970 Y51.8791 
X44.7227 Y51.9357 
X44.5416 Y51.9644 
X43.0744 
Y52.8577 
X43.3101 Y53.0934 
X43.3143 Y53.0673 
X43.3709 Y52.8930 
X43.4541 Y52.7297 
X43.5618 Y52.5814 
X43.6914 Y52.4518 
X43.8397 Y52.3441 
X44.0030 Y52.2609 
X44.1773 Y52.2043 
X44.3584 Y52.1756 
X47.0816 
X47.2627 Y52.2043 
X47.4370 Y52.2609 
X47.6003 Y52.3441 
X47.7486 Y52.4518 
X51.2823 Y55.9856 
X55.3977 
X60.6889 Y50.6944 
X58.3284 
X58.1473 Y50.6657 
X57.9730 Y50.6091 
X57.8097 Y50.5259 
X57.6614 Y50.4182 
X57.5318 Y50.2886 
X57.4241 Y50.1403 
X57.3409 Y49.9770 
X57.2843 Y49.8027 
X57.2556 Y49.6216 
Y48.1544 
X56.7273 
X56.6473 Y48.3115 
X56.5396 Y48.4598 
X56.5364 Y48.4629 
Y48.8551 
X56.5176 Y48.9251 
X56.4814 Y48.9879 
X56.4301 Y49.0392 
X56.3673 Y49.0754 
X56.2973 Y49.0942 
X55.0055 
X54.9355 Y49.0754 
X54.8727 Y49.0392 
X54.8214 Y48.9879 
X54.7852 Y48.9251 
X54.7664 Y48.8551 
Y48.4629 
X54.7632 Y48.4598 
X54.6555 Y48.3115 
X54.5723 Y48.1482 
X54.5157 Y47.9739 
X54.5044 Y47.9027 
Y52.5236 
X55.1763 
X55.2463 Y52.5424 
X55.3091 Y52.5786 
X55.3604 Y52.6299 
X55.3966 Y52.6927 
X55.4154 Y52.7627 
Y55.0353 
X55.3966 Y55.1053 
X55.3604 Y55.1681 
X55.3091 Y55.2194 
X55.2463 Y55.2556 
X55.1763 Y55.2744 
X54.2966 
X54.2282 Y55.3686 
X54.0986 Y55.4982 
X53.9503 Y55.6059 
X53.7870 Y55.6891 
X53.6127 Y55.7457 
X53.4316 Y55.7744 
X51.9784 
X51.7973 Y55.7457 
X51.6230 Y55.6891 
X51.4597 Y55.6059 
X51.3114 Y55.4982 
X51.1818 Y55.3686 
X45.5387 Y49.7254 
X44.9058 
G00 Z2.0000 
G00 X44.8970 Y62.4209 
G01 Z-0.1500 F254.00 
G01 X44.9788 Y62.4626 F508.00 
G01 X45.2936 Y62.4626 
X45.4549 Y62.4881 
X45.6102 Y62.5386 
X45.7557 Y62.6127 
X45.8878 Y62.7087 
X46.0033 Y62.8242 
X46.0993 Y62.9563 
X46.1734 Y63.1018 
X46.2239 Y63.2571 
X46.2494 Y63.4184 
Y63.5816 
X46.2239 Y63.7429 
X46.1734 Y63.8982 
X46.0993 Y64.0437 
X46.0033 Y64.1758 
X45.8878 Y64.2913 
X45.7557 Y64.3873 
X45.6102 Y64.4614 
X45.4549 Y64.5119 
X45.2936 Y64.5374 
X44.9788 
X44.8970 Y64.5791 
X44.7227 Y64.6357 
X44.5416 Y64.6644 
X39.2784 
X39.0973 Y64.6357 
X38.9230 Y64.5791 
X38.7597 Y64.4959 
X38.6114 Y64.3882 
X38.4818 Y64.2586 
X38.3741 Y64.1103 
X38.2909 Y63.9470 
X38.2343 Y63.7727 
X38.2056 Y63.5916 
Y62.9817 
X38.0151 Y62.7912 
Y61.6688 
X38.8088 Y60.8751 
X39.9312 
X40.7249 Y61.6688 
Y62.3356 
X44.5416 
X44.7227 Y62.3643 
X44.8970 Y62.4209 
G00 Z2.0000 
G00 X44.8970 Y64.9609 
G01 Z-0.1500 F254.00 
G01 X44.9788 Y65.0026 F508.00 
G01 X45.2936 Y65.0026 
X45.4549 Y65.0281 
X45.6102 Y65.0786 
X45.7557 Y65.1527 
X45.8878 Y65.2487 
X46.0033 Y65.3642 
X46.0993 Y65.4963 
X46.1734 Y65.6418 
X46.2239 Y65.7971 
X46.2494 Y65.9584 
Y66.1216 
X46.2239 Y66.2829 
X46.1734 Y66.4382 
X46.0993 Y66.5837 
X46.0033 Y66.7158 
X45.8878 Y66.8313 
X45.7557 Y66.9273 
X45.6102 Y67.0014 
X45.4549 Y67.0519 
X45.2936 Y67.0774 
X44.9788 
X44.8970 Y67.1191 
X44.7227 Y67.1757 
X44.5416 Y67.2044 
X40.1217 
X39.9312 Y67.3949 
X38.8088 
X38.0151 Y66.6012 
Y65.4788 
X38.8088 Y64.6851 
X39.9312 
X40.1217 Y64.8756 
X44.5416 
X44.7227 Y64.9043 
X44.8970 Y64.9609 
G00 Z2.0000 
G00 X44.8970 Y67.5009 
G01 Z-0.1500 F254.00 
G01 X44.9788 Y67.5426 F508.00 
G01 X45.2936 Y67.5426 
X45.4549 Y67.5681 
X45.6102 Y67.6186 
X45.7557 Y67.6927 
X45.8878 Y67.7887 
X46.0033 Y67.9042 
X46.0993 Y68.0363 
X46.1734 Y68.1818 
X46.2239 Y68.3371 
X46.2494 Y68.4984 
Y68.6616 
X46.2239 Y68.8229 
X46.1734 Y68.9782 
X46.0993 Y69.1237 
X46.0033 Y69.2558 
X45.8878 Y69.3713 
X45.7557 Y69.4673 
X45.6102 Y69.5414 
X45.4549 Y69.5919 
X45.2936 Y69.6174 
X44.9788 
X44.8970 Y69.6591 
X44.7227 Y69.7157 
X44.5416 Y69.7444 
X42.3923 
X41.3986 Y70.7382 
X41.2503 Y70.8459 
X41.0870 Y70.9291 
X40.9127 Y70.9857 
X40.7316 Y71.0144 
X40.1217 
X39.9312 Y71.2049 
X38.8088 
X38.0151 Y70.4112 
Y69.2888 
X38.8088 Y68.4951 
X39.9312 
X40.1217 Y68.6856 
X40.1577 
X41.1514 Y67.6918 
X41.2997 Y67.5841 
X41.4630 Y67.5009 
X41.6373 Y67.4443 
X41.8184 Y67.4156 
X44.5416 
X44.7227 Y67.4443 
X44.8970 Y67.5009 
G00 Z2.0000 
G00 X44.8970 Y70.0409 
G01 Z-0.1500 F254.00 
G01 X44.9788 Y70.0826 F508.00 
G01 X45.2936 Y70.0826 
X45.4549 Y70.1081 
X45.6102 Y70.1586 
X45.7557 Y70.2327 
X45.8878 Y70.3287 
X46.0033 Y70.4442 
X46.0993 Y70.5763 
X46.1734 Y70.7218 
X46.2239 Y70.8771 
X46.2494 Y71.0384 
Y71.2016 
X46.2239 Y71.3629 
X46.1734 Y71.5182 
X46.0993 Y71.6637 
X46.0033 Y71.7958 
X45.8878 Y71.9113 
X45.7557 Y72.0073 
X45.6102 Y72.0814 
X45.4549 Y72.1319 
X45.2936 Y72.1574 
X44.9788 
X44.8970 Y72.1991 
X44.7227 Y72.2557 
X44.5416 Y72.2844 
X43.6623 
X41.5282 Y74.4186 
X41.3986 Y74.5482 
X41.2503 Y74.6559 
X41.0870 Y74.7391 
X40.9127 Y74.7957 
X40.7316 Y74.8244 
X40.1217 
X39.9312 Y75.0149 
X38.8088 
X38.0151 Y74.2212 
Y73.0988 
X38.8088 Y72.3051 
X39.9312 
X40.1217 Y72.4956 
X40.1577 
X42.4214 Y70.2318 
X42.5697 Y70.1241 
X42.7330 Y70.0409 
X42.9073 Y69.9843 
X43.0884 Y69.9556 
X44.5416 
X44.7227 Y69.9843 
X44.8970 Y70.0409 
G00 Z2.0000 
G00 X31.7579 Y70.0308 
G01 Z-0.1500 F254.00 
G01 X31.7802 Y70.1429 F508.00 
G01 X31.7802 Y70.2571 
X31.7579 Y70.3692 
X31.7142 Y70.4748 
X31.6507 Y70.5699 
X31.5699 Y70.6507 
X31.4748 Y70.7142 
X31.3692 Y70.7579 
X31.2571 Y70.7802 
X27.2429 
X27.1308 Y70.7579 
X27.0252 Y70.7142 
X26.9301 Y70.6507 
X26.8493 Y70.5699 
X26.7858 Y70.4748 
X26.7421 Y70.3692 
X26.7198 Y70.2571 
Y70.1429 
X26.7421 Y70.0308 
X26.7858 Y69.9252 
X26.8493 Y69.8301 
X26.9301 Y69.7493 
X27.0252 Y69.6858 
X27.1308 Y69.6421 
X27.2429 Y69.6198 
X31.2571 
X31.3692 Y69.6421 
X31.4748 Y69.6858 
X31.5699 Y69.7493 
X31.6507 Y69.8301 
X31.7142 Y69.9252 
X31.7579 Y70.0308 
G00 Z2.0000 
G00 X31.6507 Y69.2699 
G01 Z-0.1500 F254.00 
G01 X31.5699 Y69.3507 F508.00 
G01 X31.4748 Y69.4142 
X31.3692 Y69.4579 
X31.2571 Y69.4802 
X27.2429 
X27.1308 Y69.4579 
X27.0252 Y69.4142 
X26.9301 Y69.3507 
X26.8493 Y69.2699 
X26.7858 Y69.1748 
X26.7421 Y69.0692 
X26.7198 Y68.9571 
Y68.8429 
X26.7421 Y68.7308 
X26.7858 Y68.6252 
X26.8493 Y68.5301 
X26.9301 Y68.4493 
X27.0252 Y68.3858 
X27.1308 Y68.3421 
X27.2429 Y68.3198 
X31.2571 
X31.3692 Y68.3421 
X31.4748 Y68.3858 
X31.5699 Y68.4493 
X31.6507 Y68.5301 
X31.7142 Y68.6252 
X31.7579 Y68.7308 
X31.7802 Y68.8429 
Y68.9571 
X31.7579 Y69.0692 
X31.7142 Y69.1748 
X31.6507 Y69.2699 
G00 Z2.0000 
G00 X31.5699 Y71.0493 
G01 Z-0.1500 F254.00 
G01 X31.6507 Y71.1301 F508.00 
G01 X31.7142 Y71.2252 
X31.7579 Y71.3308 
X31.7802 Y71.4429 
Y71.5571 
X31.7579 Y71.6692 
X31.7142 Y71.7748 
X31.6507 Y71.8699 
X31.5699 Y71.9507 
X31.4748 Y72.0142 
X31.3692 Y72.0579 
X31.2571 Y72.0802 
X27.2429 
X27.1308 Y72.0579 
X27.0252 Y72.0142 
X26.9301 Y71.9507 
X26.8493 Y71.8699 
X26.7858 Y71.7748 
X26.7421 Y71.6692 
X26.7198 Y71.5571 
Y71.4429 
X26.7421 Y71.3308 
X26.7858 Y71.2252 
X26.8493 Y71.1301 
X26.9301 Y71.0493 
X27.0252 Y70.9858 
X27.1308 Y70.9421 
X27.2429 Y70.9198 
X31.2571 
X31.3692 Y70.9421 
X31.4748 Y70.9858 
X31.5699 Y71.0493 
G00 Z2.0000 
G00 X31.5699 Y72.3493 
G01 Z-0.1500 F254.00 
G01 X31.6507 Y72.4301 F508.00 
G01 X31.7142 Y72.5252 
X31.7579 Y72.6308 
X31.7802 Y72.7429 
Y72.8571 
X31.7579 Y72.9692 
X31.7142 Y73.0748 
X31.6507 Y73.1699 
X31.5699 Y73.2507 
X31.4748 Y73.3142 
X31.3692 Y73.3579 
X31.2571 Y73.3802 
X27.2429 
X27.1308 Y73.3579 
X27.0252 Y73.3142 
X26.9301 Y73.2507 
X26.8493 Y73.1699 
X26.7858 Y73.0748 
X26.7421 Y72.9692 
X26.7198 Y72.8571 
Y72.7429 
X26.7421 Y72.6308 
X26.7858 Y72.5252 
X26.8493 Y72.4301 
X26.9301 Y72.3493 
X27.0252 Y72.2858 
X27.1308 Y72.2421 
X27.2429 Y72.2198 
X31.2571 
X31.3692 Y72.2421 
X31.4748 Y72.2858 
X31.5699 Y72.3493 
G00 Z2.0000 
G00 X31.5699 Y73.6493 
G01 Z-0.1500 F254.00 
G01 X31.6507 Y73.7301 F508.00 
G01 X31.7142 Y73.8252 
X31.7579 Y73.9308 
X31.7802 Y74.0429 
Y74.1571 
X31.7579 Y74.2692 
X31.7142 Y74.3748 
X31.6507 Y74.4699 
X31.5699 Y74.5507 
X31.4748 Y74.6142 
X31.3692 Y74.6579 
X31.2571 Y74.6802 
X27.2429 
X27.1308 Y74.6579 
X27.0252 Y74.6142 
X26.9301 Y74.5507 
X26.8493 Y74.4699 
X26.7858 Y74.3748 
X26.7421 Y74.2692 
X26.7198 Y74.1571 
Y74.0429 
X26.7421 Y73.9308 
X26.7858 Y73.8252 
X26.8493 Y73.7301 
X26.9301 Y73.6493 
X27.0252 Y73.5858 
X27.1308 Y73.5421 
X27.2429 Y73.5198 
X31.2571 
X31.3692 Y73.5421 
X31.4748 Y73.5858 
X31.5699 Y73.6493 
G00 Z2.0000 
G00 X31.5699 Y74.9493 
G01 Z-0.1500 F254.00 
G01 X31.6507 Y75.0301 F508.00 
G01 X31.7142 Y75.1252 
X31.7579 Y75.2308 
X31.7802 Y75.3429 
Y75.4571 
X31.7579 Y75.5692 
X31.7142 Y75.6748 
X31.6507 Y75.7699 
X31.5699 Y75.8507 
X31.4748 Y75.9142 
X31.3692 Y75.9579 
X31.2571 Y75.9802 
X27.2429 
X27.1308 Y75.9579 
X27.0252 Y75.9142 
X26.9301 Y75.8507 
X26.8493 Y75.7699 
X26.7858 Y75.6748 
X26.7421 Y75.5692 
X26.7198 Y75.4571 
Y75.3429 
X26.7421 Y75.2308 
X26.7858 Y75.1252 
X26.8493 Y75.0301 
X26.9301 Y74.9493 
X27.0252 Y74.8858 
X27.1308 Y74.8421 
X27.2429 Y74.8198 
X31.2571 
X31.3692 Y74.8421 
X31.4748 Y74.8858 
X31.5699 Y74.9493 
G00 Z2.0000 
G00 X59.5222 Y71.9113 
G01 Z-0.1500 F254.00 
G01 X59.4067 Y71.7958 F508.00 
G01 X59.3107 Y71.6637 
X59.2366 Y71.5182 
X59.1861 Y71.3629 
X59.1606 Y71.2016 
Y71.0384 
X59.1861 Y70.8771 
X59.2366 Y70.7218 
X59.3107 Y70.5763 
X59.4067 Y70.4442 
X59.5222 Y70.3287 
X59.6543 Y70.2327 
X59.7998 Y70.1586 
X59.9551 Y70.1081 
X60.1164 Y70.0826 
X60.4312 
X60.5130 Y70.0409 
X60.6873 Y69.9843 
X60.8684 Y69.9556 
X62.3216 
X62.5027 Y69.9843 
X62.6770 Y70.0409 
X62.8403 Y70.1241 
X62.9886 Y70.2318 
X65.0618 Y72.3051 
X65.3312 
X66.1249 Y73.0988 
Y74.2212 
X65.3312 Y75.0149 
X64.2088 
X63.4151 Y74.2212 
Y73.9518 
X61.7477 Y72.2844 
X60.8684 
X60.6873 Y72.2557 
X60.5130 Y72.1991 
X60.4312 Y72.1574 
X60.1164 
X59.9551 Y72.1319 
X59.7998 Y72.0814 
X59.6543 Y72.0073 
X59.5222 Y71.9113 
G00 Z2.0000 
G00 X59.5222 Y69.3713 
G01 Z-0.1500 F254.00 
G01 X59.4067 Y69.2558 F508.00 
G01 X59.3107 Y69.1237 
X59.2366 Y68.9782 
X59.1861 Y68.8229 
X59.1606 Y68.6616 
Y68.4984 
X59.1861 Y68.3371 
X59.2366 Y68.1818 
X59.3107 Y68.0363 
X59.4067 Y67.9042 
X59.5222 Y67.7887 
X59.6543 Y67.6927 
X59.7998 Y67.6186 
X59.9551 Y67.5681 
X60.1164 Y67.5426 
X60.4312 
X60.5130 Y67.5009 
X60.6873 Y67.4443 
X60.8684 Y67.4156 
X63.5916 
X63.7727 Y67.4443 
X63.9470 Y67.5009 
X64.1103 Y67.5841 
X64.2586 Y67.6918 
X65.0618 Y68.4951 
X65.3312 
X66.1249 Y69.2888 
Y70.4112 
X65.3312 Y71.2049 
X64.2088 
X63.4151 Y70.4112 
Y70.1418 
X63.0177 Y69.7444 
X60.8684 
X60.6873 Y69.7157 
X60.5130 Y69.6591 
X60.4312 Y69.6174 
X60.1164 
X59.9551 Y69.5919 
X59.7998 Y69.5414 
X59.6543 Y69.4673 
X59.5222 Y69.3713 
G00 Z2.0000 
G00 X59.5222 Y66.8313 
G01 Z-0.1500 F254.00 
G01 X59.4067 Y66.7158 F508.00 
G01 X59.3107 Y66.5837 
X59.2366 Y66.4382 
X59.1861 Y66.2829 
X59.1606 Y66.1216 
Y65.9584 
X59.1861 Y65.7971 
X59.2366 Y65.6418 
X59.3107 Y65.4963 
X59.4067 Y65.3642 
X59.5222 Y65.2487 
X59.6543 Y65.1527 
X59.7998 Y65.0786 
X59.9551 Y65.0281 
X60.1164 Y65.0026 
X60.4312 
X60.5130 Y64.9609 
X60.6873 Y64.9043 
X60.8684 Y64.8756 
X64.0183 
X64.2088 Y64.6851 
X65.3312 
X66.1249 Y65.4788 
Y66.6012 
X65.3312 Y67.3949 
X64.2088 
X64.0183 Y67.2044 
X60.8684 
X60.6873 Y67.1757 
X60.5130 Y67.1191 
X60.4312 Y67.0774 
X60.1164 
X59.9551 Y67.0519 
X59.7998 Y67.0014 
X59.6543 Y66.9273 
X59.5222 Y66.8313 
G00 Z2.0000 
G00 X59.5222 Y63.0213 
G01 Z-0.1500 F254.00 
G01 X59.4067 Y62.9058 F508.00 
G01 X59.3107 Y62.7737 
X59.2366 Y62.6282 
X59.1861 Y62.4729 
X59.1606 Y62.3116 
Y62.1484 
X59.1861 Y61.9871 
X59.2366 Y61.8318 
X59.3107 Y61.6863 
X59.4067 Y61.5542 
X59.5222 Y61.4387 
X59.6543 Y61.3427 
X59.7998 Y61.2686 
X59.9551 Y61.2181 
X60.1164 Y61.1926 
X60.4312 
X60.5130 Y61.1509 
X60.6873 Y61.0943 
X60.8684 Y61.0656 
X64.0183 
X64.2088 Y60.8751 
X65.3312 
X66.1249 Y61.6688 
Y62.7912 
X65.3312 Y63.5849 
X64.2088 
X64.0183 Y63.3944 
X60.8684 
X60.6873 Y63.3657 
X60.5130 Y63.3091 
X60.4312 Y63.2674 
X60.1164 
X59.9551 Y63.2419 
X59.7998 Y63.1914 
X59.6543 Y63.1173 
X59.5222 Y63.0213 
G00 Z2.0000 
G82 X39.3700 Y66.0400 Z-0.2500 F508.00 R2.0000 P0.000000
G82 X39.3700 Y69.8500 
G82 X39.3700 Y73.6600 
G82 X44.4500 Y66.0400 
G82 X44.4500 Y68.5800 
G82 X44.4500 Y71.1200 
G82 X44.4500 Y58.4200 
G82 X39.3700 Y54.6100 
G82 X39.3700 Y58.4200 
G82 X39.3700 Y62.2300 
G82 X44.4500 Y60.9600 
G82 X44.4500 Y63.5000 
G82 X64.7700 Y69.8500 
G82 X64.7700 Y66.0400 
G82 X60.9600 Y66.0400 
G82 X60.9600 Y68.5800 
G82 X60.9600 Y71.1200 
G82 X64.7700 Y73.6600 
G82 X64.7700 Y54.6100 
G82 X44.4500 Y50.8000 
G82 X64.7700 Y58.4200 
G82 X64.7700 Y62.2300 
G82 X44.4500 Y53.3400 
G82 X39.3700 Y44.4500 
G82 X60.9600 Y59.6900 
G82 X60.9600 Y62.2300 
G00 Z5.0000 
M05
M02
