(/home/mst/.eagle/ulp/pcb-gcode.ulp)
(Copyright 2005 - 2012 by John Johnson)
(See readme.txt for licensing terms.)
(This file generated from the board:)
(.../mst/eagle/ovc3868/ovc3868-2.brd)
(Current profile is .../mst/.eagle/ulp/profiles/emc.pp  )
(This file generated 12.02.16 01:06)
(Settings from pcb-machine.h)
(spindle on time = 1.0000)
(  Tool Size)
(0.5000 )
(spindle speed = 30000.0000)
(tool change at 0.0000 0.0000 25.4000 )
(feed rate xy = F508.00 )
(feed rate z  = F254.00 )
(Z Axis Settings)
(  High     Up        Down     Drill)
(5.0000 	2.0000 	-0.1500 	-0.2000 )
(Settings from pcb-defaults.h)
(isolate min = 0.0600)
(isolate max = 0.5080)
(isolate step = 0.1270)
(Generated top outlines, bottom outlines, )
(Unit of measure: mm)
(Metric Mode)
G21
(Absolute Coordinates)
G90
S30000
G00 Z5.0000 
G00 X0.0000 Y0.0000 
M03
G04 P1.000000
G00 Z2.0000 
G00 X1.0519 Y1.1097 
G01 Z-0.1500 F254.00 
G01 X1.1097 Y1.0519 F508.00 
G01 X1.1803 Y1.0111 
X1.2592 Y0.9900 
X15.6408 
X15.7197 Y1.0111 
X15.7903 Y1.0519 
X15.8481 Y1.1097 
X15.8889 Y1.1803 
X15.9100 Y1.2592 
Y3.3736 
X16.5790 
X16.6579 Y3.3947 
X16.7285 Y3.4355 
X16.7863 Y3.4933 
X16.8271 Y3.5639 
X16.8482 Y3.6428 
Y5.9596 
X16.8271 Y6.0385 
X16.7863 Y6.1091 
X16.7285 Y6.1669 
X16.6579 Y6.2077 
X16.5790 Y6.2288 
X15.9100 
Y6.5408 
X15.8889 Y6.6197 
X15.8481 Y6.6903 
X15.7903 Y6.7481 
X15.7197 Y6.7889 
X15.6408 Y6.8100 
X10.7697 
X10.7197 Y6.8389 
X10.6408 Y6.8600 
X8.0592 
X7.9803 Y6.8389 
X7.9303 Y6.8100 
X3.1600 
Y14.3737 
X3.1218 Y14.5161 
X3.0481 Y14.6438 
X2.9438 Y14.7481 
X2.9244 Y14.7593 
Y15.1752 
X2.9033 Y15.2541 
X2.8625 Y15.3247 
X2.8047 Y15.3825 
X2.7341 Y15.4233 
X2.6552 Y15.4444 
X0.7448 
X0.6659 Y15.4233 
X0.5953 Y15.3825 
X0.5375 Y15.3247 
X0.4967 Y15.2541 
X0.4756 Y15.1752 
Y13.2648 
X0.4967 Y13.1859 
X0.5375 Y13.1153 
X0.5953 Y13.0575 
X0.6659 Y13.0167 
X0.7448 Y12.9956 
X0.9900 
Y6.5408 
Y1.2592 
X1.0111 Y1.1803 
X1.0519 Y1.1097 
G00 Z2.0000 
G00 X3.6519 Y7.6097 
G01 Z-0.1500 F254.00 
G01 X3.7097 Y7.5519 F508.00 
G01 X3.7803 Y7.5111 
X3.8592 Y7.4900 
X17.6500 
Y6.2288 
X17.5896 
X17.5107 Y6.2077 
X17.4401 Y6.1669 
X17.3823 Y6.1091 
X17.3415 Y6.0385 
X17.3204 Y5.9596 
Y3.6428 
X17.3415 Y3.5639 
X17.3823 Y3.4933 
X17.4401 Y3.4355 
X17.5107 Y3.3947 
X17.5896 Y3.3736 
X17.6500 
Y1.4463 
X17.6882 Y1.3038 
X17.7619 Y1.1762 
X17.8662 Y1.0719 
X17.9938 Y0.9982 
X18.1363 Y0.9600 
X27.2037 
X27.3157 Y0.9900 
X30.7323 
X30.7519 Y0.9562 
X30.8561 Y0.8519 
X30.9838 Y0.7782 
X31.1263 Y0.7400 
X31.2737 
X31.4161 Y0.7782 
X31.5438 Y0.8519 
X31.6481 Y0.9562 
X31.7218 Y1.0838 
X31.7600 Y1.2263 
Y11.6445 
X31.7636 Y11.6625 
X31.7600 Y11.7180 
Y11.7737 
X31.7553 Y11.7914 
Y11.8096 
X31.7362 Y11.8624 
X31.7218 Y11.9162 
X31.7127 Y11.9320 
X31.7068 Y11.9493 
X31.6760 Y11.9956 
X31.6481 Y12.0438 
X31.6352 Y12.0568 
X29.0760 Y15.8956 
X29.0481 Y15.9438 
X29.0352 Y15.9568 
X29.0251 Y15.9720 
X28.9832 Y16.0087 
X28.9438 Y16.0481 
X28.9280 Y16.0572 
X28.9143 Y16.0693 
X28.8644 Y16.0940 
X28.8162 Y16.1218 
X28.7985 Y16.1266 
X28.7821 Y16.1347 
X28.7275 Y16.1456 
X28.6737 Y16.1600 
X28.6554 
X28.6375 Y16.1636 
X28.5820 Y16.1600 
X21.3600 
Y20.8737 
X21.3218 Y21.0161 
X21.2481 Y21.1438 
X21.1438 Y21.2481 
X21.0161 Y21.3218 
X20.8737 Y21.3600 
X6.4263 
X6.2838 Y21.3218 
X6.1562 Y21.2481 
X6.0519 Y21.1438 
X5.9782 Y21.0161 
X5.9400 Y20.8737 
Y20.7263 
X5.9782 Y20.5838 
X6.0519 Y20.4562 
X6.1562 Y20.3519 
X6.2838 Y20.2782 
X6.4263 Y20.2400 
X20.2400 
Y15.5263 
X20.2782 Y15.3838 
X20.3519 Y15.2561 
X20.4562 Y15.1519 
X20.5838 Y15.0782 
X20.7263 Y15.0400 
X28.3003 
X30.6400 Y11.5304 
Y8.1100 
X24.6592 
X24.5803 Y8.0889 
X24.5097 Y8.0481 
X24.4519 Y7.9903 
X24.4111 Y7.9197 
X24.3900 Y7.8408 
Y2.9100 
X18.7700 
Y3.3736 
X18.8904 
X18.9693 Y3.3947 
X19.0399 Y3.4355 
X19.0977 Y3.4933 
X19.1385 Y3.5639 
X19.1596 Y3.6428 
Y5.9596 
X19.1385 Y6.0385 
X19.0977 Y6.1091 
X19.0399 Y6.1669 
X18.9693 Y6.2077 
X18.8904 Y6.2288 
X18.7700 
Y7.4900 
X22.1408 
X22.2197 Y7.5111 
X22.2903 Y7.5519 
X22.3481 Y7.6097 
X22.3889 Y7.6803 
X22.4100 Y7.7592 
Y13.0408 
X22.3889 Y13.1197 
X22.3481 Y13.1903 
X22.2903 Y13.2481 
X22.2197 Y13.2889 
X22.1408 Y13.3100 
X18.5100 
Y15.6408 
X18.4889 Y15.7197 
X18.4481 Y15.7903 
X18.3903 Y15.8481 
X18.3197 Y15.8889 
X18.2408 Y15.9100 
X5.6820 
X5.6361 Y15.9559 
X5.6267 Y15.9701 
X5.5841 Y16.0079 
X5.5438 Y16.0481 
X4.2438 Y17.3481 
X4.1162 Y17.4218 
X3.9737 Y17.4600 
X2.9244 
Y17.7152 
X2.9033 Y17.7941 
X2.8625 Y17.8647 
X2.8047 Y17.9225 
X2.7341 Y17.9633 
X2.6552 Y17.9844 
X0.7448 
X0.6659 Y17.9633 
X0.5953 Y17.9225 
X0.5375 Y17.8647 
X0.4967 Y17.7941 
X0.4756 Y17.7152 
Y15.8048 
X0.4967 Y15.7259 
X0.5375 Y15.6553 
X0.5953 Y15.5975 
X0.6659 Y15.5567 
X0.7448 Y15.5356 
X2.6552 
X2.7341 Y15.5567 
X2.8047 Y15.5975 
X2.8625 Y15.6553 
X2.9033 Y15.7259 
X2.9199 Y15.7881 
X3.5562 Y15.1519 
X3.5900 Y15.1323 
Y7.7592 
X3.6111 Y7.6803 
X3.6519 Y7.6097 
G00 Z2.0000 
G00 X6.1432 Y16.4648 
G01 Z-0.1500 F254.00 
G01 X6.1562 Y16.4519 F508.00 
G01 X6.2044 Y16.4240 
X6.2507 Y16.3932 
X6.2680 Y16.3873 
X6.2838 Y16.3782 
X6.3376 Y16.3637 
X6.3904 Y16.3459 
X6.4086 
X6.4263 Y16.3400 
X6.4820 
X6.5375 Y16.3364 
X6.5555 Y16.3400 
X10.4737 
X10.6161 Y16.3782 
X10.7438 Y16.4519 
X10.8481 Y16.5561 
X10.9218 Y16.6838 
X10.9600 Y16.8263 
Y16.9737 
X10.9218 Y17.1162 
X10.8481 Y17.2438 
X10.7438 Y17.3481 
X10.6161 Y17.4218 
X10.4737 Y17.4600 
X6.6696 
X6.3816 Y17.6520 
X6.4263 Y17.6400 
X18.9400 
Y14.2263 
X18.9782 Y14.0838 
X19.0519 Y13.9561 
X19.1562 Y13.8519 
X19.2838 Y13.7782 
X19.4263 Y13.7400 
X23.0900 
Y10.9362 
X23.0738 Y10.9318 
X22.9461 Y10.8581 
X22.8419 Y10.7538 
X22.7682 Y10.6262 
X22.7300 Y10.4837 
Y5.3612 
X21.4710 
Y5.9596 
X21.4499 Y6.0385 
X21.4091 Y6.1091 
X21.3513 Y6.1669 
X21.2807 Y6.2077 
X21.2018 Y6.2288 
X19.9010 
X19.8221 Y6.2077 
X19.7515 Y6.1669 
X19.6937 Y6.1091 
X19.6529 Y6.0385 
X19.6318 Y5.9596 
Y3.6428 
X19.6529 Y3.5639 
X19.6937 Y3.4933 
X19.7515 Y3.4355 
X19.8221 Y3.3947 
X19.9010 Y3.3736 
X21.2018 
X21.2807 Y3.3947 
X21.3513 Y3.4355 
X21.4091 Y3.4933 
X21.4499 Y3.5639 
X21.4710 Y3.6428 
Y4.2412 
X23.3637 
X23.5062 Y4.2794 
X23.6338 Y4.3531 
X23.7381 Y4.4573 
X23.8118 Y4.5850 
X23.8500 Y4.7275 
Y8.7900 
X28.6408 
X28.7197 Y8.8111 
X28.7903 Y8.8519 
X28.8481 Y8.9097 
X28.8889 Y8.9803 
X28.9100 Y9.0592 
Y13.0408 
X28.8889 Y13.1197 
X28.8481 Y13.1903 
X28.7903 Y13.2481 
X28.7197 Y13.2889 
X28.6408 Y13.3100 
X27.8600 
Y14.3737 
X27.8218 Y14.5161 
X27.7481 Y14.6438 
X27.6438 Y14.7481 
X27.5161 Y14.8218 
X27.3737 Y14.8600 
X20.0600 
Y18.2737 
X20.0218 Y18.4161 
X19.9481 Y18.5438 
X19.8438 Y18.6481 
X19.7161 Y18.7218 
X19.5737 Y18.7600 
X6.4263 
X6.2838 Y18.7218 
X6.1562 Y18.6481 
X6.0519 Y18.5438 
X5.9782 Y18.4161 
X5.9400 Y18.2737 
Y18.1263 
X5.9782 Y17.9838 
X6.0372 Y17.8815 
X2.9244 Y19.9568 
Y20.2552 
X2.9033 Y20.3341 
X2.8625 Y20.4047 
X2.8047 Y20.4625 
X2.7341 Y20.5033 
X2.6552 Y20.5244 
X0.7448 
X0.6659 Y20.5033 
X0.5953 Y20.4625 
X0.5375 Y20.4047 
X0.4967 Y20.3341 
X0.4756 Y20.2552 
Y18.3448 
X0.4967 Y18.2659 
X0.5375 Y18.1953 
X0.5953 Y18.1375 
X0.6659 Y18.0967 
X0.7448 Y18.0756 
X2.6552 
X2.7341 Y18.0967 
X2.8047 Y18.1375 
X2.8625 Y18.1953 
X2.9033 Y18.2659 
X2.9244 Y18.3448 
Y18.6107 
X6.1432 Y16.4648 
G00 Z2.0000 
G00 X6.1562 Y19.0519 
G01 Z-0.1500 F254.00 
G01 X6.2838 Y18.9782 F508.00 
G01 X6.4263 Y18.9400 
X10.4737 
X10.6161 Y18.9782 
X10.7438 Y19.0519 
X10.8481 Y19.1562 
X10.9218 Y19.2838 
X10.9600 Y19.4263 
Y19.5737 
X10.9218 Y19.7161 
X10.8481 Y19.8438 
X10.7438 Y19.9481 
X10.6161 Y20.0218 
X10.4737 Y20.0600 
X6.4263 
X6.2838 Y20.0218 
X6.1562 Y19.9481 
X6.0519 Y19.8438 
X5.9782 Y19.7161 
X5.9400 Y19.5737 
Y19.4263 
X5.9782 Y19.2838 
X6.0519 Y19.1562 
X6.1562 Y19.0519 
G00 Z2.0000 
G00 X6.1562 Y21.6519 
G01 Z-0.1500 F254.00 
G01 X6.2838 Y21.5782 F508.00 
G01 X6.4263 Y21.5400 
X10.4737 
X10.6161 Y21.5782 
X10.7438 Y21.6519 
X10.8481 Y21.7562 
X10.9218 Y21.8838 
X10.9600 Y22.0263 
Y22.1737 
X10.9218 Y22.3162 
X10.8481 Y22.4438 
X10.7438 Y22.5481 
X10.6161 Y22.6218 
X10.4737 Y22.6600 
X6.4263 
X6.2838 Y22.6218 
X6.1562 Y22.5481 
X6.0519 Y22.4438 
X5.9782 Y22.3162 
X5.9400 Y22.1737 
Y22.0263 
X5.9782 Y21.8838 
X6.0519 Y21.7562 
X6.1562 Y21.6519 
G00 Z2.0000 
G00 X6.5909 Y22.8400 
G01 Z-0.1500 F254.00 
G01 X10.4737 Y22.8400 F508.00 
G01 X10.6161 Y22.8782 
X10.7438 Y22.9519 
X10.8481 Y23.0561 
X10.9218 Y23.1838 
X10.9600 Y23.3263 
Y23.4737 
X10.9218 Y23.6162 
X10.8481 Y23.7438 
X10.7438 Y23.8481 
X10.6161 Y23.9218 
X10.4737 Y23.9600 
X6.5567 
X6.5400 Y23.9634 
X6.4832 Y23.9600 
X6.4263 
X6.4098 Y23.9556 
X6.3929 
X6.3388 Y23.9366 
X6.2838 Y23.9218 
X6.2691 Y23.9133 
X2.9236 Y22.7982 
X2.9033 Y22.8741 
X2.8625 Y22.9447 
X2.8047 Y23.0025 
X2.7341 Y23.0433 
X2.6552 Y23.0644 
X0.7448 
X0.6659 Y23.0433 
X0.5953 Y23.0025 
X0.5375 Y22.9447 
X0.4967 Y22.8741 
X0.4756 Y22.7952 
Y20.8848 
X0.4967 Y20.8059 
X0.5375 Y20.7353 
X0.5953 Y20.6775 
X0.6659 Y20.6367 
X0.7448 Y20.6156 
X2.6552 
X2.7341 Y20.6367 
X2.8047 Y20.6775 
X2.8625 Y20.7353 
X2.9033 Y20.8059 
X2.9244 Y20.8848 
Y21.6178 
X6.5909 Y22.8400 
G00 Z2.0000 
G00 X6.4394 Y24.0852 
G01 Z-0.1500 F254.00 
G01 X10.4606 Y24.0852 F508.00 
G01 X10.5793 Y24.1088 
X10.6912 Y24.1552 
X10.7919 Y24.2225 
X10.8775 Y24.3081 
X10.9448 Y24.4088 
X10.9912 Y24.5207 
X11.0148 Y24.6394 
Y24.7606 
X10.9912 Y24.8793 
X10.9448 Y24.9912 
X10.8775 Y25.0919 
X10.7919 Y25.1775 
X10.6912 Y25.2448 
X10.5793 Y25.2912 
X10.4606 Y25.3148 
X6.4394 
X6.3207 Y25.2912 
X6.2454 Y25.2600 
X2.9244 
Y25.3352 
X2.9033 Y25.4141 
X2.8625 Y25.4847 
X2.8047 Y25.5425 
X2.7341 Y25.5833 
X2.6552 Y25.6044 
X0.7448 
X0.6659 Y25.5833 
X0.5953 Y25.5425 
X0.5375 Y25.4847 
X0.4967 Y25.4141 
X0.4756 Y25.3352 
Y23.4248 
X0.4967 Y23.3459 
X0.5375 Y23.2753 
X0.5953 Y23.2175 
X0.6659 Y23.1767 
X0.7448 Y23.1556 
X2.6552 
X2.7341 Y23.1767 
X2.8047 Y23.2175 
X2.8625 Y23.2753 
X2.9033 Y23.3459 
X2.9244 Y23.4248 
Y24.1400 
X6.2454 
X6.3207 Y24.1088 
X6.4394 Y24.0852 
G00 Z2.0000 
G00 X6.4394 Y25.3852 
G01 Z-0.1500 F254.00 
G01 X10.4606 Y25.3852 F508.00 
G01 X10.5793 Y25.4088 
X10.6912 Y25.4552 
X10.7919 Y25.5225 
X10.8775 Y25.6081 
X10.9448 Y25.7088 
X10.9912 Y25.8207 
X11.0148 Y25.9394 
Y26.0606 
X10.9912 Y26.1793 
X10.9448 Y26.2912 
X10.8775 Y26.3919 
X10.7919 Y26.4775 
X10.6912 Y26.5448 
X10.5793 Y26.5912 
X10.4606 Y26.6148 
X6.4394 
X6.3207 Y26.5912 
X6.2088 Y26.5448 
X6.1081 Y26.4775 
X6.0225 Y26.3919 
X5.9552 Y26.2912 
X5.9088 Y26.1793 
X5.8852 Y26.0606 
Y25.9394 
X5.9088 Y25.8207 
X5.9552 Y25.7088 
X6.0225 Y25.6081 
X6.1081 Y25.5225 
X6.2088 Y25.4552 
X6.3207 Y25.4088 
X6.4394 Y25.3852 
G00 Z2.0000 
G00 X6.4394 Y26.6852 
G01 Z-0.1500 F254.00 
G01 X10.4606 Y26.6852 F508.00 
G01 X10.5793 Y26.7088 
X10.6912 Y26.7552 
X10.7919 Y26.8225 
X10.8775 Y26.9081 
X10.9448 Y27.0088 
X10.9912 Y27.1207 
X11.0148 Y27.2394 
Y27.3606 
X10.9912 Y27.4793 
X10.9448 Y27.5912 
X10.8775 Y27.6919 
X10.7919 Y27.7775 
X10.6912 Y27.8448 
X10.5793 Y27.8912 
X10.4606 Y27.9148 
X6.4394 
X6.3207 Y27.8912 
X6.2088 Y27.8448 
X6.1081 Y27.7775 
X6.0225 Y27.6919 
X5.9552 Y27.5912 
X5.9088 Y27.4793 
X5.8852 Y27.3606 
Y27.2394 
X5.9088 Y27.1207 
X5.9552 Y27.0088 
X6.0225 Y26.9081 
X6.1081 Y26.8225 
X6.2088 Y26.7552 
X6.3207 Y26.7088 
X6.4394 Y26.6852 
G00 Z2.0000 
G00 X6.4394 Y27.9852 
G01 Z-0.1500 F254.00 
G01 X10.4606 Y27.9852 F508.00 
G01 X10.5793 Y28.0088 
X10.6912 Y28.0552 
X10.7919 Y28.1225 
X10.8775 Y28.2081 
X10.9448 Y28.3088 
X10.9912 Y28.4207 
X11.0148 Y28.5394 
Y28.6606 
X10.9912 Y28.7793 
X10.9448 Y28.8912 
X10.8775 Y28.9919 
X10.7919 Y29.0775 
X10.6912 Y29.1448 
X10.5793 Y29.1912 
X10.4606 Y29.2148 
X6.4394 
X6.3207 Y29.1912 
X6.2088 Y29.1448 
X6.1081 Y29.0775 
X6.0813 Y29.0507 
X2.8852 Y27.9854 
X2.8625 Y28.0247 
X2.8047 Y28.0825 
X2.7341 Y28.1233 
X2.6552 Y28.1444 
X0.7448 
X0.6659 Y28.1233 
X0.5953 Y28.0825 
X0.5375 Y28.0247 
X0.4967 Y27.9541 
X0.4756 Y27.8752 
Y25.9648 
X0.4967 Y25.8859 
X0.5375 Y25.8153 
X0.5953 Y25.7575 
X0.6659 Y25.7167 
X0.7448 Y25.6956 
X2.6552 
X2.7341 Y25.7167 
X2.8047 Y25.7575 
X2.8625 Y25.8153 
X2.9033 Y25.8859 
X2.9244 Y25.9648 
Y26.8178 
X6.4313 Y27.9868 
X6.4394 
G00 Z2.0000 
G00 X6.4394 Y29.2852 
G01 Z-0.1500 F254.00 
G01 X10.4606 Y29.2852 F508.00 
G01 X10.5793 Y29.3088 
X10.6912 Y29.3552 
X10.7919 Y29.4225 
X10.8775 Y29.5081 
X10.9448 Y29.6088 
X10.9912 Y29.7207 
X11.0148 Y29.8394 
Y29.9606 
X10.9912 Y30.0793 
X10.9448 Y30.1912 
X10.8775 Y30.2919 
X10.7919 Y30.3775 
X10.6912 Y30.4448 
X10.5793 Y30.4912 
X10.4606 Y30.5148 
X6.4394 
X6.3207 Y30.4912 
X6.2454 Y30.4600 
X2.9124 
X2.9033 Y30.4941 
X2.8625 Y30.5647 
X2.8047 Y30.6225 
X2.7341 Y30.6633 
X2.6552 Y30.6844 
X0.7448 
X0.6659 Y30.6633 
X0.5953 Y30.6225 
X0.5375 Y30.5647 
X0.4967 Y30.4941 
X0.4756 Y30.4152 
Y28.5048 
X0.4967 Y28.4259 
X0.5375 Y28.3553 
X0.5953 Y28.2975 
X0.6659 Y28.2567 
X0.7448 Y28.2356 
X2.6552 
X2.7341 Y28.2567 
X2.8047 Y28.2975 
X2.8625 Y28.3553 
X2.9033 Y28.4259 
X2.9244 Y28.5048 
Y29.3400 
X6.2454 
X6.3207 Y29.3088 
X6.4394 Y29.2852 
G00 Z2.0000 
G00 X6.4394 Y30.5852 
G01 Z-0.1500 F254.00 
G01 X10.4606 Y30.5852 F508.00 
G01 X10.5793 Y30.6088 
X10.6912 Y30.6552 
X10.7919 Y30.7225 
X10.8775 Y30.8081 
X10.9448 Y30.9088 
X10.9912 Y31.0207 
X11.0148 Y31.1394 
Y31.2606 
X10.9912 Y31.3793 
X10.9448 Y31.4912 
X10.8775 Y31.5919 
X10.7919 Y31.6775 
X10.6912 Y31.7448 
X10.5793 Y31.7912 
X10.4606 Y31.8148 
X6.4394 
X6.4313 
X2.9165 Y32.9848 
X2.9033 Y33.0341 
X2.8625 Y33.1047 
X2.8047 Y33.1625 
X2.7341 Y33.2033 
X2.6552 Y33.2244 
X0.7448 
X0.6659 Y33.2033 
X0.5953 Y33.1625 
X0.5375 Y33.1047 
X0.4967 Y33.0341 
X0.4756 Y32.9552 
Y31.0448 
X0.4967 Y30.9659 
X0.5375 Y30.8953 
X0.5953 Y30.8375 
X0.6659 Y30.7967 
X0.7448 Y30.7756 
X2.6552 
X2.7341 Y30.7967 
X2.8047 Y30.8375 
X2.8625 Y30.8953 
X2.9033 Y30.9659 
X2.9244 Y31.0448 
Y31.8016 
X6.0813 Y30.7493 
X6.1081 Y30.7225 
X6.2088 Y30.6552 
X6.3207 Y30.6088 
X6.4394 Y30.5852 
G00 Z2.0000 
G00 X11.3900 Y31.2408 
G01 Z-0.1500 F254.00 
G01 X11.3900 Y22.0592 F508.00 
G01 X11.4111 Y21.9803 
X11.4519 Y21.9097 
X11.5097 Y21.8519 
X11.5803 Y21.8111 
X11.6592 Y21.7900 
X23.4408 
X23.5197 Y21.8111 
X23.5903 Y21.8519 
X23.6481 Y21.9097 
X23.6889 Y21.9803 
X23.7100 Y22.0592 
Y31.2408 
X23.6889 Y31.3197 
X23.6481 Y31.3903 
X23.5903 Y31.4481 
X23.5197 Y31.4889 
X23.4408 Y31.5100 
X11.6592 
X11.5803 Y31.4889 
X11.5097 Y31.4481 
X11.4519 Y31.3903 
X11.4111 Y31.3197 
X11.3900 Y31.2408 
G00 Z2.0000 
G00 X24.1400 Y31.2737 
G01 Z-0.1500 F254.00 
G01 X24.1400 Y31.1263 F508.00 
G01 X24.1782 Y30.9838 
X24.2519 Y30.8561 
X24.3561 Y30.7519 
X24.4838 Y30.6782 
X24.6263 Y30.6400 
X28.5433 
X28.5600 Y30.6366 
X28.6168 Y30.6400 
X28.6737 
X28.6902 Y30.6444 
X28.7071 
X28.7612 Y30.6634 
X28.8162 Y30.6782 
X28.8309 Y30.6867 
X32.2256 Y31.8182 
Y31.0448 
X32.2467 Y30.9659 
X32.2875 Y30.8953 
X32.3453 Y30.8375 
X32.4159 Y30.7967 
X32.4948 Y30.7756 
X34.4052 
X34.4841 Y30.7967 
X34.5547 Y30.8375 
X34.6125 Y30.8953 
X34.6533 Y30.9659 
X34.6744 Y31.0448 
Y32.9552 
X34.6533 Y33.0341 
X34.6125 Y33.1047 
X34.5547 Y33.1625 
X34.4841 Y33.2033 
X34.4052 Y33.2244 
X32.4948 
X32.4159 Y33.2033 
X32.3453 Y33.1625 
X32.2875 Y33.1047 
X32.2467 Y33.0341 
X32.2384 Y33.0031 
X28.5091 Y31.7600 
X24.6263 
X24.4838 Y31.7218 
X24.3561 Y31.6481 
X24.2519 Y31.5438 
X24.1782 Y31.4161 
X24.1400 Y31.2737 
G00 Z2.0000 
G00 X24.3561 Y30.3481 
G01 Z-0.1500 F254.00 
G01 X24.2519 Y30.2438 F508.00 
G01 X24.1782 Y30.1162 
X24.1400 Y29.9737 
Y29.8263 
X24.1782 Y29.6838 
X24.2519 Y29.5561 
X24.3561 Y29.4519 
X24.4838 Y29.3782 
X24.6263 Y29.3400 
X32.2256 
Y28.5048 
X32.2467 Y28.4259 
X32.2875 Y28.3553 
X32.3453 Y28.2975 
X32.4159 Y28.2567 
X32.4948 Y28.2356 
X34.4052 
X34.4841 Y28.2567 
X34.5547 Y28.2975 
X34.6125 Y28.3553 
X34.6533 Y28.4259 
X34.6744 Y28.5048 
Y30.4152 
X34.6533 Y30.4941 
X34.6125 Y30.5647 
X34.5547 Y30.6225 
X34.4841 Y30.6633 
X34.4052 Y30.6844 
X32.4948 
X32.4159 Y30.6633 
X32.3453 Y30.6225 
X32.2875 Y30.5647 
X32.2467 Y30.4941 
X32.2376 Y30.4600 
X24.6263 
X24.4838 Y30.4218 
X24.3561 Y30.3481 
G00 Z2.0000 
G00 X24.3561 Y29.0481 
G01 Z-0.1500 F254.00 
G01 X24.2519 Y28.9438 F508.00 
G01 X24.1782 Y28.8162 
X24.1400 Y28.6737 
Y28.5263 
X24.1782 Y28.3838 
X24.2519 Y28.2562 
X24.3561 Y28.1519 
X24.4838 Y28.0782 
X24.6263 Y28.0400 
X28.5091 
X32.2256 Y26.8012 
Y25.9648 
X32.2467 Y25.8859 
X32.2875 Y25.8153 
X32.3453 Y25.7575 
X32.4159 Y25.7167 
X32.4948 Y25.6956 
X34.4052 
X34.4841 Y25.7167 
X34.5547 Y25.7575 
X34.6125 Y25.8153 
X34.6533 Y25.8859 
X34.6744 Y25.9648 
Y27.8752 
X34.6533 Y27.9541 
X34.6125 Y28.0247 
X34.5547 Y28.0825 
X34.4841 Y28.1233 
X34.4052 Y28.1444 
X32.4948 
X32.4159 Y28.1233 
X32.3453 Y28.0825 
X32.2875 Y28.0247 
X32.2567 Y27.9714 
X28.8309 Y29.1133 
X28.8162 Y29.1218 
X28.7612 Y29.1366 
X28.7071 Y29.1546 
X28.6902 
X28.6737 Y29.1600 
X28.6168 
X28.5600 Y29.1634 
X28.5433 Y29.1600 
X24.6263 
X24.4838 Y29.1218 
X24.3561 Y29.0481 
G00 Z2.0000 
G00 X24.3561 Y27.7481 
G01 Z-0.1500 F254.00 
G01 X24.2519 Y27.6438 F508.00 
G01 X24.1782 Y27.5161 
X24.1400 Y27.3737 
Y27.2263 
X24.1782 Y27.0838 
X24.2519 Y26.9562 
X24.3561 Y26.8519 
X24.4838 Y26.7782 
X24.6263 Y26.7400 
X28.4304 
X28.7184 Y26.5480 
X28.6737 Y26.5600 
X24.6263 
X24.4838 Y26.5218 
X24.3561 Y26.4481 
X24.2519 Y26.3438 
X24.1782 Y26.2161 
X24.1400 Y26.0737 
Y25.9263 
X24.1782 Y25.7838 
X24.2519 Y25.6562 
X24.3561 Y25.5519 
X24.4838 Y25.4782 
X24.6263 Y25.4400 
X28.6737 
X28.8162 Y25.4782 
X28.9438 Y25.5519 
X29.0481 Y25.6562 
X29.1218 Y25.7838 
X29.1600 Y25.9263 
Y26.0737 
X29.1218 Y26.2161 
X29.0628 Y26.3185 
X32.2256 Y24.2099 
Y23.4248 
X32.2467 Y23.3459 
X32.2875 Y23.2753 
X32.3453 Y23.2175 
X32.4159 Y23.1767 
X32.4948 Y23.1556 
X34.4052 
X34.4841 Y23.1767 
X34.5547 Y23.2175 
X34.6125 Y23.2753 
X34.6533 Y23.3459 
X34.6744 Y23.4248 
Y25.3352 
X34.6533 Y25.4141 
X34.6125 Y25.4847 
X34.5547 Y25.5425 
X34.4841 Y25.5833 
X34.4052 Y25.6044 
X32.4948 
X32.4159 Y25.5833 
X32.3453 Y25.5425 
X32.3055 Y25.5027 
X28.9568 Y27.7352 
X28.9438 Y27.7481 
X28.8956 Y27.7760 
X28.8493 Y27.8068 
X28.8320 Y27.8127 
X28.8162 Y27.8218 
X28.7624 Y27.8362 
X28.7096 Y27.8541 
X28.6914 
X28.6737 Y27.8600 
X28.6180 
X28.5625 Y27.8636 
X28.5445 Y27.8600 
X24.6263 
X24.4838 Y27.8218 
X24.3561 Y27.7481 
G00 Z2.0000 
G00 X24.3561 Y25.1481 
G01 Z-0.1500 F254.00 
G01 X24.2519 Y25.0438 F508.00 
G01 X24.1782 Y24.9161 
X24.1400 Y24.7737 
Y24.6263 
X24.1782 Y24.4838 
X24.2519 Y24.3561 
X24.3561 Y24.2519 
X24.4838 Y24.1782 
X24.6263 Y24.1400 
X28.6737 
X28.8162 Y24.1782 
X28.9438 Y24.2519 
X29.0481 Y24.3561 
X29.1218 Y24.4838 
X29.1600 Y24.6263 
Y24.7737 
X29.1218 Y24.9161 
X29.0481 Y25.0438 
X28.9438 Y25.1481 
X28.8162 Y25.2218 
X28.6737 Y25.2600 
X24.6263 
X24.4838 Y25.2218 
X24.3561 Y25.1481 
G00 Z2.0000 
G00 X24.3561 Y23.8481 
G01 Z-0.1500 F254.00 
G01 X24.2519 Y23.7438 F508.00 
G01 X24.1782 Y23.6162 
X24.1400 Y23.4737 
Y23.3263 
X24.1782 Y23.1838 
X24.2519 Y23.0561 
X24.3561 Y22.9519 
X24.4838 Y22.8782 
X24.6263 Y22.8400 
X28.6737 
X28.8162 Y22.8782 
X28.9438 Y22.9519 
X29.0481 Y23.0561 
X29.1218 Y23.1838 
X29.1600 Y23.3263 
Y23.4737 
X29.1218 Y23.6162 
X29.0481 Y23.7438 
X28.9438 Y23.8481 
X28.8162 Y23.9218 
X28.6737 Y23.9600 
X24.6263 
X24.4838 Y23.9218 
X24.3561 Y23.8481 
G00 Z2.0000 
G00 X24.3561 Y22.5481 
G01 Z-0.1500 F254.00 
G01 X24.2519 Y22.4438 F508.00 
G01 X24.1782 Y22.3162 
X24.1400 Y22.1737 
Y22.0263 
X24.1782 Y21.8838 
X24.2519 Y21.7562 
X24.3561 Y21.6519 
X24.4838 Y21.5782 
X24.6263 Y21.5400 
X32.2256 
Y20.8848 
X32.2467 Y20.8059 
X32.2875 Y20.7353 
X32.3453 Y20.6775 
X32.4159 Y20.6367 
X32.4948 Y20.6156 
X34.4052 
X34.4841 Y20.6367 
X34.5547 Y20.6775 
X34.6125 Y20.7353 
X34.6533 Y20.8059 
X34.6744 Y20.8848 
Y22.7952 
X34.6533 Y22.8741 
X34.6125 Y22.9447 
X34.5547 Y23.0025 
X34.4841 Y23.0433 
X34.4052 Y23.0644 
X32.4948 
X32.4159 Y23.0433 
X32.3453 Y23.0025 
X32.2875 Y22.9447 
X32.2467 Y22.8741 
X32.2256 Y22.7952 
Y22.6600 
X24.6263 
X24.4838 Y22.6218 
X24.3561 Y22.5481 
G00 Z2.0000 
G00 X24.3561 Y21.2481 
G01 Z-0.1500 F254.00 
G01 X24.2519 Y21.1438 F508.00 
G01 X24.1782 Y21.0161 
X24.1400 Y20.8737 
Y20.7263 
X24.1782 Y20.5838 
X24.2519 Y20.4562 
X24.3561 Y20.3519 
X24.4838 Y20.2782 
X24.6263 Y20.2400 
X28.5091 
X32.2256 Y19.0012 
Y18.3448 
X32.2467 Y18.2659 
X32.2875 Y18.1953 
X32.3453 Y18.1375 
X32.4159 Y18.0967 
X32.4948 Y18.0756 
X34.4052 
X34.4841 Y18.0967 
X34.5547 Y18.1375 
X34.6125 Y18.1953 
X34.6533 Y18.2659 
X34.6744 Y18.3448 
Y20.2552 
X34.6533 Y20.3341 
X34.6125 Y20.4047 
X34.5547 Y20.4625 
X34.4841 Y20.5033 
X34.4052 Y20.5244 
X32.4948 
X32.4159 Y20.5033 
X32.3453 Y20.4625 
X32.2875 Y20.4047 
X32.2467 Y20.3341 
X32.2256 Y20.2552 
Y20.1818 
X28.8309 Y21.3133 
X28.8162 Y21.3218 
X28.7612 Y21.3366 
X28.7071 Y21.3546 
X28.6902 
X28.6737 Y21.3600 
X28.6168 
X28.5600 Y21.3634 
X28.5433 Y21.3600 
X24.6263 
X24.4838 Y21.3218 
X24.3561 Y21.2481 
G00 Z2.0000 
G00 X24.3561 Y19.9481 
G01 Z-0.1500 F254.00 
G01 X24.2519 Y19.8438 F508.00 
G01 X24.1782 Y19.7161 
X24.1400 Y19.5737 
Y19.4263 
X24.1782 Y19.2838 
X24.2519 Y19.1562 
X24.3561 Y19.0519 
X24.4838 Y18.9782 
X24.6263 Y18.9400 
X28.4305 
X28.7184 Y18.7480 
X28.6737 Y18.7600 
X24.6263 
X24.4838 Y18.7218 
X24.3561 Y18.6481 
X24.2519 Y18.5438 
X24.1782 Y18.4161 
X24.1400 Y18.2737 
Y18.1263 
X24.1782 Y17.9838 
X24.2519 Y17.8561 
X24.3561 Y17.7519 
X24.4838 Y17.6782 
X24.6263 Y17.6400 
X28.3680 
X32.1561 Y13.8519 
X32.2256 Y13.8118 
Y13.2648 
X32.2467 Y13.1859 
X32.2875 Y13.1153 
X32.3453 Y13.0575 
X32.4159 Y13.0167 
X32.4948 Y12.9956 
X34.4052 
X34.4841 Y13.0167 
X34.5547 Y13.0575 
X34.6125 Y13.1153 
X34.6533 Y13.1859 
X34.6744 Y13.2648 
Y15.1752 
X34.6533 Y15.2541 
X34.6125 Y15.3247 
X34.5547 Y15.3825 
X34.4841 Y15.4233 
X34.4052 Y15.4444 
X32.4948 
X32.4159 Y15.4233 
X32.3453 Y15.3825 
X32.2875 Y15.3247 
X32.2801 Y15.3119 
X29.0950 Y18.4970 
X32.2256 Y16.4099 
Y15.8048 
X32.2467 Y15.7259 
X32.2875 Y15.6553 
X32.3453 Y15.5975 
X32.4159 Y15.5567 
X32.4948 Y15.5356 
X34.4052 
X34.4841 Y15.5567 
X34.5547 Y15.5975 
X34.6125 Y15.6553 
X34.6533 Y15.7259 
X34.6744 Y15.8048 
Y17.7152 
X34.6533 Y17.7941 
X34.6125 Y17.8647 
X34.5547 Y17.9225 
X34.4841 Y17.9633 
X34.4052 Y17.9844 
X32.4948 
X32.4159 Y17.9633 
X32.3453 Y17.9225 
X32.2875 Y17.8647 
X32.2467 Y17.7941 
X32.2349 Y17.7498 
X28.9568 Y19.9352 
X28.9438 Y19.9481 
X28.8956 Y19.9760 
X28.8493 Y20.0068 
X28.8320 Y20.0127 
X28.8162 Y20.0218 
X28.7623 Y20.0363 
X28.7096 Y20.0541 
X28.6914 
X28.6737 Y20.0600 
X28.6180 
X28.5625 Y20.0636 
X28.5446 Y20.0600 
X24.6263 
X24.4838 Y20.0218 
X24.3561 Y19.9481 
G00 Z2.0000 
G82 X1.7000 Y14.2200 Z-0.2500 F508.00 R2.0000 P0.000000
G82 X1.7000 Y16.7600 
G82 X1.7000 Y19.3000 
G82 X1.7000 Y21.8400 
G82 X1.7000 Y24.3800 
G82 X1.7000 Y26.9200 
G82 X1.7000 Y29.4600 
G82 X1.7000 Y32.0000 
G82 X33.4500 Y14.2200 
G82 X33.4500 Y16.7600 
G82 X33.4500 Y19.3000 
G82 X33.4500 Y21.8400 
G82 X33.4500 Y24.3800 
G82 X33.4500 Y26.9200 
G82 X33.4500 Y29.4600 
G82 X33.4500 Y32.0000 
G00 Z5.0000 
M05
M02
