(/home/mst/.eagle/ulp/pcb-gcode.ulp)
(Copyright 2005 - 2012 by John Johnson)
(See readme.txt for licensing terms.)
(This file generated from the board:)
(.../mst/eagle/ovc3868/ovc3868-1.brd)
(Current profile is .../mst/.eagle/ulp/profiles/emc.pp  )
(This file generated 12.02.16 00:08)
(Settings from pcb-machine.h)
(spindle on time = 1.0000)
(  Tool Size)
(0.5000 )
(spindle speed = 30000.0000)
(tool change at 0.0000 0.0000 25.4000 )
(feed rate xy = F508.00 )
(feed rate z  = F254.00 )
(Z Axis Settings)
(  High     Up        Down     Drill)
(5.0000 	2.0000 	-0.1500 	-0.2000 )
(Settings from pcb-defaults.h)
(isolate min = 0.0254)
(isolate max = 0.5080)
(isolate step = 0.1270)
(Generated top outlines, bottom outlines, )
(Unit of measure: mm)
(Metric Mode)
G21
(Absolute Coordinates)
G90
S30000
G00 Z5.0000 
G00 X0.0000 Y0.0000 
M03
G04 P1.000000
G00 Z2.0000 
G00 X-38.0151 Y43.8888 
G01 Z-0.1500 F254.00 
G01 X-38.0151 Y45.0112 F508.00 
G01 X-38.8088 Y45.8049 
X-39.9312 
X-40.7249 Y45.0112 
Y43.8888 
X-39.9312 Y43.0951 
X-38.8088 
X-38.0151 Y43.8888 
G00 Z2.0000 
G00 X-38.0151 Y54.0488 
G01 Z-0.1500 F254.00 
G01 X-38.0151 Y55.1712 F508.00 
G01 X-38.8088 Y55.9649 
X-39.9312 
X-40.7249 Y55.1712 
Y54.0488 
X-39.9312 Y53.2551 
X-38.8088 
X-38.0151 Y54.0488 
G00 Z2.0000 
G00 X-38.0151 Y57.8588 
G01 Z-0.1500 F254.00 
G01 X-38.0151 Y58.9812 F508.00 
G01 X-38.8088 Y59.7749 
X-39.9312 
X-40.7249 Y58.9812 
Y57.8588 
X-39.9312 Y57.0651 
X-38.8088 
X-38.0151 Y57.8588 
G00 Z2.0000 
G00 X-38.0151 Y61.6688 
G01 Z-0.1500 F254.00 
G01 X-38.0151 Y62.7912 F508.00 
G01 X-38.8088 Y63.5849 
X-39.9312 
X-40.7249 Y62.7912 
Y61.6688 
X-39.9312 Y60.8751 
X-38.8088 
X-38.0151 Y61.6688 
G00 Z2.0000 
G00 X-38.0151 Y65.4788 
G01 Z-0.1500 F254.00 
G01 X-38.0151 Y66.6012 F508.00 
G01 X-38.8088 Y67.3949 
X-39.9312 
X-40.7249 Y66.6012 
Y65.4788 
X-39.9312 Y64.6851 
X-38.8088 
X-38.0151 Y65.4788 
G00 Z2.0000 
G00 X-38.0151 Y69.2888 
G01 Z-0.1500 F254.00 
G01 X-38.0151 Y70.4112 F508.00 
G01 X-38.8088 Y71.2049 
X-39.9312 
X-40.7249 Y70.4112 
Y69.2888 
X-39.9312 Y68.4951 
X-38.8088 
X-38.0151 Y69.2888 
G00 Z2.0000 
G00 X-38.0151 Y73.0988 
G01 Z-0.1500 F254.00 
G01 X-38.0151 Y74.2212 F508.00 
G01 X-38.8088 Y75.0149 
X-39.9312 
X-40.7249 Y74.2212 
Y73.0988 
X-39.9312 Y72.3051 
X-38.8088 
X-38.0151 Y73.0988 
G00 Z2.0000 
G00 X-43.0122 Y71.9113 
G01 Z-0.1500 F254.00 
G01 X-43.1443 Y72.0073 F508.00 
G01 X-43.2898 Y72.0814 
X-43.4451 Y72.1319 
X-43.6064 Y72.1574 
X-45.2936 
X-45.4549 Y72.1319 
X-45.6102 Y72.0814 
X-45.7557 Y72.0073 
X-45.8878 Y71.9113 
X-46.0033 Y71.7958 
X-46.0993 Y71.6637 
X-46.1734 Y71.5182 
X-46.2239 Y71.3629 
X-46.2494 Y71.2016 
Y71.0384 
X-46.2239 Y70.8771 
X-46.1734 Y70.7218 
X-46.0993 Y70.5763 
X-46.0033 Y70.4442 
X-45.8878 Y70.3287 
X-45.7557 Y70.2327 
X-45.6102 Y70.1586 
X-45.4549 Y70.1081 
X-45.2936 Y70.0826 
X-43.6064 
X-43.4451 Y70.1081 
X-43.2898 Y70.1586 
X-43.1443 Y70.2327 
X-43.0122 Y70.3287 
X-42.8967 Y70.4442 
X-42.8007 Y70.5763 
X-42.7266 Y70.7218 
X-42.6761 Y70.8771 
X-42.6506 Y71.0384 
Y71.2016 
X-42.6761 Y71.3629 
X-42.7266 Y71.5182 
X-42.8007 Y71.6637 
X-42.8967 Y71.7958 
X-43.0122 Y71.9113 
G00 Z2.0000 
G00 X-43.0122 Y69.3713 
G01 Z-0.1500 F254.00 
G01 X-43.1443 Y69.4673 F508.00 
G01 X-43.2898 Y69.5414 
X-43.4451 Y69.5919 
X-43.6064 Y69.6174 
X-45.2936 
X-45.4549 Y69.5919 
X-45.6102 Y69.5414 
X-45.7557 Y69.4673 
X-45.8878 Y69.3713 
X-46.0033 Y69.2558 
X-46.0993 Y69.1237 
X-46.1734 Y68.9782 
X-46.2239 Y68.8229 
X-46.2494 Y68.6616 
Y68.4984 
X-46.2239 Y68.3371 
X-46.1734 Y68.1818 
X-46.0993 Y68.0363 
X-46.0033 Y67.9042 
X-45.8878 Y67.7887 
X-45.7557 Y67.6927 
X-45.6102 Y67.6186 
X-45.4549 Y67.5681 
X-45.2936 Y67.5426 
X-43.6064 
X-43.4451 Y67.5681 
X-43.2898 Y67.6186 
X-43.1443 Y67.6927 
X-43.0122 Y67.7887 
X-42.8967 Y67.9042 
X-42.8007 Y68.0363 
X-42.7266 Y68.1818 
X-42.6761 Y68.3371 
X-42.6506 Y68.4984 
Y68.6616 
X-42.6761 Y68.8229 
X-42.7266 Y68.9782 
X-42.8007 Y69.1237 
X-42.8967 Y69.2558 
X-43.0122 Y69.3713 
G00 Z2.0000 
G00 X-43.0122 Y66.8313 
G01 Z-0.1500 F254.00 
G01 X-43.1443 Y66.9273 F508.00 
G01 X-43.2898 Y67.0014 
X-43.4451 Y67.0519 
X-43.6064 Y67.0774 
X-45.2936 
X-45.4549 Y67.0519 
X-45.6102 Y67.0014 
X-45.7557 Y66.9273 
X-45.8878 Y66.8313 
X-46.0033 Y66.7158 
X-46.0993 Y66.5837 
X-46.1734 Y66.4382 
X-46.2239 Y66.2829 
X-46.2494 Y66.1216 
Y65.9584 
X-46.2239 Y65.7971 
X-46.1734 Y65.6418 
X-46.0993 Y65.4963 
X-46.0033 Y65.3642 
X-45.8878 Y65.2487 
X-45.7557 Y65.1527 
X-45.6102 Y65.0786 
X-45.4549 Y65.0281 
X-45.2936 Y65.0026 
X-43.6064 
X-43.4451 Y65.0281 
X-43.2898 Y65.0786 
X-43.1443 Y65.1527 
X-43.0122 Y65.2487 
X-42.8967 Y65.3642 
X-42.8007 Y65.4963 
X-42.7266 Y65.6418 
X-42.6761 Y65.7971 
X-42.6506 Y65.9584 
Y66.1216 
X-42.6761 Y66.2829 
X-42.7266 Y66.4382 
X-42.8007 Y66.5837 
X-42.8967 Y66.7158 
X-43.0122 Y66.8313 
G00 Z2.0000 
G00 X-43.0122 Y64.2913 
G01 Z-0.1500 F254.00 
G01 X-43.1443 Y64.3873 F508.00 
G01 X-43.2898 Y64.4614 
X-43.4451 Y64.5119 
X-43.6064 Y64.5374 
X-45.2936 
X-45.4549 Y64.5119 
X-45.6102 Y64.4614 
X-45.7557 Y64.3873 
X-45.8878 Y64.2913 
X-46.0033 Y64.1758 
X-46.0993 Y64.0437 
X-46.1734 Y63.8982 
X-46.2239 Y63.7429 
X-46.2494 Y63.5816 
Y63.4184 
X-46.2239 Y63.2571 
X-46.1734 Y63.1018 
X-46.0993 Y62.9563 
X-46.0033 Y62.8242 
X-45.8878 Y62.7087 
X-45.7557 Y62.6127 
X-45.6102 Y62.5386 
X-45.4549 Y62.4881 
X-45.2936 Y62.4626 
X-43.6064 
X-43.4451 Y62.4881 
X-43.2898 Y62.5386 
X-43.1443 Y62.6127 
X-43.0122 Y62.7087 
X-42.8967 Y62.8242 
X-42.8007 Y62.9563 
X-42.7266 Y63.1018 
X-42.6761 Y63.2571 
X-42.6506 Y63.4184 
Y63.5816 
X-42.6761 Y63.7429 
X-42.7266 Y63.8982 
X-42.8007 Y64.0437 
X-42.8967 Y64.1758 
X-43.0122 Y64.2913 
G00 Z2.0000 
G00 X-43.0122 Y61.7513 
G01 Z-0.1500 F254.00 
G01 X-43.1443 Y61.8473 F508.00 
G01 X-43.2898 Y61.9214 
X-43.4451 Y61.9719 
X-43.6064 Y61.9974 
X-45.2936 
X-45.4549 Y61.9719 
X-45.6102 Y61.9214 
X-45.7557 Y61.8473 
X-45.8878 Y61.7513 
X-46.0033 Y61.6358 
X-46.0993 Y61.5037 
X-46.1734 Y61.3582 
X-46.2239 Y61.2029 
X-46.2494 Y61.0416 
Y60.8784 
X-46.2239 Y60.7171 
X-46.1734 Y60.5618 
X-46.0993 Y60.4163 
X-46.0033 Y60.2842 
X-45.8878 Y60.1687 
X-45.7557 Y60.0727 
X-45.6102 Y59.9986 
X-45.4549 Y59.9481 
X-45.2936 Y59.9226 
X-43.6064 
X-43.4451 Y59.9481 
X-43.2898 Y59.9986 
X-43.1443 Y60.0727 
X-43.0122 Y60.1687 
X-42.8967 Y60.2842 
X-42.8007 Y60.4163 
X-42.7266 Y60.5618 
X-42.6761 Y60.7171 
X-42.6506 Y60.8784 
Y61.0416 
X-42.6761 Y61.2029 
X-42.7266 Y61.3582 
X-42.8007 Y61.5037 
X-42.8967 Y61.6358 
X-43.0122 Y61.7513 
G00 Z2.0000 
G00 X-44.0203 Y59.4574 
G01 Z-0.1500 F254.00 
G01 X-44.8797 Y59.4574 F508.00 
G01 X-45.4874 Y58.8497 
Y57.9903 
X-44.8797 Y57.3826 
X-44.0203 
X-43.4126 Y57.9903 
Y58.8497 
X-44.0203 Y59.4574 
G00 Z2.0000 
G00 X-44.0203 Y54.3774 
G01 Z-0.1500 F254.00 
G01 X-44.8797 Y54.3774 F508.00 
G01 X-45.4874 Y53.7697 
Y52.9103 
X-44.8797 Y52.3026 
X-44.0203 
X-43.4126 Y52.9103 
Y53.7697 
X-44.0203 Y54.3774 
G00 Z2.0000 
G00 X-44.0203 Y51.8374 
G01 Z-0.1500 F254.00 
G01 X-44.8797 Y51.8374 F508.00 
G01 X-45.4874 Y51.2297 
Y50.3703 
X-44.8797 Y49.7626 
X-44.0203 
X-43.4126 Y50.3703 
Y51.2297 
X-44.0203 Y51.8374 
G00 Z2.0000 
G00 X-63.4151 Y54.0488 
G01 Z-0.1500 F254.00 
G01 X-63.4151 Y55.1712 F508.00 
G01 X-64.2088 Y55.9649 
X-65.3312 
X-66.1249 Y55.1712 
Y54.0488 
X-65.3312 Y53.2551 
X-64.2088 
X-63.4151 Y54.0488 
G00 Z2.0000 
G00 X-63.4151 Y57.8588 
G01 Z-0.1500 F254.00 
G01 X-63.4151 Y58.9812 F508.00 
G01 X-64.2088 Y59.7749 
X-65.3312 
X-66.1249 Y58.9812 
Y57.8588 
X-65.3312 Y57.0651 
X-64.2088 
X-63.4151 Y57.8588 
G00 Z2.0000 
G00 X-62.3978 Y58.8987 
G01 Z-0.1500 F254.00 
G01 X-62.2657 Y58.8027 F508.00 
G01 X-62.1202 Y58.7286 
X-61.9649 Y58.6781 
X-61.8036 Y58.6526 
X-60.1164 
X-59.9551 Y58.6781 
X-59.7998 Y58.7286 
X-59.6543 Y58.8027 
X-59.5222 Y58.8987 
X-59.4067 Y59.0142 
X-59.3107 Y59.1463 
X-59.2366 Y59.2918 
X-59.1861 Y59.4471 
X-59.1606 Y59.6084 
Y59.7716 
X-59.1861 Y59.9329 
X-59.2366 Y60.0882 
X-59.3107 Y60.2337 
X-59.4067 Y60.3658 
X-59.5222 Y60.4813 
X-59.6543 Y60.5773 
X-59.7998 Y60.6514 
X-59.9551 Y60.7019 
X-60.1164 Y60.7274 
X-61.8036 
X-61.9649 Y60.7019 
X-62.1202 Y60.6514 
X-62.2657 Y60.5773 
X-62.3978 Y60.4813 
X-62.5133 Y60.3658 
X-62.6093 Y60.2337 
X-62.6834 Y60.0882 
X-62.7339 Y59.9329 
X-62.7594 Y59.7716 
Y59.6084 
X-62.7339 Y59.4471 
X-62.6834 Y59.2918 
X-62.6093 Y59.1463 
X-62.5133 Y59.0142 
X-62.3978 Y58.8987 
G00 Z2.0000 
G00 X-62.3978 Y61.4387 
G01 Z-0.1500 F254.00 
G01 X-62.2657 Y61.3427 F508.00 
G01 X-62.1202 Y61.2686 
X-61.9649 Y61.2181 
X-61.8036 Y61.1926 
X-60.1164 
X-59.9551 Y61.2181 
X-59.7998 Y61.2686 
X-59.6543 Y61.3427 
X-59.5222 Y61.4387 
X-59.4067 Y61.5542 
X-59.3107 Y61.6863 
X-59.2366 Y61.8318 
X-59.1861 Y61.9871 
X-59.1606 Y62.1484 
Y62.3116 
X-59.1861 Y62.4729 
X-59.2366 Y62.6282 
X-59.3107 Y62.7737 
X-59.4067 Y62.9058 
X-59.5222 Y63.0213 
X-59.6543 Y63.1173 
X-59.7998 Y63.1914 
X-59.9551 Y63.2419 
X-60.1164 Y63.2674 
X-61.8036 
X-61.9649 Y63.2419 
X-62.1202 Y63.1914 
X-62.2657 Y63.1173 
X-62.3978 Y63.0213 
X-62.5133 Y62.9058 
X-62.6093 Y62.7737 
X-62.6834 Y62.6282 
X-62.7339 Y62.4729 
X-62.7594 Y62.3116 
Y62.1484 
X-62.7339 Y61.9871 
X-62.6834 Y61.8318 
X-62.6093 Y61.6863 
X-62.5133 Y61.5542 
X-62.3978 Y61.4387 
G00 Z2.0000 
G00 X-63.4151 Y61.6688 
G01 Z-0.1500 F254.00 
G01 X-63.4151 Y62.7912 F508.00 
G01 X-64.2088 Y63.5849 
X-65.3312 
X-66.1249 Y62.7912 
Y61.6688 
X-65.3312 Y60.8751 
X-64.2088 
X-63.4151 Y61.6688 
G00 Z2.0000 
G00 X-63.4151 Y65.4788 
G01 Z-0.1500 F254.00 
G01 X-63.4151 Y66.6012 F508.00 
G01 X-64.2088 Y67.3949 
X-65.3312 
X-66.1249 Y66.6012 
Y65.4788 
X-65.3312 Y64.6851 
X-64.2088 
X-63.4151 Y65.4788 
G00 Z2.0000 
G00 X-62.6093 Y65.4963 
G01 Z-0.1500 F254.00 
G01 X-62.5133 Y65.3642 F508.00 
G01 X-62.3978 Y65.2487 
X-62.2657 Y65.1527 
X-62.1202 Y65.0786 
X-61.9649 Y65.0281 
X-61.8036 Y65.0026 
X-60.1164 
X-59.9551 Y65.0281 
X-59.7998 Y65.0786 
X-59.6543 Y65.1527 
X-59.5222 Y65.2487 
X-59.4067 Y65.3642 
X-59.3107 Y65.4963 
X-59.2366 Y65.6418 
X-59.1861 Y65.7971 
X-59.1606 Y65.9584 
Y66.1216 
X-59.1861 Y66.2829 
X-59.2366 Y66.4382 
X-59.3107 Y66.5837 
X-59.4067 Y66.7158 
X-59.5222 Y66.8313 
X-59.6543 Y66.9273 
X-59.7998 Y67.0014 
X-59.9551 Y67.0519 
X-60.1164 Y67.0774 
X-61.8036 
X-61.9649 Y67.0519 
X-62.1202 Y67.0014 
X-62.2657 Y66.9273 
X-62.3978 Y66.8313 
X-62.5133 Y66.7158 
X-62.6093 Y66.5837 
X-62.6834 Y66.4382 
X-62.7339 Y66.2829 
X-62.7594 Y66.1216 
Y65.9584 
X-62.7339 Y65.7971 
X-62.6834 Y65.6418 
X-62.6093 Y65.4963 
G00 Z2.0000 
G00 X-62.3978 Y67.7887 
G01 Z-0.1500 F254.00 
G01 X-62.2657 Y67.6927 F508.00 
G01 X-62.1202 Y67.6186 
X-61.9649 Y67.5681 
X-61.8036 Y67.5426 
X-60.1164 
X-59.9551 Y67.5681 
X-59.7998 Y67.6186 
X-59.6543 Y67.6927 
X-59.5222 Y67.7887 
X-59.4067 Y67.9042 
X-59.3107 Y68.0363 
X-59.2366 Y68.1818 
X-59.1861 Y68.3371 
X-59.1606 Y68.4984 
Y68.6616 
X-59.1861 Y68.8229 
X-59.2366 Y68.9782 
X-59.3107 Y69.1237 
X-59.4067 Y69.2558 
X-59.5222 Y69.3713 
X-59.6543 Y69.4673 
X-59.7998 Y69.5414 
X-59.9551 Y69.5919 
X-60.1164 Y69.6174 
X-61.8036 
X-61.9649 Y69.5919 
X-62.1202 Y69.5414 
X-62.2657 Y69.4673 
X-62.3978 Y69.3713 
X-62.5133 Y69.2558 
X-62.6093 Y69.1237 
X-62.6834 Y68.9782 
X-62.7339 Y68.8229 
X-62.7594 Y68.6616 
Y68.4984 
X-62.7339 Y68.3371 
X-62.6834 Y68.1818 
X-62.6093 Y68.0363 
X-62.5133 Y67.9042 
X-62.3978 Y67.7887 
G00 Z2.0000 
G00 X-63.4151 Y69.2888 
G01 Z-0.1500 F254.00 
G01 X-63.4151 Y70.4112 F508.00 
G01 X-64.2088 Y71.2049 
X-65.3312 
X-66.1249 Y70.4112 
Y69.2888 
X-65.3312 Y68.4951 
X-64.2088 
X-63.4151 Y69.2888 
G00 Z2.0000 
G00 X-62.3978 Y70.3287 
G01 Z-0.1500 F254.00 
G01 X-62.2657 Y70.2327 F508.00 
G01 X-62.1202 Y70.1586 
X-61.9649 Y70.1081 
X-61.8036 Y70.0826 
X-60.1164 
X-59.9551 Y70.1081 
X-59.7998 Y70.1586 
X-59.6543 Y70.2327 
X-59.5222 Y70.3287 
X-59.4067 Y70.4442 
X-59.3107 Y70.5763 
X-59.2366 Y70.7218 
X-59.1861 Y70.8771 
X-59.1606 Y71.0384 
Y71.2016 
X-59.1861 Y71.3629 
X-59.2366 Y71.5182 
X-59.3107 Y71.6637 
X-59.4067 Y71.7958 
X-59.5222 Y71.9113 
X-59.6543 Y72.0073 
X-59.7998 Y72.0814 
X-59.9551 Y72.1319 
X-60.1164 Y72.1574 
X-61.8036 
X-61.9649 Y72.1319 
X-62.1202 Y72.0814 
X-62.2657 Y72.0073 
X-62.3978 Y71.9113 
X-62.5133 Y71.7958 
X-62.6093 Y71.6637 
X-62.6834 Y71.5182 
X-62.7339 Y71.3629 
X-62.7594 Y71.2016 
Y71.0384 
X-62.7339 Y70.8771 
X-62.6834 Y70.7218 
X-62.6093 Y70.5763 
X-62.5133 Y70.4442 
X-62.3978 Y70.3287 
G00 Z2.0000 
G00 X-63.4151 Y73.0988 
G01 Z-0.1500 F254.00 
G01 X-63.4151 Y74.2212 F508.00 
G01 X-64.2088 Y75.0149 
X-65.3312 
X-66.1249 Y74.2212 
Y73.0988 
X-65.3312 Y72.3051 
X-64.2088 
X-63.4151 Y73.0988 
G00 Z2.0000 
G82 X-39.3700 Y66.0400 Z-0.2500 F508.00 R2.0000 P0.000000
G82 X-39.3700 Y69.8500 
G82 X-39.3700 Y73.6600 
G82 X-44.4500 Y66.0400 
G82 X-44.4500 Y68.5800 
G82 X-44.4500 Y71.1200 
G82 X-44.4500 Y58.4200 
G82 X-39.3700 Y54.6100 
G82 X-39.3700 Y58.4200 
G82 X-39.3700 Y62.2300 
G82 X-44.4500 Y60.9600 
G82 X-44.4500 Y63.5000 
G82 X-64.7700 Y69.8500 
G82 X-64.7700 Y66.0400 
G82 X-60.9600 Y66.0400 
G82 X-60.9600 Y68.5800 
G82 X-60.9600 Y71.1200 
G82 X-64.7700 Y73.6600 
G82 X-64.7700 Y54.6100 
G82 X-44.4500 Y50.8000 
G82 X-64.7700 Y58.4200 
G82 X-64.7700 Y62.2300 
G82 X-44.4500 Y53.3400 
G82 X-39.3700 Y44.4500 
G82 X-60.9600 Y59.6900 
G82 X-60.9600 Y62.2300 
G00 Z5.0000 
M05
M02
