(.../pcb-gcode-3.6.0.4/pcb-gcode.ulp)
(Copyright 2005 - 2012 by John Johnson)
(See readme.txt for licensing terms.)
(This file generated from the board:)
(/home/mst/eagle/cmoy/cmoy-wide.brd)
(Current profile is .../pcb-gcode-3.6.0.4/profiles/emc.pp  )
(This file generated 31.12.14 18:09)
(Settings from pcb-machine.h)
(  Tool Size)
(0.2500 )
(Z Axis Settings)
(  High     Up        Down     Drill)
(1.0000 	1.0000 	0.0000 	-0.1000 )
(spindle on time = 0.0000)
(milling depth = 0.0000)
(text depth = -0.1270)
(tool change at 12.7000 15.2400 25.4000 )
(feed rate xy = F300.00 )
(feed rate z  = F300.00 )
(Settings from pcb-defaults.h)
(isolate min = 0.2500)
(isolate max = 0.5080)
(isolate step = 0.1270)
(Generated bottom outlines, bottom drill, )
(Unit of measure: mm)
(Metric Mode)
G21
(Absolute Coordinates)
G90
G00 X0.0000 Y0.0000 
M03
G04 P0.000000
G00 Z1.0000 
G00 X-0.5000 Y0.5000 
G01 Z0.0000 F300.00 
G01 X-0.5000 Y40.1400 F300.00 
G01 X-50.3000 Y40.1400 
Y0.5000 
X-0.5000 
G00 Z1.0000 
G00 X-9.3900 Y29.1442 
G01 Z0.0000 F300.00 
G01 X-9.3900 Y29.9800 F300.00 
G01 X-10.2258 Y29.9800 
X-10.3530 Y30.0141 
X-10.4670 Y30.0799 
X-10.5601 Y30.1730 
X-10.6259 Y30.2870 
X-10.6600 Y30.4142 
Y30.5458 
X-10.6259 Y30.6730 
X-10.5601 Y30.7870 
X-10.4670 Y30.8801 
X-10.3530 Y30.9459 
X-10.2258 Y30.9800 
X-9.3900 
Y31.8158 
X-9.3559 Y31.9430 
X-9.2901 Y32.0570 
X-9.1970 Y32.1501 
X-9.0830 Y32.2159 
X-8.9558 Y32.2500 
X-8.8242 
X-8.6970 Y32.2159 
X-8.5830 Y32.1501 
X-8.4899 Y32.0570 
X-8.4241 Y31.9430 
X-8.3900 Y31.8158 
Y30.9800 
X-7.5542 
X-7.4270 Y30.9459 
X-7.3130 Y30.8801 
X-7.2199 Y30.7870 
X-7.1541 Y30.6730 
X-7.1200 Y30.5458 
Y30.4142 
X-7.1541 Y30.2870 
X-7.2199 Y30.1730 
X-7.3130 Y30.0799 
X-7.4270 Y30.0141 
X-7.5542 Y29.9800 
X-8.3900 
Y29.1442 
X-8.4241 Y29.0170 
X-8.4899 Y28.9030 
X-8.5830 Y28.8099 
X-8.6970 Y28.7441 
X-8.8242 Y28.7100 
X-8.9558 
X-9.0830 Y28.7441 
X-9.1970 Y28.8099 
X-9.2901 Y28.9030 
X-9.3559 Y29.0170 
X-9.3900 Y29.1442 
G00 Z1.0000 
G00 X-9.3900 Y10.0942 
G01 Z0.0000 F300.00 
G01 X-9.3900 Y12.7658 F300.00 
G01 X-9.3559 Y12.8930 
X-9.2901 Y13.0070 
X-9.1970 Y13.1001 
X-9.0830 Y13.1659 
X-8.9558 Y13.2000 
X-8.8242 
X-8.6970 Y13.1659 
X-8.5830 Y13.1001 
X-8.4899 Y13.0070 
X-8.4241 Y12.8930 
X-8.3900 Y12.7658 
Y10.0942 
X-8.4241 Y9.9670 
X-8.4899 Y9.8530 
X-8.5830 Y9.7599 
X-8.6970 Y9.6941 
X-8.8242 Y9.6600 
X-8.9558 
X-9.0830 Y9.6941 
X-9.1970 Y9.7599 
X-9.2901 Y9.8530 
X-9.3559 Y9.9670 
X-9.3900 Y10.0942 
G00 Z1.0000 
G00 X-40.3798 Y33.8251 
G01 Z0.0000 F300.00 
G01 X-40.3305 Y33.9107 F300.00 
G01 X-40.2607 Y33.9805 
X-40.1751 Y34.0298 
X-40.1044 Y34.0488 
X-40.0325 Y34.1011 
X-39.8552 Y34.1914 
X-39.6660 Y34.2529 
X-39.4695 Y34.2840 
X-36.7305 
X-36.5340 Y34.2529 
X-36.3448 Y34.1914 
X-36.1675 Y34.1011 
X-36.0066 Y33.9841 
X-35.8659 Y33.8434 
X-35.7489 Y33.6825 
X-35.6586 Y33.5052 
X-35.5971 Y33.3160 
X-35.5660 Y33.1195 
Y30.4740 
X-34.1905 
X-33.9940 Y30.4429 
X-33.8048 Y30.3814 
X-33.6275 Y30.2911 
X-33.4666 Y30.1741 
X-33.3259 Y30.0334 
X-33.2089 Y29.8725 
X-33.1186 Y29.6952 
X-33.0571 Y29.5060 
X-33.0260 Y29.3095 
Y24.0305 
X-33.0571 Y23.8340 
X-33.1186 Y23.6448 
X-33.2089 Y23.4675 
X-33.2612 Y23.3956 
X-33.2802 Y23.3249 
X-33.3295 Y23.2393 
X-33.3993 Y23.1695 
X-33.4849 Y23.1202 
X-33.5556 Y23.1012 
X-33.6275 Y23.0489 
X-33.8048 Y22.9586 
X-33.9940 Y22.8971 
X-34.1905 Y22.8660 
X-34.3895 
X-34.5860 Y22.8971 
X-34.7752 Y22.9586 
X-34.9525 Y23.0489 
X-35.0244 Y23.1012 
X-35.0951 Y23.1202 
X-35.1807 Y23.1695 
X-35.2505 Y23.2393 
X-35.2998 Y23.3249 
X-35.3188 Y23.3956 
X-35.3711 Y23.4675 
X-35.4614 Y23.6448 
X-35.5229 Y23.8340 
X-35.5540 Y24.0305 
Y27.9460 
X-36.9295 
X-37.1260 Y27.9771 
X-37.3152 Y28.0386 
X-37.4824 Y28.1238 
X-37.5906 
X-37.6859 Y28.1494 
X-37.7715 Y28.1987 
X-37.8413 Y28.2685 
X-37.8906 Y28.3541 
X-37.9162 Y28.4494 
Y28.5576 
X-38.0014 Y28.7248 
X-38.0629 Y28.9140 
X-38.0940 Y29.1105 
Y31.7560 
X-39.4695 
X-39.6660 Y31.7871 
X-39.8552 Y31.8486 
X-40.0325 Y31.9389 
X-40.1044 Y31.9912 
X-40.1751 Y32.0102 
X-40.2607 Y32.0595 
X-40.3305 Y32.1293 
X-40.3798 Y32.2149 
X-40.3988 Y32.2856 
X-40.4511 Y32.3575 
X-40.5414 Y32.5348 
X-40.6029 Y32.7240 
X-40.6340 Y32.9205 
Y33.1195 
X-40.6029 Y33.3160 
X-40.5414 Y33.5052 
X-40.4511 Y33.6825 
X-40.3988 Y33.7544 
X-40.3798 Y33.8251 
G00 Z1.0000 
G00 X-46.5251 Y34.5502 
G01 Z0.0000 F300.00 
G01 X-46.6107 Y34.5995 F300.00 
G01 X-46.6805 Y34.6693 
X-46.7298 Y34.7549 
X-46.7488 Y34.8256 
X-46.8011 Y34.8975 
X-46.8914 Y35.0748 
X-46.9529 Y35.2640 
X-46.9840 Y35.4605 
Y35.6595 
X-46.9529 Y35.8560 
X-46.8914 Y36.0452 
X-46.8011 Y36.2225 
X-46.7488 Y36.2944 
X-46.7298 Y36.3651 
X-46.6805 Y36.4507 
X-46.6107 Y36.5205 
X-46.5251 Y36.5698 
X-46.4544 Y36.5888 
X-46.3825 Y36.6411 
X-46.2052 Y36.7314 
X-46.0160 Y36.7929 
X-45.8195 Y36.8240 
X-39.2705 
X-39.0740 Y36.7929 
X-38.8848 Y36.7314 
X-38.7075 Y36.6411 
X-38.6356 Y36.5888 
X-38.5649 Y36.5698 
X-38.4793 Y36.5205 
X-38.4095 Y36.4507 
X-38.3602 Y36.3651 
X-38.3412 Y36.2944 
X-38.2889 Y36.2225 
X-38.1986 Y36.0452 
X-38.1371 Y35.8560 
X-38.1060 Y35.6595 
Y35.4605 
X-38.1371 Y35.2640 
X-38.1986 Y35.0748 
X-38.2889 Y34.8975 
X-38.3412 Y34.8256 
X-38.3602 Y34.7549 
X-38.4095 Y34.6693 
X-38.4793 Y34.5995 
X-38.5649 Y34.5502 
X-38.6356 Y34.5312 
X-38.7075 Y34.4789 
X-38.8848 Y34.3886 
X-39.0740 Y34.3271 
X-39.2705 Y34.2960 
X-40.6460 
Y27.9340 
X-36.7305 
X-36.5340 Y27.9029 
X-36.3448 Y27.8414 
X-36.1675 Y27.7511 
X-36.0066 Y27.6341 
X-35.8659 Y27.4934 
X-35.7489 Y27.3325 
X-35.6586 Y27.1552 
X-35.5971 Y26.9660 
X-35.5660 Y26.7695 
Y24.0305 
X-35.5971 Y23.8340 
X-35.6586 Y23.6448 
X-35.7489 Y23.4675 
X-35.8012 Y23.3956 
X-35.8202 Y23.3249 
X-35.8695 Y23.2393 
X-35.9393 Y23.1695 
X-36.0249 Y23.1202 
X-36.0956 Y23.1012 
X-36.1675 Y23.0489 
X-36.3448 Y22.9586 
X-36.5340 Y22.8971 
X-36.7305 Y22.8660 
X-36.9295 
X-37.1260 Y22.8971 
X-37.3152 Y22.9586 
X-37.4925 Y23.0489 
X-37.5644 Y23.1012 
X-37.6351 Y23.1202 
X-37.7207 Y23.1695 
X-37.7905 Y23.2393 
X-37.8398 Y23.3249 
X-37.8588 Y23.3956 
X-37.9111 Y23.4675 
X-38.0014 Y23.6448 
X-38.0629 Y23.8340 
X-38.0940 Y24.0305 
Y25.4060 
X-42.0095 
X-42.2060 Y25.4371 
X-42.3952 Y25.4986 
X-42.5725 Y25.5889 
X-42.7334 Y25.7059 
X-42.8741 Y25.8466 
X-42.9911 Y26.0075 
X-43.0814 Y26.1848 
X-43.1429 Y26.3740 
X-43.1740 Y26.5705 
Y34.2960 
X-45.8195 
X-46.0160 Y34.3271 
X-46.2052 Y34.3886 
X-46.3825 Y34.4789 
X-46.4544 Y34.5312 
X-46.5251 Y34.5502 
G00 Z1.0000 
G00 X-46.7298 Y26.2051 
G01 Z0.0000 F300.00 
G01 X-46.6805 Y26.2907 F300.00 
G01 X-46.6107 Y26.3605 
X-46.5251 Y26.4098 
X-46.4544 Y26.4288 
X-46.3825 Y26.4811 
X-46.2052 Y26.5714 
X-46.0160 Y26.6329 
X-45.8195 Y26.6640 
X-45.6205 
X-45.4240 Y26.6329 
X-45.2348 Y26.5714 
X-45.0575 Y26.4811 
X-44.9856 Y26.4288 
X-44.9149 Y26.4098 
X-44.8293 Y26.3605 
X-44.7595 Y26.2907 
X-44.7102 Y26.2051 
X-44.6912 Y26.1344 
X-44.6389 Y26.0625 
X-44.5486 Y25.8852 
X-44.4871 Y25.6960 
X-44.4560 Y25.4995 
Y24.1240 
X-40.6340 
Y24.2295 
X-40.6029 Y24.4260 
X-40.5414 Y24.6152 
X-40.4511 Y24.7925 
X-40.3988 Y24.8644 
X-40.3798 Y24.9351 
X-40.3305 Y25.0207 
X-40.2607 Y25.0905 
X-40.1751 Y25.1398 
X-40.1044 Y25.1588 
X-40.0325 Y25.2111 
X-39.8552 Y25.3014 
X-39.6660 Y25.3629 
X-39.4695 Y25.3940 
X-39.2705 
X-39.0740 Y25.3629 
X-38.8848 Y25.3014 
X-38.7075 Y25.2111 
X-38.6356 Y25.1588 
X-38.5649 Y25.1398 
X-38.4793 Y25.0905 
X-38.4095 Y25.0207 
X-38.3602 Y24.9351 
X-38.3412 Y24.8644 
X-38.2889 Y24.7925 
X-38.1986 Y24.6152 
X-38.1371 Y24.4260 
X-38.1060 Y24.2295 
Y22.7605 
X-38.1371 Y22.5640 
X-38.1986 Y22.3748 
X-38.2889 Y22.1975 
X-38.4059 Y22.0366 
X-38.5466 Y21.8959 
X-38.7075 Y21.7789 
X-38.8848 Y21.6886 
X-39.0740 Y21.6271 
X-39.2705 Y21.5960 
X-47.0895 
X-47.2860 Y21.6271 
X-47.4752 Y21.6886 
X-47.5427 Y21.7230 
X-47.8014 
X-47.8967 Y21.7486 
X-47.9823 Y21.7979 
X-48.0521 Y21.8677 
X-48.1014 Y21.9533 
X-48.1270 Y22.0486 
Y22.3073 
X-48.1614 Y22.3748 
X-48.2229 Y22.5640 
X-48.2540 Y22.7605 
Y22.9595 
X-48.2229 Y23.1560 
X-48.1614 Y23.3452 
X-48.1270 Y23.4127 
Y23.6714 
X-48.1014 Y23.7667 
X-48.0521 Y23.8523 
X-47.9823 Y23.9221 
X-47.8967 Y23.9714 
X-47.8014 Y23.9970 
X-47.5427 
X-47.4752 Y24.0314 
X-47.2860 Y24.0929 
X-47.0895 Y24.1240 
X-46.9840 
Y25.4995 
X-46.9529 Y25.6960 
X-46.8914 Y25.8852 
X-46.8011 Y26.0625 
X-46.7488 Y26.1344 
X-46.7298 Y26.2051 
G00 Z1.0000 
G00 X-38.5649 Y6.0898 
G01 Z0.0000 F300.00 
G01 X-38.4793 Y6.0405 F300.00 
G01 X-38.4095 Y5.9707 
X-38.3602 Y5.8851 
X-38.3412 Y5.8144 
X-38.2889 Y5.7425 
X-38.1986 Y5.5652 
X-38.1371 Y5.3760 
X-38.1060 Y5.1795 
Y4.9805 
X-38.1371 Y4.7840 
X-38.1986 Y4.5948 
X-38.2889 Y4.4175 
X-38.3412 Y4.3456 
X-38.3602 Y4.2749 
X-38.4095 Y4.1893 
X-38.4793 Y4.1195 
X-38.5649 Y4.0702 
X-38.6356 Y4.0512 
X-38.7075 Y3.9989 
X-38.8848 Y3.9086 
X-39.0740 Y3.8471 
X-39.2705 Y3.8160 
X-45.8195 
X-46.0160 Y3.8471 
X-46.2052 Y3.9086 
X-46.3825 Y3.9989 
X-46.4544 Y4.0512 
X-46.5251 Y4.0702 
X-46.6107 Y4.1195 
X-46.6805 Y4.1893 
X-46.7298 Y4.2749 
X-46.7488 Y4.3456 
X-46.8011 Y4.4175 
X-46.8914 Y4.5948 
X-46.9529 Y4.7840 
X-46.9840 Y4.9805 
Y5.1795 
X-46.9529 Y5.3760 
X-46.8914 Y5.5652 
X-46.8011 Y5.7425 
X-46.7488 Y5.8144 
X-46.7298 Y5.8851 
X-46.6805 Y5.9707 
X-46.6107 Y6.0405 
X-46.5251 Y6.0898 
X-46.4544 Y6.1088 
X-46.3825 Y6.1611 
X-46.2052 Y6.2514 
X-46.0160 Y6.3129 
X-45.8195 Y6.3440 
X-43.1740 
Y10.2595 
X-43.1429 Y10.4560 
X-43.0814 Y10.6452 
X-42.9911 Y10.8225 
X-42.8741 Y10.9834 
X-42.7334 Y11.1241 
X-38.9234 Y14.9341 
X-38.7625 Y15.0511 
X-38.5852 Y15.1414 
X-38.3960 Y15.2029 
X-38.1995 Y15.2340 
X-35.5540 
Y16.6095 
X-35.5229 Y16.8060 
X-35.4614 Y16.9952 
X-35.3711 Y17.1725 
X-35.3188 Y17.2444 
X-35.2998 Y17.3151 
X-35.2505 Y17.4007 
X-35.1807 Y17.4705 
X-35.0951 Y17.5198 
X-35.0244 Y17.5388 
X-34.9525 Y17.5911 
X-34.7752 Y17.6814 
X-34.5860 Y17.7429 
X-34.3895 Y17.7740 
X-34.1905 
X-33.9940 Y17.7429 
X-33.8048 Y17.6814 
X-33.6275 Y17.5911 
X-33.5556 Y17.5388 
X-33.4849 Y17.5198 
X-33.3993 Y17.4705 
X-33.3295 Y17.4007 
X-33.2802 Y17.3151 
X-33.2612 Y17.2444 
X-33.2089 Y17.1725 
X-33.1186 Y16.9952 
X-33.0571 Y16.8060 
X-33.0260 Y16.6095 
Y13.8705 
X-33.0571 Y13.6740 
X-33.1186 Y13.4848 
X-33.2089 Y13.3075 
X-33.3259 Y13.1466 
X-33.4666 Y13.0059 
X-33.6275 Y12.8889 
X-33.8048 Y12.7986 
X-33.9940 Y12.7371 
X-34.1905 Y12.7060 
X-37.5764 
X-40.6460 Y9.6364 
Y6.3440 
X-39.2705 
X-39.0740 Y6.3129 
X-38.8848 Y6.2514 
X-38.7075 Y6.1611 
X-38.6356 Y6.1088 
X-38.5649 Y6.0898 
G00 Z1.0000 
G00 X-40.3798 Y8.4251 
G01 Z0.0000 F300.00 
G01 X-40.3305 Y8.5107 F300.00 
G01 X-40.2607 Y8.5805 
X-40.1751 Y8.6298 
X-40.1044 Y8.6488 
X-40.0325 Y8.7011 
X-39.8552 Y8.7914 
X-39.6660 Y8.8529 
X-39.4695 Y8.8840 
X-38.0940 
Y11.5295 
X-38.0629 Y11.7260 
X-38.0014 Y11.9152 
X-37.9162 Y12.0824 
Y12.1906 
X-37.8906 Y12.2859 
X-37.8413 Y12.3715 
X-37.7715 Y12.4413 
X-37.6859 Y12.4906 
X-37.5906 Y12.5162 
X-37.4824 
X-37.3152 Y12.6014 
X-37.1260 Y12.6629 
X-36.9295 Y12.6940 
X-33.0140 
Y16.6095 
X-32.9829 Y16.8060 
X-32.9214 Y16.9952 
X-32.8311 Y17.1725 
X-32.7788 Y17.2444 
X-32.7598 Y17.3151 
X-32.7105 Y17.4007 
X-32.6407 Y17.4705 
X-32.5551 Y17.5198 
X-32.4844 Y17.5388 
X-32.4125 Y17.5911 
X-32.2352 Y17.6814 
X-32.0460 Y17.7429 
X-31.8495 Y17.7740 
X-31.6505 
X-31.4540 Y17.7429 
X-31.2648 Y17.6814 
X-31.0875 Y17.5911 
X-31.0156 Y17.5388 
X-30.9449 Y17.5198 
X-30.8593 Y17.4705 
X-30.7895 Y17.4007 
X-30.7402 Y17.3151 
X-30.7212 Y17.2444 
X-30.6689 Y17.1725 
X-30.5786 Y16.9952 
X-30.5171 Y16.8060 
X-30.4860 Y16.6095 
Y11.3305 
X-30.5171 Y11.1340 
X-30.5786 Y10.9448 
X-30.6689 Y10.7675 
X-30.7859 Y10.6066 
X-30.9266 Y10.4659 
X-31.0875 Y10.3489 
X-31.2648 Y10.2586 
X-31.4540 Y10.1971 
X-31.6505 Y10.1660 
X-35.5660 
Y7.5205 
X-35.5971 Y7.3240 
X-35.6586 Y7.1348 
X-35.7489 Y6.9575 
X-35.8659 Y6.7966 
X-36.0066 Y6.6559 
X-36.1675 Y6.5389 
X-36.3448 Y6.4486 
X-36.5340 Y6.3871 
X-36.7305 Y6.3560 
X-39.4695 
X-39.6660 Y6.3871 
X-39.8552 Y6.4486 
X-40.0325 Y6.5389 
X-40.1044 Y6.5912 
X-40.1751 Y6.6102 
X-40.2607 Y6.6595 
X-40.3305 Y6.7293 
X-40.3798 Y6.8149 
X-40.3988 Y6.8856 
X-40.4511 Y6.9575 
X-40.5414 Y7.1348 
X-40.6029 Y7.3240 
X-40.6340 Y7.5205 
Y7.7195 
X-40.6029 Y7.9160 
X-40.5414 Y8.1052 
X-40.4511 Y8.2825 
X-40.3988 Y8.3544 
X-40.3798 Y8.4251 
G00 Z1.0000 
G00 X-13.1649 Y6.0898 
G01 Z0.0000 F300.00 
G01 X-13.0793 Y6.0405 F300.00 
G01 X-13.0095 Y5.9707 
X-12.9602 Y5.8851 
X-12.9412 Y5.8144 
X-12.8889 Y5.7425 
X-12.7986 Y5.5652 
X-12.7371 Y5.3760 
X-12.7060 Y5.1795 
Y4.9805 
X-12.7371 Y4.7840 
X-12.7986 Y4.5948 
X-12.8889 Y4.4175 
X-12.9412 Y4.3456 
X-12.9602 Y4.2749 
X-13.0095 Y4.1893 
X-13.0793 Y4.1195 
X-13.1649 Y4.0702 
X-13.2356 Y4.0512 
X-13.3075 Y3.9989 
X-13.4848 Y3.9086 
X-13.6740 Y3.8471 
X-13.8705 Y3.8160 
X-21.6895 
X-21.8860 Y3.8471 
X-22.0752 Y3.9086 
X-22.2525 Y3.9989 
X-22.4134 Y4.1159 
X-22.5541 Y4.2566 
X-22.6711 Y4.4175 
X-22.7614 Y4.5948 
X-22.8229 Y4.7840 
X-22.8540 Y4.9805 
Y8.9895 
X-22.8229 Y9.1860 
X-22.7614 Y9.3752 
X-22.6711 Y9.5525 
X-22.6188 Y9.6244 
X-22.5998 Y9.6951 
X-22.5505 Y9.7807 
X-22.4807 Y9.8505 
X-22.3951 Y9.8998 
X-22.3244 Y9.9188 
X-22.2525 Y9.9711 
X-22.0752 Y10.0614 
X-21.8860 Y10.1229 
X-21.6895 Y10.1540 
X-21.4905 
X-21.2940 Y10.1229 
X-21.1048 Y10.0614 
X-20.9275 Y9.9711 
X-20.8556 Y9.9188 
X-20.7849 Y9.8998 
X-20.6993 Y9.8505 
X-20.6295 Y9.7807 
X-20.5802 Y9.6951 
X-20.5612 Y9.6244 
X-20.5089 Y9.5525 
X-20.4186 Y9.3752 
X-20.3571 Y9.1860 
X-20.3260 Y8.9895 
Y6.3440 
X-17.7740 
Y8.9895 
X-17.7429 Y9.1860 
X-17.7232 Y9.2465 
Y9.7776 
X-17.6976 Y9.8729 
X-17.6483 Y9.9585 
X-17.5785 Y10.0283 
X-17.4929 Y10.0776 
X-17.3976 Y10.1032 
X-16.8665 
X-16.8060 Y10.1229 
X-16.6095 Y10.1540 
X-16.4105 
X-16.2140 Y10.1229 
X-16.1535 Y10.1032 
X-15.6224 
X-15.5271 Y10.0776 
X-15.4415 Y10.0283 
X-15.3717 Y9.9585 
X-15.3224 Y9.8729 
X-15.2968 Y9.7776 
Y9.2465 
X-15.2771 Y9.1860 
X-15.2460 Y8.9895 
Y6.3440 
X-13.8705 
X-13.6740 Y6.3129 
X-13.4848 Y6.2514 
X-13.3075 Y6.1611 
X-13.2356 Y6.1088 
X-13.1649 Y6.0898 
G00 Z1.0000 
G00 X-6.3440 Y27.9340 
G01 Z0.0000 F300.00 
G01 X-6.3440 Y34.2960 F300.00 
G01 X-17.7860 Y34.2960 
Y31.6505 
X-17.8171 Y31.4540 
X-17.8786 Y31.2648 
X-17.9689 Y31.0875 
X-18.0212 Y31.0156 
X-18.0402 Y30.9449 
X-18.0895 Y30.8593 
X-18.1593 Y30.7895 
X-18.2449 Y30.7402 
X-18.3156 Y30.7212 
X-18.3875 Y30.6689 
X-18.5648 Y30.5786 
X-18.7540 Y30.5171 
X-18.9505 Y30.4860 
X-19.1495 
X-19.3460 Y30.5171 
X-19.5352 Y30.5786 
X-19.7125 Y30.6689 
X-19.7844 Y30.7212 
X-19.8551 Y30.7402 
X-19.9407 Y30.7895 
X-20.0105 Y30.8593 
X-20.0598 Y30.9449 
X-20.0788 Y31.0156 
X-20.1311 Y31.0875 
X-20.2214 Y31.2648 
X-20.2829 Y31.4540 
X-20.3140 Y31.6505 
Y35.6595 
X-20.2829 Y35.8560 
X-20.2214 Y36.0452 
X-20.1311 Y36.2225 
X-20.0141 Y36.3834 
X-19.8734 Y36.5241 
X-19.7125 Y36.6411 
X-19.5352 Y36.7314 
X-19.3460 Y36.7929 
X-19.1495 Y36.8240 
X-4.9805 
X-4.7840 Y36.7929 
X-4.5948 Y36.7314 
X-4.4175 Y36.6411 
X-4.2566 Y36.5241 
X-4.1159 Y36.3834 
X-3.9989 Y36.2225 
X-3.9086 Y36.0452 
X-3.8471 Y35.8560 
X-3.8160 Y35.6595 
Y24.2660 
X-3.7702 Y24.2396 
X-3.7004 Y24.1698 
X-3.6511 Y24.0842 
X-3.6255 Y23.9889 
Y21.7311 
X-3.6511 Y21.6358 
X-3.7004 Y21.5502 
X-3.7702 Y21.4804 
X-3.8558 Y21.4311 
X-3.9511 Y21.4055 
X-6.2089 
X-6.3042 Y21.4311 
X-6.3898 Y21.4804 
X-6.4596 Y21.5502 
X-6.5089 Y21.6358 
X-6.5345 Y21.7311 
Y23.9889 
X-6.5089 Y24.0842 
X-6.4596 Y24.1698 
X-6.3898 Y24.2396 
X-6.3440 Y24.2660 
Y25.4060 
X-10.1660 
Y22.7605 
X-10.1971 Y22.5640 
X-10.2586 Y22.3748 
X-10.3489 Y22.1975 
X-10.4659 Y22.0366 
X-10.6066 Y21.8959 
X-10.7675 Y21.7789 
X-10.9448 Y21.6886 
X-11.1340 Y21.6271 
X-11.3305 Y21.5960 
X-14.0695 
X-14.2660 Y21.6271 
X-14.4552 Y21.6886 
X-14.6325 Y21.7789 
X-14.7934 Y21.8959 
X-14.9341 Y22.0366 
X-15.0511 Y22.1975 
X-15.1414 Y22.3748 
X-15.1739 Y22.4747 
X-15.3149 Y22.5452 
X-15.2968 Y22.4776 
Y21.9465 
X-15.2771 Y21.8860 
X-15.2460 Y21.6895 
Y21.5840 
X-10.1540 
Y24.2295 
X-10.1229 Y24.4260 
X-10.0651 Y24.6038 
Y24.9795 
X-10.0395 Y25.0748 
X-9.9902 Y25.1604 
X-9.9204 Y25.2302 
X-9.8348 Y25.2795 
X-9.7395 Y25.3051 
X-9.3638 
X-9.1860 Y25.3629 
X-8.9895 Y25.3940 
X-8.7905 
X-8.5940 Y25.3629 
X-8.4162 Y25.3051 
X-8.0405 
X-7.9452 Y25.2795 
X-7.8596 Y25.2302 
X-7.7898 Y25.1604 
X-7.7405 Y25.0748 
X-7.7149 Y24.9795 
Y24.6038 
X-7.6571 Y24.4260 
X-7.6260 Y24.2295 
Y17.6805 
X-7.6571 Y17.4840 
X-7.7149 Y17.3062 
Y16.9305 
X-7.7405 Y16.8352 
X-7.7898 Y16.7496 
X-7.8596 Y16.6798 
X-7.9452 Y16.6305 
X-8.0405 Y16.6049 
X-8.4162 
X-8.5940 Y16.5471 
X-8.7905 Y16.5160 
X-8.9895 
X-9.1860 Y16.5471 
X-9.3638 Y16.6049 
X-9.7395 
X-9.8348 Y16.6305 
X-9.9204 Y16.6798 
X-9.9902 Y16.7496 
X-10.0395 Y16.8352 
X-10.0651 Y16.9305 
Y17.3062 
X-10.1229 Y17.4840 
X-10.1540 Y17.6805 
Y19.0560 
X-15.2460 
Y18.9505 
X-15.2771 Y18.7540 
X-15.2968 Y18.6935 
Y18.1624 
X-15.3224 Y18.0671 
X-15.3717 Y17.9815 
X-15.4415 Y17.9117 
X-15.5271 Y17.8624 
X-15.6224 Y17.8368 
X-16.1535 
X-16.2140 Y17.8171 
X-16.4105 Y17.7860 
X-16.6095 
X-16.8060 Y17.8171 
X-16.8665 Y17.8368 
X-17.3976 
X-17.4929 Y17.8624 
X-17.5785 Y17.9117 
X-17.6483 Y17.9815 
X-17.6976 Y18.0671 
X-17.7232 Y18.1624 
Y18.6935 
X-17.7429 Y18.7540 
X-17.7740 Y18.9505 
Y21.6895 
X-17.7429 Y21.8860 
X-17.7232 Y21.9465 
Y22.4776 
X-17.6976 Y22.5729 
X-17.6483 Y22.6585 
X-17.5785 Y22.7283 
X-17.4929 Y22.7776 
X-17.3976 Y22.8032 
X-16.8665 
X-16.8060 Y22.8229 
X-16.6095 Y22.8540 
X-16.4105 
X-16.2140 Y22.8229 
X-16.1535 Y22.8032 
X-15.8308 
X-16.0956 Y22.9356 
X-16.2140 Y22.8971 
X-16.4105 Y22.8660 
X-17.7860 
Y17.6805 
X-17.8171 Y17.4840 
X-17.8786 Y17.2948 
X-17.9689 Y17.1175 
X-18.0859 Y16.9566 
X-18.2266 Y16.8159 
X-18.3875 Y16.6989 
X-18.5648 Y16.6086 
X-18.7540 Y16.5471 
X-18.9505 Y16.5160 
X-19.1495 
X-19.3460 Y16.5471 
X-19.5352 Y16.6086 
X-19.7125 Y16.6989 
X-19.8734 Y16.8159 
X-20.0141 Y16.9566 
X-20.1311 Y17.1175 
X-20.2214 Y17.2948 
X-20.2829 Y17.4840 
X-20.3140 Y17.6805 
Y24.2295 
X-20.2829 Y24.4260 
X-20.2214 Y24.6152 
X-20.1311 Y24.7925 
X-20.0141 Y24.9534 
X-19.8734 Y25.0941 
X-19.7125 Y25.2111 
X-19.5352 Y25.3014 
X-19.3460 Y25.3629 
X-19.1495 Y25.3940 
X-16.4105 
X-16.2140 Y25.3629 
X-16.0248 Y25.3014 
X-15.8475 Y25.2111 
X-15.6866 Y25.0941 
X-15.5459 Y24.9534 
X-15.4289 Y24.7925 
X-15.3386 Y24.6152 
X-15.3061 Y24.5153 
X-14.3844 Y24.0544 
X-14.2660 Y24.0929 
X-14.0695 Y24.1240 
X-12.6940 
Y26.7695 
X-12.6629 Y26.9660 
X-12.6014 Y27.1552 
X-12.5111 Y27.3325 
X-12.3941 Y27.4934 
X-12.2534 Y27.6341 
X-12.0925 Y27.7511 
X-11.9152 Y27.8414 
X-11.7260 Y27.9029 
X-11.5295 Y27.9340 
X-8.7905 
X-6.3440 
G00 Z1.0000 
G00 X-30.2962 Y29.9706 
G01 Z0.0000 F300.00 
G01 X-30.2706 Y30.0659 F300.00 
G01 X-30.2213 Y30.1515 
X-30.1515 Y30.2213 
X-30.0659 Y30.2706 
X-29.9706 Y30.2962 
X-29.8624 
X-29.6952 Y30.3814 
X-29.5060 Y30.4429 
X-29.3095 Y30.4740 
X-29.1105 
X-28.9140 Y30.4429 
X-28.7248 Y30.3814 
X-28.5576 Y30.2962 
X-28.4494 
X-28.3541 Y30.2706 
X-28.2685 Y30.2213 
X-28.1987 Y30.1515 
X-28.1494 Y30.0659 
X-28.1238 Y29.9706 
Y29.8624 
X-28.0386 Y29.6952 
X-27.9771 Y29.5060 
X-27.9460 Y29.3095 
Y21.5840 
X-26.5705 
X-26.3740 Y21.5529 
X-26.1848 Y21.4914 
X-26.1173 Y21.4570 
X-25.8586 
X-25.7633 Y21.4314 
X-25.6777 Y21.3821 
X-25.6079 Y21.3123 
X-25.5586 Y21.2267 
X-25.5330 Y21.1314 
Y20.8727 
X-25.4986 Y20.8052 
X-25.4371 Y20.6160 
X-25.4060 Y20.4195 
Y20.2205 
X-25.4371 Y20.0240 
X-25.4986 Y19.8348 
X-25.5330 Y19.7673 
Y19.5086 
X-25.5586 Y19.4133 
X-25.6079 Y19.3277 
X-25.6777 Y19.2579 
X-25.7633 Y19.2086 
X-25.8586 Y19.1830 
X-26.1173 
X-26.1848 Y19.1486 
X-26.3740 Y19.0871 
X-26.5705 Y19.0560 
X-29.3095 
X-29.5060 Y19.0871 
X-29.6952 Y19.1486 
X-29.8725 Y19.2389 
X-30.0334 Y19.3559 
X-30.1741 Y19.4966 
X-30.2911 Y19.6575 
X-30.3814 Y19.8348 
X-30.4429 Y20.0240 
X-30.4740 Y20.2205 
Y29.3095 
X-30.4429 Y29.5060 
X-30.3814 Y29.6952 
X-30.2962 Y29.8624 
Y29.9706 
G00 Z1.0000 
G00 X-40.3798 Y17.3151 
G01 Z0.0000 F300.00 
G01 X-40.3305 Y17.4007 F300.00 
G01 X-40.2607 Y17.4705 
X-40.1751 Y17.5198 
X-40.1044 Y17.5388 
X-40.0325 Y17.5911 
X-39.8552 Y17.6814 
X-39.6660 Y17.7429 
X-39.4695 Y17.7740 
X-39.2705 
X-39.0740 Y17.7429 
X-38.8848 Y17.6814 
X-38.7075 Y17.5911 
X-38.6356 Y17.5388 
X-38.5649 Y17.5198 
X-38.4793 Y17.4705 
X-38.4095 Y17.4007 
X-38.3602 Y17.3151 
X-38.3412 Y17.2444 
X-38.2889 Y17.1725 
X-38.1986 Y16.9952 
X-38.1371 Y16.8060 
X-38.1060 Y16.6095 
Y16.4105 
X-38.1371 Y16.2140 
X-38.1986 Y16.0248 
X-38.2889 Y15.8475 
X-38.3412 Y15.7756 
X-38.3602 Y15.7049 
X-38.4095 Y15.6193 
X-38.4793 Y15.5495 
X-38.5649 Y15.5002 
X-38.6023 Y15.4901 
X-39.8166 Y14.2759 
X-39.9775 Y14.1589 
X-40.1548 Y14.0686 
X-40.3440 Y14.0071 
X-40.5405 Y13.9760 
X-40.7395 
X-40.9360 Y14.0071 
X-41.1252 Y14.0686 
X-41.3025 Y14.1589 
X-41.4634 Y14.2759 
X-41.6041 Y14.4166 
X-41.7211 Y14.5775 
X-41.8114 Y14.7548 
X-41.8729 Y14.9440 
X-41.9040 Y15.1405 
Y15.3395 
X-41.8729 Y15.5360 
X-41.8114 Y15.7252 
X-41.7211 Y15.9025 
X-41.6041 Y16.0634 
X-40.3899 Y17.2777 
X-40.3798 Y17.3151 
G00 Z1.0000 
G00 X-23.1202 Y30.9449 
G01 Z0.0000 F300.00 
G01 X-23.1695 Y30.8593 F300.00 
G01 X-23.2393 Y30.7895 
X-23.3249 Y30.7402 
X-23.3956 Y30.7212 
X-23.4675 Y30.6689 
X-23.6448 Y30.5786 
X-23.8340 Y30.5171 
X-24.0305 Y30.4860 
X-24.2295 
X-24.4260 Y30.5171 
X-24.6152 Y30.5786 
X-24.7925 Y30.6689 
X-24.8644 Y30.7212 
X-24.9351 Y30.7402 
X-25.0207 Y30.7895 
X-25.0905 Y30.8593 
X-25.1398 Y30.9449 
X-25.1588 Y31.0156 
X-25.2111 Y31.0875 
X-25.3014 Y31.2648 
X-25.3629 Y31.4540 
X-25.3940 Y31.6505 
Y34.2960 
X-26.7695 
X-26.9660 Y34.3271 
X-27.1552 Y34.3886 
X-27.3325 Y34.4789 
X-27.4044 Y34.5312 
X-27.4751 Y34.5502 
X-27.5607 Y34.5995 
X-27.6305 Y34.6693 
X-27.6798 Y34.7549 
X-27.6988 Y34.8256 
X-27.7511 Y34.8975 
X-27.8414 Y35.0748 
X-27.9029 Y35.2640 
X-27.9340 Y35.4605 
Y35.6595 
X-27.9029 Y35.8560 
X-27.8414 Y36.0452 
X-27.7511 Y36.2225 
X-27.6988 Y36.2944 
X-27.6798 Y36.3651 
X-27.6305 Y36.4507 
X-27.5607 Y36.5205 
X-27.4751 Y36.5698 
X-27.4044 Y36.5888 
X-27.3325 Y36.6411 
X-27.1552 Y36.7314 
X-26.9660 Y36.7929 
X-26.7695 Y36.8240 
X-24.0305 
X-23.8340 Y36.7929 
X-23.6448 Y36.7314 
X-23.4675 Y36.6411 
X-23.3066 Y36.5241 
X-23.1659 Y36.3834 
X-23.0489 Y36.2225 
X-22.9586 Y36.0452 
X-22.8971 Y35.8560 
X-22.8660 Y35.6595 
Y31.6505 
X-22.8971 Y31.4540 
X-22.9586 Y31.2648 
X-23.0489 Y31.0875 
X-23.1012 Y31.0156 
X-23.1202 Y30.9449 
G00 Z1.0000 
G00 X-18.3402 Y7.8546 
G01 Z0.0000 F300.00 
G01 X-19.7598 Y7.8546 F300.00 
G01 X-19.8551 Y7.8802 
X-19.9407 Y7.9295 
X-20.0105 Y7.9993 
X-20.0598 Y8.0849 
X-20.0854 Y8.1802 
Y9.5998 
X-20.0600 Y9.6946 
Y10.2595 
X-20.0212 Y10.4546 
X-19.9450 Y10.6384 
X-19.8345 Y10.8038 
X-17.7618 Y12.8766 
X-17.7429 Y12.9960 
X-17.6814 Y13.1852 
X-17.5911 Y13.3625 
X-17.4741 Y13.5234 
X-17.3334 Y13.6641 
X-17.1725 Y13.7811 
X-16.9952 Y13.8714 
X-16.8060 Y13.9329 
X-16.6095 Y13.9640 
X-11.3305 
X-11.1340 Y13.9329 
X-10.9448 Y13.8714 
X-10.7675 Y13.7811 
X-10.6066 Y13.6641 
X-10.4659 Y13.5234 
X-10.3489 Y13.3625 
X-10.2586 Y13.1852 
X-10.1971 Y12.9960 
X-10.1660 Y12.7995 
Y2.4405 
X-10.1971 Y2.2440 
X-10.2586 Y2.0548 
X-10.3489 Y1.8775 
X-10.4659 Y1.7166 
X-10.6066 Y1.5759 
X-10.7675 Y1.4589 
X-10.9448 Y1.3686 
X-11.1340 Y1.3071 
X-11.3305 Y1.2760 
X-26.7695 
X-26.9660 Y1.3071 
X-27.1552 Y1.3686 
X-27.3325 Y1.4589 
X-27.4934 Y1.5759 
X-27.6341 Y1.7166 
X-27.7511 Y1.8775 
X-27.8414 Y2.0548 
X-27.9029 Y2.2440 
X-27.9340 Y2.4405 
Y5.1795 
X-27.9029 Y5.3760 
X-27.8414 Y5.5652 
X-27.7511 Y5.7425 
X-27.6988 Y5.8144 
X-27.6798 Y5.8851 
X-27.6305 Y5.9707 
X-27.5607 Y6.0405 
X-27.4751 Y6.0898 
X-27.4044 Y6.1088 
X-27.3325 Y6.1611 
X-27.1552 Y6.2514 
X-26.9660 Y6.3129 
X-26.7695 Y6.3440 
X-26.5705 
X-26.3740 Y6.3129 
X-26.1848 Y6.2514 
X-26.0075 Y6.1611 
X-25.9356 Y6.1088 
X-25.8649 Y6.0898 
X-25.7793 Y6.0405 
X-25.7095 Y5.9707 
X-25.6602 Y5.8851 
X-25.6412 Y5.8144 
X-25.5889 Y5.7425 
X-25.4986 Y5.5652 
X-25.4371 Y5.3760 
X-25.4060 Y5.1795 
Y3.8040 
X-12.6940 
Y11.4360 
X-16.3456 
X-18.0400 Y9.7416 
Y9.6946 
X-18.0146 Y9.5998 
Y8.1802 
X-18.0402 Y8.0849 
X-18.0895 Y7.9993 
X-18.1593 Y7.9295 
X-18.2449 Y7.8802 
X-18.3402 Y7.8546 
G00 Z1.0000 
G00 X-48.1270 Y19.5086 
G01 Z0.0000 F300.00 
G01 X-48.1270 Y19.7673 F300.00 
G01 X-48.1614 Y19.8348 
X-48.2229 Y20.0240 
X-48.2540 Y20.2205 
Y20.4195 
X-48.2229 Y20.6160 
X-48.1614 Y20.8052 
X-48.1270 Y20.8727 
Y21.1314 
X-48.1014 Y21.2267 
X-48.0521 Y21.3123 
X-47.9823 Y21.3821 
X-47.8967 Y21.4314 
X-47.8014 Y21.4570 
X-47.5427 
X-47.4752 Y21.4914 
X-47.2860 Y21.5529 
X-47.0895 Y21.5840 
X-43.0805 
X-42.8840 Y21.5529 
X-42.6948 Y21.4914 
X-42.5175 Y21.4011 
X-42.3566 Y21.2841 
X-42.2159 Y21.1434 
X-42.0989 Y20.9825 
X-42.0086 Y20.8052 
X-41.9471 Y20.6160 
X-41.9160 Y20.4195 
Y20.3140 
X-36.7305 
X-36.5340 Y20.2829 
X-36.3448 Y20.2214 
X-36.1675 Y20.1311 
X-36.0066 Y20.0141 
X-35.8659 Y19.8734 
X-35.7489 Y19.7125 
X-35.6586 Y19.5352 
X-35.5971 Y19.3460 
X-35.5660 Y19.1495 
Y16.4105 
X-35.5971 Y16.2140 
X-35.6586 Y16.0248 
X-35.7489 Y15.8475 
X-35.8012 Y15.7756 
X-35.8202 Y15.7049 
X-35.8695 Y15.6193 
X-35.9393 Y15.5495 
X-36.0249 Y15.5002 
X-36.0956 Y15.4812 
X-36.1675 Y15.4289 
X-36.3448 Y15.3386 
X-36.5340 Y15.2771 
X-36.7305 Y15.2460 
X-36.9295 
X-37.1260 Y15.2771 
X-37.3152 Y15.3386 
X-37.4925 Y15.4289 
X-37.5644 Y15.4812 
X-37.6351 Y15.5002 
X-37.7207 Y15.5495 
X-37.7905 Y15.6193 
X-37.8398 Y15.7049 
X-37.8588 Y15.7756 
X-37.9111 Y15.8475 
X-38.0014 Y16.0248 
X-38.0629 Y16.2140 
X-38.0940 Y16.4105 
Y17.7860 
X-41.9160 
Y15.1405 
X-41.9471 Y14.9440 
X-42.0086 Y14.7548 
X-42.0989 Y14.5775 
X-42.2159 Y14.4166 
X-42.3566 Y14.2759 
X-42.5175 Y14.1589 
X-42.6948 Y14.0686 
X-42.8840 Y14.0071 
X-43.0805 Y13.9760 
X-45.8195 
X-46.0160 Y14.0071 
X-46.2052 Y14.0686 
X-46.3825 Y14.1589 
X-46.4544 Y14.2112 
X-46.5251 Y14.2302 
X-46.6107 Y14.2795 
X-46.6805 Y14.3493 
X-46.7298 Y14.4349 
X-46.7488 Y14.5056 
X-46.8011 Y14.5775 
X-46.8914 Y14.7548 
X-46.9529 Y14.9440 
X-46.9840 Y15.1405 
Y15.3395 
X-46.9529 Y15.5360 
X-46.8914 Y15.7252 
X-46.8011 Y15.9025 
X-46.7488 Y15.9744 
X-46.7298 Y16.0451 
X-46.6805 Y16.1307 
X-46.6107 Y16.2005 
X-46.5251 Y16.2498 
X-46.4544 Y16.2688 
X-46.3825 Y16.3211 
X-46.2052 Y16.4114 
X-46.0160 Y16.4729 
X-45.8195 Y16.5040 
X-44.4440 
Y19.0560 
X-47.0895 
X-47.2860 Y19.0871 
X-47.4752 Y19.1486 
X-47.5427 Y19.1830 
X-47.8014 
X-47.8967 Y19.2086 
X-47.9823 Y19.2579 
X-48.0521 Y19.3277 
X-48.1014 Y19.4133 
X-48.1270 Y19.5086 
G00 Z1.0000 
G00 X-46.1786 Y18.9170 
G01 Z0.0000 F300.00 
G01 X-46.0833 Y18.8914 F300.00 
G01 X-45.9977 Y18.8421 
X-45.9279 Y18.7723 
X-45.8786 Y18.6867 
X-45.8530 Y18.5914 
Y18.3327 
X-45.8186 Y18.2652 
X-45.7571 Y18.0760 
X-45.7260 Y17.8795 
Y17.6805 
X-45.7571 Y17.4840 
X-45.8186 Y17.2948 
X-45.8530 Y17.2273 
Y16.9686 
X-45.8786 Y16.8733 
X-45.9279 Y16.7877 
X-45.9977 Y16.7179 
X-46.0833 Y16.6686 
X-46.1786 Y16.6430 
X-46.4373 
X-46.5048 Y16.6086 
X-46.6940 Y16.5471 
X-46.8905 Y16.5160 
X-46.9960 
Y3.8040 
X-30.4740 
Y7.7195 
X-30.4429 Y7.9160 
X-30.3814 Y8.1052 
X-30.2911 Y8.2825 
X-30.2388 Y8.3544 
X-30.2198 Y8.4251 
X-30.1705 Y8.5107 
X-30.1007 Y8.5805 
X-30.0151 Y8.6298 
X-29.9444 Y8.6488 
X-29.8725 Y8.7011 
X-29.6952 Y8.7914 
X-29.5060 Y8.8529 
X-29.3095 Y8.8840 
X-27.6800 
Y14.4354 
X-27.7054 Y14.5302 
Y14.9116 
X-27.7294 Y14.9856 
X-27.7562 Y15.1545 
Y15.3255 
X-27.7294 Y15.4944 
X-27.7054 Y15.5684 
Y15.9498 
X-27.6798 Y16.0451 
X-27.6305 Y16.1307 
X-27.5607 Y16.2005 
X-27.4751 Y16.2498 
X-27.3798 Y16.2754 
X-26.9984 
X-26.9244 Y16.2995 
X-26.7555 Y16.3262 
X-22.6762 
Y19.3695 
X-22.7014 Y19.4133 
X-22.7270 Y19.5086 
Y19.7673 
X-22.7614 Y19.8348 
X-22.8229 Y20.0240 
X-22.8540 Y20.2205 
Y24.1360 
X-26.7695 
X-26.9660 Y24.1671 
X-27.1552 Y24.2286 
X-27.3325 Y24.3189 
X-27.4044 Y24.3712 
X-27.4751 Y24.3902 
X-27.5607 Y24.4395 
X-27.6305 Y24.5093 
X-27.6798 Y24.5949 
X-27.6988 Y24.6656 
X-27.7511 Y24.7375 
X-27.8414 Y24.9148 
X-27.9029 Y25.1040 
X-27.9340 Y25.3005 
Y31.7560 
X-29.3095 
X-29.5060 Y31.7871 
X-29.6952 Y31.8486 
X-29.8725 Y31.9389 
X-29.9444 Y31.9912 
X-30.0151 Y32.0102 
X-30.1007 Y32.0595 
X-30.1705 Y32.1293 
X-30.2198 Y32.2149 
X-30.2388 Y32.2856 
X-30.2911 Y32.3575 
X-30.3814 Y32.5348 
X-30.4429 Y32.7240 
X-30.4740 Y32.9205 
Y35.6595 
X-30.4429 Y35.8560 
X-30.3814 Y36.0452 
X-30.2911 Y36.2225 
X-30.2388 Y36.2944 
X-30.2198 Y36.3651 
X-30.1705 Y36.4507 
X-30.1007 Y36.5205 
X-30.0151 Y36.5698 
X-29.9444 Y36.5888 
X-29.8725 Y36.6411 
X-29.6952 Y36.7314 
X-29.5060 Y36.7929 
X-29.3095 Y36.8240 
X-29.1105 
X-28.9140 Y36.7929 
X-28.7248 Y36.7314 
X-28.5475 Y36.6411 
X-28.4756 Y36.5888 
X-28.4049 Y36.5698 
X-28.3193 Y36.5205 
X-28.2495 Y36.4507 
X-28.2002 Y36.3651 
X-28.1812 Y36.2944 
X-28.1289 Y36.2225 
X-28.0386 Y36.0452 
X-27.9771 Y35.8560 
X-27.9460 Y35.6595 
Y34.2840 
X-26.5705 
X-26.3740 Y34.2529 
X-26.1848 Y34.1914 
X-26.0075 Y34.1011 
X-25.8466 Y33.9841 
X-25.7059 Y33.8434 
X-25.5889 Y33.6825 
X-25.4986 Y33.5052 
X-25.4371 Y33.3160 
X-25.4060 Y33.1195 
Y26.6640 
X-21.4905 
X-21.2940 Y26.6329 
X-21.1048 Y26.5714 
X-20.9275 Y26.4811 
X-20.7666 Y26.3641 
X-20.6259 Y26.2234 
X-20.5089 Y26.0625 
X-20.4186 Y25.8852 
X-20.3571 Y25.6960 
X-20.3260 Y25.4995 
Y20.2205 
X-20.3571 Y20.0240 
X-20.4186 Y19.8348 
X-20.4530 Y19.7673 
Y19.5086 
X-20.4786 Y19.4133 
X-20.5038 Y19.3695 
Y15.1545 
X-20.5305 Y14.9856 
X-20.5834 Y14.8230 
X-20.6610 Y14.6707 
X-20.7615 Y14.5324 
X-20.8824 Y14.4115 
X-21.0207 Y14.3110 
X-21.1730 Y14.2334 
X-21.3356 Y14.1805 
X-21.5045 Y14.1538 
X-25.6600 
Y8.3803 
X-25.5889 Y8.2825 
X-25.4986 Y8.1052 
X-25.4371 Y7.9160 
X-25.4060 Y7.7195 
Y7.5205 
X-25.4371 Y7.3240 
X-25.4986 Y7.1348 
X-25.5889 Y6.9575 
X-25.7059 Y6.7966 
X-25.8466 Y6.6559 
X-26.0075 Y6.5389 
X-26.1848 Y6.4486 
X-26.3740 Y6.3871 
X-26.5705 Y6.3560 
X-27.9460 
Y2.4405 
X-27.9771 Y2.2440 
X-28.0386 Y2.0548 
X-28.1289 Y1.8775 
X-28.2459 Y1.7166 
X-28.3866 Y1.5759 
X-28.5475 Y1.4589 
X-28.7248 Y1.3686 
X-28.9140 Y1.3071 
X-29.1105 Y1.2760 
X-48.3595 
X-48.5560 Y1.3071 
X-48.7452 Y1.3686 
X-48.9225 Y1.4589 
X-49.0834 Y1.5759 
X-49.2241 Y1.7166 
X-49.3411 Y1.8775 
X-49.4314 Y2.0548 
X-49.4929 Y2.2440 
X-49.5240 Y2.4405 
Y17.8795 
X-49.4929 Y18.0760 
X-49.4314 Y18.2652 
X-49.3411 Y18.4425 
X-49.2241 Y18.6034 
X-49.0834 Y18.7441 
X-48.9225 Y18.8611 
X-48.7452 Y18.9514 
X-48.5560 Y19.0129 
X-48.3595 Y19.0440 
X-46.8905 
X-46.6940 Y19.0129 
X-46.5048 Y18.9514 
X-46.4373 Y18.9170 
X-46.1786 
G00 Z1.0000 
G00 X-24.9414 Y21.4570 
G01 Z0.0000 F300.00 
G01 X-23.3186 Y21.4570 F300.00 
G01 X-23.2233 Y21.4314 
X-23.1377 Y21.3821 
X-23.0679 Y21.3123 
X-23.0186 Y21.2267 
X-22.9930 Y21.1314 
Y19.5086 
X-23.0186 Y19.4133 
X-23.0679 Y19.3277 
X-23.1200 Y19.2757 
Y17.6805 
X-23.1588 Y17.4854 
X-23.2350 Y17.3016 
X-23.3455 Y17.1362 
X-23.4862 Y16.9955 
X-23.6516 Y16.8849 
X-23.8354 Y16.8088 
X-24.0305 Y16.7700 
X-28.2000 
Y12.3727 
X-28.1494 Y12.2859 
X-28.1238 Y12.1906 
Y10.6694 
X-28.1494 Y10.5741 
X-28.1987 Y10.4885 
X-28.2685 Y10.4187 
X-28.3541 Y10.3694 
X-28.4494 Y10.3438 
X-29.9706 
X-30.0659 Y10.3694 
X-30.1515 Y10.4187 
X-30.2213 Y10.4885 
X-30.2706 Y10.5741 
X-30.2962 Y10.6694 
Y12.1906 
X-30.2706 Y12.2859 
X-30.2213 Y12.3715 
Y17.8795 
X-30.1812 Y18.0746 
X-30.1050 Y18.2584 
X-29.9945 Y18.4238 
X-29.8538 Y18.5645 
X-29.6884 Y18.6750 
X-29.5046 Y18.7512 
X-29.3095 Y18.7900 
X-25.1400 
Y19.2757 
X-25.1921 Y19.3277 
X-25.2414 Y19.4133 
X-25.2670 Y19.5086 
Y21.1314 
X-25.2414 Y21.2267 
X-25.1921 Y21.3123 
X-25.1223 Y21.3821 
X-25.0367 Y21.4314 
X-24.9414 Y21.4570 
G00 Z1.0000 
G00 X-17.3976 Y32.9632 
G01 Z0.0000 F300.00 
G01 X-16.8665 Y32.9632 F300.00 
G01 X-16.8060 Y32.9829 
X-16.6095 Y33.0140 
X-16.4105 
X-16.2140 Y32.9829 
X-16.1535 Y32.9632 
X-15.6224 
X-15.5271 Y32.9376 
X-15.4415 Y32.8883 
X-15.3717 Y32.8185 
X-15.3224 Y32.7329 
X-15.2968 Y32.6376 
Y32.1065 
X-15.2771 Y32.0460 
X-15.2460 Y31.8495 
Y29.2040 
X-13.8705 
X-13.6740 Y29.1729 
X-13.4848 Y29.1114 
X-13.3075 Y29.0211 
X-13.1466 Y28.9041 
X-13.0059 Y28.7634 
X-12.8889 Y28.6025 
X-12.7986 Y28.4252 
X-12.7371 Y28.2360 
X-12.7060 Y28.0395 
Y25.3005 
X-12.7371 Y25.1040 
X-12.7986 Y24.9148 
X-12.8889 Y24.7375 
X-12.9412 Y24.6656 
X-12.9602 Y24.5949 
X-13.0095 Y24.5093 
X-13.0793 Y24.4395 
X-13.1649 Y24.3902 
X-13.2356 Y24.3712 
X-13.3075 Y24.3189 
X-13.4848 Y24.2286 
X-13.6740 Y24.1671 
X-13.8705 Y24.1360 
X-14.0695 
X-14.2660 Y24.1671 
X-14.4552 Y24.2286 
X-14.6325 Y24.3189 
X-14.7044 Y24.3712 
X-14.7751 Y24.3902 
X-14.8607 Y24.4395 
X-14.9305 Y24.5093 
X-14.9798 Y24.5949 
X-14.9988 Y24.6656 
X-15.0511 Y24.7375 
X-15.1414 Y24.9148 
X-15.2029 Y25.1040 
X-15.2340 Y25.3005 
Y26.6760 
X-21.6895 
X-21.8860 Y26.7071 
X-22.0752 Y26.7686 
X-22.2525 Y26.8589 
X-22.4134 Y26.9759 
X-22.5541 Y27.1166 
X-22.6711 Y27.2775 
X-22.7614 Y27.4548 
X-22.8229 Y27.6440 
X-22.8540 Y27.8405 
Y31.8495 
X-22.8229 Y32.0460 
X-22.7614 Y32.2352 
X-22.6711 Y32.4125 
X-22.6188 Y32.4844 
X-22.5998 Y32.5551 
X-22.5505 Y32.6407 
X-22.4807 Y32.7105 
X-22.3951 Y32.7598 
X-22.3244 Y32.7788 
X-22.2525 Y32.8311 
X-22.0752 Y32.9214 
X-21.8860 Y32.9829 
X-21.6895 Y33.0140 
X-21.4905 
X-21.2940 Y32.9829 
X-21.1048 Y32.9214 
X-20.9275 Y32.8311 
X-20.8556 Y32.7788 
X-20.7849 Y32.7598 
X-20.6993 Y32.7105 
X-20.6295 Y32.6407 
X-20.5802 Y32.5551 
X-20.5612 Y32.4844 
X-20.5089 Y32.4125 
X-20.4186 Y32.2352 
X-20.3571 Y32.0460 
X-20.3260 Y31.8495 
Y29.2040 
X-17.7740 
Y31.8495 
X-17.7429 Y32.0460 
X-17.7232 Y32.1065 
Y32.6376 
X-17.6976 Y32.7329 
X-17.6483 Y32.8185 
X-17.5785 Y32.8883 
X-17.4929 Y32.9376 
X-17.3976 Y32.9632 
G00 Z1.0000 
G00 X-3.4230 Y24.4954 
G01 Z0.0000 F300.00 
G01 X-3.5041 Y24.5766 F300.00 
G01 X-3.6211 Y24.7375 
X-3.7114 Y24.9148 
X-3.7729 Y25.1040 
X-3.8040 Y25.3005 
Y36.8360 
X-30.4860 
Y24.0305 
X-30.5171 Y23.8340 
X-30.5786 Y23.6448 
X-30.6689 Y23.4675 
X-30.7212 Y23.3956 
X-30.7402 Y23.3249 
X-30.7895 Y23.2393 
X-30.8593 Y23.1695 
X-30.9449 Y23.1202 
X-31.0156 Y23.1012 
X-31.0875 Y23.0489 
X-31.2648 Y22.9586 
X-31.4540 Y22.8971 
X-31.6505 Y22.8660 
X-31.8495 
X-32.0460 Y22.8971 
X-32.2352 Y22.9586 
X-32.4125 Y23.0489 
X-32.4844 Y23.1012 
X-32.5551 Y23.1202 
X-32.6407 Y23.1695 
X-32.7105 Y23.2393 
X-32.7598 Y23.3249 
X-32.7788 Y23.3956 
X-32.8311 Y23.4675 
X-32.9214 Y23.6448 
X-32.9829 Y23.8340 
X-33.0140 Y24.0305 
Y38.1995 
X-32.9829 Y38.3960 
X-32.9214 Y38.5852 
X-32.8311 Y38.7625 
X-32.7141 Y38.9234 
X-32.5734 Y39.0641 
X-32.4125 Y39.1811 
X-32.2352 Y39.2714 
X-32.0460 Y39.3329 
X-31.8495 Y39.3640 
X-2.4405 
X-2.2440 Y39.3329 
X-2.0548 Y39.2714 
X-1.8775 Y39.1811 
X-1.7166 Y39.0641 
X-1.5759 Y38.9234 
X-1.4589 Y38.7625 
X-1.3686 Y38.5852 
X-1.3071 Y38.3960 
X-1.2760 Y38.1995 
Y25.3005 
X-1.3071 Y25.1040 
X-1.3686 Y24.9148 
X-1.4589 Y24.7375 
X-1.5759 Y24.5766 
X-1.6570 Y24.4954 
Y21.2246 
X-1.5759 Y21.1434 
X-1.4589 Y20.9825 
X-1.3686 Y20.8052 
X-1.3071 Y20.6160 
X-1.2760 Y20.4195 
Y15.1405 
X-1.3071 Y14.9440 
X-1.3686 Y14.7548 
X-1.4589 Y14.5775 
X-1.5759 Y14.4166 
X-1.7166 Y14.2759 
X-1.8775 Y14.1589 
X-2.0548 Y14.0686 
X-2.2440 Y14.0071 
X-2.4405 Y13.9760 
X-17.7820 
X-21.6451 Y11.0787 
X-21.6886 Y10.9448 
X-21.7789 Y10.7675 
X-21.8959 Y10.6066 
X-22.0366 Y10.4659 
X-22.1975 Y10.3489 
X-22.3748 Y10.2586 
X-22.5640 Y10.1971 
X-22.7605 Y10.1660 
X-22.8660 
Y8.7905 
X-22.8971 Y8.5940 
X-22.9586 Y8.4048 
X-23.0489 Y8.2275 
X-23.1012 Y8.1556 
X-23.1202 Y8.0849 
X-23.1695 Y7.9993 
X-23.2393 Y7.9295 
X-23.3249 Y7.8802 
X-23.3956 Y7.8612 
X-23.4675 Y7.8089 
X-23.6448 Y7.7186 
X-23.8340 Y7.6571 
X-24.0305 Y7.6260 
X-24.2295 
X-24.4260 Y7.6571 
X-24.6152 Y7.7186 
X-24.7925 Y7.8089 
X-24.8644 Y7.8612 
X-24.9351 Y7.8802 
X-25.0207 Y7.9295 
X-25.0905 Y7.9993 
X-25.1398 Y8.0849 
X-25.1588 Y8.1556 
X-25.2111 Y8.2275 
X-25.3014 Y8.4048 
X-25.3629 Y8.5940 
X-25.3940 Y8.7905 
Y11.5295 
X-25.3629 Y11.7260 
X-25.3014 Y11.9152 
X-25.2111 Y12.0925 
X-25.0941 Y12.2534 
X-24.9534 Y12.3941 
X-24.7925 Y12.5111 
X-24.6152 Y12.6014 
X-24.4260 Y12.6629 
X-24.2295 Y12.6940 
X-22.8580 
X-18.9949 Y15.5913 
X-18.9514 Y15.7252 
X-18.8611 Y15.9025 
X-18.7441 Y16.0634 
X-18.6034 Y16.2041 
X-18.4425 Y16.3211 
X-18.2652 Y16.4114 
X-18.0760 Y16.4729 
X-17.8795 Y16.5040 
X-6.4791 
X-6.5089 Y16.5558 
X-6.5345 Y16.6511 
Y18.9089 
X-6.5089 Y19.0042 
X-6.4596 Y19.0898 
X-6.3898 Y19.1596 
X-6.3042 Y19.2089 
X-6.2089 Y19.2345 
X-3.9511 
X-3.8558 Y19.2089 
X-3.8040 Y19.1791 
Y20.4195 
X-3.7729 Y20.6160 
X-3.7114 Y20.8052 
X-3.6211 Y20.9825 
X-3.5041 Y21.1434 
X-3.4230 Y21.2246 
Y24.4954 
G00 Z1.0000 
G82 X-40.6400 Y15.2400 Z-0.1000 F300.00 R1.0000 P0.000000
G82 X-19.0500 Y17.7800 
G82 X-8.8900 Y26.6700 
G82 X-8.8900 Y24.1300 
G82 X-8.8900 Y17.7800 
G82 X-8.8900 Y15.2400 
G82 X-29.2100 Y11.4300 
G82 X-36.8300 Y11.4300 
G82 X-29.2100 Y29.2100 
G82 X-36.8300 Y29.2100 
G82 X-16.5100 Y31.7500 
G82 X-16.5100 Y21.5900 
G82 X-16.5100 Y19.0500 
G82 X-16.5100 Y8.8900 
G82 X-39.3700 Y24.1300 
G82 X-36.8300 Y24.1300 
G82 X-34.2900 Y24.1300 
G82 X-31.7500 Y24.1300 
G82 X-31.7500 Y16.5100 
G82 X-34.2900 Y16.5100 
G82 X-36.8300 Y16.5100 
G82 X-39.3700 Y16.5100 
G82 X-5.0800 Y22.8600 
G82 X-5.0800 Y17.7800 
G82 X-21.5900 Y31.7500 
G82 X-19.0500 Y31.7500 
G82 X-24.1300 Y31.7500 
G82 X-21.5900 Y8.8900 
G82 X-24.1300 Y8.8900 
G82 X-19.0500 Y8.8900 
G82 X-29.2100 Y33.0200 
G82 X-39.3700 Y33.0200 
G82 X-29.2100 Y35.5600 
G82 X-39.3700 Y35.5600 
G82 X-45.7200 Y35.5600 
G82 X-45.7200 Y25.4000 
G82 X-29.2100 Y5.0800 
G82 X-39.3700 Y5.0800 
G82 X-45.7200 Y5.0800 
G82 X-45.7200 Y15.2400 
G82 X-29.2100 Y7.6200 
G82 X-39.3700 Y7.6200 
G82 X-13.9700 Y25.4000 
G82 X-13.9700 Y35.5600 
G82 X-13.9700 Y15.2400 
G82 X-13.9700 Y5.0800 
G82 X-26.6700 Y25.4000 
G82 X-26.6700 Y35.5600 
G82 X-26.6700 Y5.0800 
G82 X-26.6700 Y15.2400 
G82 X-46.9900 Y22.8600 
G82 X-46.9900 Y20.3200 
G82 X-46.9900 Y17.7800 
G82 X-21.5900 Y20.3200 
G82 X-24.1300 Y20.3200 
G82 X-26.6700 Y20.3200 
M05
M02
