(.../pcb-gcode-3.6.0.4/pcb-gcode.ulp)
(Copyright 2005 - 2012 by John Johnson)
(See readme.txt for licensing terms.)
(This file generated from the board:)
(/home/mst/eagle/cmoy/cmoy-wide.brd)
(Current profile is .../pcb-gcode-3.6.0.4/profiles/emc.pp  )
(This file generated 31.12.14 18:09)
(Settings from pcb-machine.h)
(  Tool Size)
(0.2500 )
(Z Axis Settings)
(  High     Up        Down     Drill)
(1.0000 	1.0000 	0.0000 	-0.1000 )
(spindle on time = 0.0000)
(milling depth = 0.0000)
(text depth = -0.1270)
(tool change at 12.7000 15.2400 25.4000 )
(feed rate xy = F300.00 )
(feed rate z  = F300.00 )
(Settings from pcb-defaults.h)
(isolate min = 0.2500)
(isolate max = 0.5080)
(isolate step = 0.1270)
(Generated bottom outlines, bottom drill, )
(Unit of measure: mm)
( Tool|       Size       |  Min Sub |  Max Sub |   Count )
( T01 | 0.600mm 0.0236in | 0.0000in | 0.0000in |       0 )
( T02 | 0.813mm 0.0320in | 0.0000in | 0.0000in |       0 )
( T03 | 0.914mm 0.0360in | 0.0000in | 0.0000in |       0 )
( T04 | 1.016mm 0.0400in | 0.0000in | 0.0000in |       0 )
( T05 | 1.118mm 0.0440in | 0.0000in | 0.0000in |       0 )
(Metric Mode)
G21
(Absolute Coordinates)
G90
M05
G00 Z25.4000 
G00 X12.7000 Y15.2400 
M06 T01 (0.6000 )
G01 Z0.0000 F300.00 
M06 T01 (0.6000 )
G00 Z1.0000 
M03
G04 P0.000000
G82 X-40.6400 Y15.2400 Z-0.1000 F300.00 R1.0000 P0.000000
G82 X-19.0500 Y17.7800 
M05
G00 Z25.4000 
M06 T02 (0.8128 )
G01 Z0.0000 F300.00 
M06 T02 (0.8128 )
G00 Z1.0000 
M03
G04 P0.000000
G82 X-31.7500 Y16.5100 Z-0.1000 F300.00 R1.0000 P0.000000
G82 X-31.7500 Y24.1300 
G82 X-34.2900 Y16.5100 
G82 X-34.2900 Y24.1300 
G82 X-36.8300 Y16.5100 
G82 X-36.8300 Y24.1300 
G82 X-39.3700 Y33.0200 
G82 X-39.3700 Y35.5600 
G82 X-39.3700 Y5.0800 
G82 X-39.3700 Y7.6200 
G82 X-39.3700 Y16.5100 
G82 X-39.3700 Y24.1300 
G82 X-45.7200 Y35.5600 
G82 X-45.7200 Y5.0800 
G82 X-45.7200 Y15.2400 
G82 X-45.7200 Y25.4000 
G82 X-8.8900 Y15.2400 
G82 X-8.8900 Y17.7800 
G82 X-8.8900 Y24.1300 
G82 X-8.8900 Y26.6700 
G82 X-13.9700 Y35.5600 
G82 X-13.9700 Y5.0800 
G82 X-13.9700 Y15.2400 
G82 X-13.9700 Y25.4000 
G82 X-19.0500 Y31.7500 
G82 X-19.0500 Y8.8900 
G82 X-21.5900 Y31.7500 
G82 X-21.5900 Y8.8900 
G82 X-24.1300 Y31.7500 
G82 X-24.1300 Y8.8900 
G82 X-26.6700 Y35.5600 
G82 X-26.6700 Y5.0800 
G82 X-26.6700 Y15.2400 
G82 X-26.6700 Y25.4000 
G82 X-29.2100 Y33.0200 
G82 X-29.2100 Y35.5600 
G82 X-29.2100 Y5.0800 
G82 X-29.2100 Y7.6200 
M05
G00 Z25.4000 
M06 T03 (0.9144 )
G01 Z0.0000 F300.00 
M06 T03 (0.9144 )
G00 Z1.0000 
M03
G04 P0.000000
G82 X-36.8300 Y11.4300 Z-0.1000 F300.00 R1.0000 P0.000000
G82 X-36.8300 Y29.2100 
G82 X-29.2100 Y11.4300 
G82 X-29.2100 Y29.2100 
M05
G00 Z25.4000 
M06 T04 (1.0160 )
G01 Z0.0000 F300.00 
M06 T04 (1.0160 )
G00 Z1.0000 
M03
G04 P0.000000
G82 X-46.9900 Y17.7800 Z-0.1000 F300.00 R1.0000 P0.000000
G82 X-46.9900 Y20.3200 
G82 X-46.9900 Y22.8600 
G82 X-5.0800 Y17.7800 
G82 X-5.0800 Y22.8600 
G82 X-21.5900 Y20.3200 
G82 X-24.1300 Y20.3200 
G82 X-26.6700 Y20.3200 
M05
G00 Z25.4000 
M06 T05 (1.1176 )
G01 Z0.0000 F300.00 
M06 T05 (1.1176 )
G00 Z1.0000 
M03
G04 P0.000000
G82 X-16.5100 Y31.7500 Z-0.1000 F300.00 R1.0000 P0.000000
G82 X-16.5100 Y8.8900 
G82 X-16.5100 Y19.0500 
G82 X-16.5100 Y21.5900 
T01 
M05
M02
