(.../pcb-gcode-3.6.0.4/pcb-gcode.ulp)
(Copyright 2005 - 2012 by John Johnson)
(See readme.txt for licensing terms.)
(This file generated from the board:)
(.../Neues_Projekt/shifter-4rgb.brd)
(Current profile is .../pcb-gcode-3.6.0.4/profiles/emc.pp  )
(This file generated 04.08.14 00:49)
(Settings from pcb-machine.h)
(  Tool Size)
(0.3000 )
(Z Axis Settings)
(  High     Up        Down     Drill)
(1.0000 	1.0000 	-0.1700 	-0.2000 )
(spindle on time = 0.0000)
(milling depth = -0.1700)
(text depth = -0.1270)
(tool change at 12.7000 15.2400 25.4000 )
(feed rate xy = F250.00 )
(feed rate z  = F250.00 )
(Settings from pcb-defaults.h)
(isolate min = 0.0001)
(isolate max = 0.5080)
(isolate step = 0.1270)
(Generated bottom outlines, bottom drill, )
(Unit of measure: mm)
(Metric Mode)
G21
(Absolute Coordinates)
G90
G00 X0.0000 Y0.0000 
M03
G04 P0.000000
G00 Z1.0000 
G00 X-10.3909 Y17.2268 
G01 Z-0.1700 F250.00 
G01 X-10.3909 Y13.8882 F250.00 
G01 X-10.4165 Y13.7267 
G01 X-10.4670 Y13.5711 
G01 X-10.5413 Y13.4254 
G01 X-10.6374 Y13.2931 
G01 X-10.7531 Y13.1774 
G01 X-10.8854 Y13.0813 
G01 X-11.0311 Y13.0070 
G01 X-11.1867 Y12.9565 
G01 X-11.3482 Y12.9309 
G01 X-11.5118 Y12.9309 
G01 X-11.6733 Y12.9565 
G01 X-11.8289 Y13.0070 
G01 X-11.9746 Y13.0813 
G01 X-12.1069 Y13.1774 
G01 X-12.2226 Y13.2931 
G01 X-12.3187 Y13.4254 
G01 X-12.3930 Y13.5711 
G01 X-12.4435 Y13.7267 
G01 X-12.4691 Y13.8882 
G01 X-12.4691 Y17.2268 
G01 X-12.4435 Y17.3883 
G01 X-12.3930 Y17.5439 
G01 X-12.3187 Y17.6896 
G01 X-12.2226 Y17.8219 
G01 X-12.1069 Y17.9376 
G01 X-11.9746 Y18.0337 
G01 X-11.8289 Y18.1080 
G01 X-11.6733 Y18.1585 
G01 X-11.5118 Y18.1841 
G01 X-11.3482 Y18.1841 
G01 X-11.1867 Y18.1585 
G01 X-11.0311 Y18.1080 
G01 X-10.8854 Y18.0337 
G01 X-10.7531 Y17.9376 
G01 X-10.6374 Y17.8219 
G01 X-10.5413 Y17.6896 
G01 X-10.4670 Y17.5439 
G01 X-10.4165 Y17.3883 
G01 X-10.3909 Y17.2268 
G00 Z1.0000 
G00 X-12.9309 Y22.7782 
G01 Z-0.1700 F250.00 
G01 X-12.9565 Y22.6167 F250.00 
G01 X-13.0070 Y22.4611 
G01 X-13.0813 Y22.3154 
G01 X-13.1774 Y22.1831 
G01 X-13.2931 Y22.0674 
G01 X-13.4254 Y21.9713 
G01 X-13.5711 Y21.8970 
G01 X-13.7267 Y21.8465 
G01 X-13.8882 Y21.8209 
G01 X-14.0518 Y21.8209 
G01 X-14.2133 Y21.8465 
G01 X-14.3689 Y21.8970 
G01 X-14.5146 Y21.9713 
G01 X-14.6469 Y22.0674 
G01 X-14.7626 Y22.1831 
G01 X-14.8587 Y22.3154 
G01 X-14.9330 Y22.4611 
G01 X-14.9835 Y22.6167 
G01 X-15.0091 Y22.7782 
G01 X-15.0091 Y24.3609 
G01 X-15.9568 Y24.3609 
G01 X-16.1183 Y24.3865 
G01 X-16.2739 Y24.4370 
G01 X-16.4196 Y24.5113 
G01 X-16.5519 Y24.6074 
G01 X-16.6676 Y24.7231 
G01 X-16.7637 Y24.8554 
G01 X-16.8380 Y25.0011 
G01 X-16.8885 Y25.1567 
G01 X-16.9141 Y25.3182 
G01 X-16.9141 Y25.4818 
G01 X-16.8885 Y25.6433 
G01 X-16.8380 Y25.7989 
G01 X-16.7637 Y25.9446 
G01 X-16.6676 Y26.0769 
G01 X-16.5519 Y26.1926 
G01 X-16.4196 Y26.2887 
G01 X-16.2739 Y26.3630 
G01 X-16.1183 Y26.4135 
G01 X-15.9568 Y26.4391 
G01 X-13.8882 Y26.4391 
G01 X-13.7267 Y26.4135 
G01 X-13.5711 Y26.3630 
G01 X-13.4254 Y26.2887 
G01 X-13.2931 Y26.1926 
G01 X-13.1774 Y26.0769 
G01 X-13.0813 Y25.9446 
G01 X-13.0070 Y25.7989 
G01 X-12.9565 Y25.6433 
G01 X-12.9309 Y25.4818 
G01 X-12.9309 Y25.3182 
G01 X-12.9309 Y22.7782 
G00 Z1.0000 
G00 X-10.2418 Y18.0109 
G01 Z-0.1700 F250.00 
G01 X-10.4033 Y18.0365 F250.00 
G01 X-10.5589 Y18.0870 
G01 X-10.7046 Y18.1613 
G01 X-10.8369 Y18.2574 
G01 X-10.9526 Y18.3731 
G01 X-11.0487 Y18.5054 
G01 X-11.1230 Y18.6511 
G01 X-11.1735 Y18.8067 
G01 X-11.1991 Y18.9682 
G01 X-11.1991 Y19.1318 
G01 X-11.1735 Y19.2933 
G01 X-11.1230 Y19.4489 
G01 X-11.0487 Y19.5946 
G01 X-10.9526 Y19.7269 
G01 X-10.8369 Y19.8426 
G01 X-10.7046 Y19.9387 
G01 X-10.5589 Y20.0130 
G01 X-10.4033 Y20.0635 
G01 X-10.2418 Y20.0891 
G01 X-8.8082 Y20.0891 
G01 X-8.6467 Y20.0635 
G01 X-8.4911 Y20.0130 
G01 X-8.3454 Y19.9387 
G01 X-8.2131 Y19.8426 
G01 X-8.0974 Y19.7269 
G01 X-8.0013 Y19.5946 
G01 X-7.9270 Y19.4489 
G01 X-7.8765 Y19.2933 
G01 X-7.8509 Y19.1318 
G01 X-7.8509 Y15.1582 
G01 X-7.8765 Y14.9967 
G01 X-7.9270 Y14.8411 
G01 X-8.0013 Y14.6954 
G01 X-8.0974 Y14.5631 
G01 X-8.2131 Y14.4474 
G01 X-8.3454 Y14.3513 
G01 X-8.4911 Y14.2770 
G01 X-8.6467 Y14.2265 
G01 X-8.8082 Y14.2009 
G01 X-8.9718 Y14.2009 
G01 X-9.1333 Y14.2265 
G01 X-9.2889 Y14.2770 
G01 X-9.4346 Y14.3513 
G01 X-9.5669 Y14.4474 
G01 X-9.6826 Y14.5631 
G01 X-9.7787 Y14.6954 
G01 X-9.8530 Y14.8411 
G01 X-9.9035 Y14.9967 
G01 X-9.9291 Y15.1582 
G01 X-9.9291 Y18.0109 
G01 X-10.2418 Y18.0109 
G00 Z1.0000 
G00 X-20.4018 Y27.7091 
G01 Z-0.1700 F250.00 
G01 X-17.6982 Y27.7091 F250.00 
G01 X-17.5367 Y27.6835 
G01 X-17.3811 Y27.6330 
G01 X-17.2354 Y27.5587 
G01 X-17.1031 Y27.4626 
G01 X-16.9874 Y27.3469 
G01 X-16.8913 Y27.2146 
G01 X-16.8170 Y27.0689 
G01 X-16.7665 Y26.9133 
G01 X-16.7409 Y26.7518 
G01 X-16.7409 Y26.5882 
G01 X-16.7665 Y26.4267 
G01 X-16.8170 Y26.2711 
G01 X-16.8913 Y26.1254 
G01 X-16.9874 Y25.9931 
G01 X-17.1031 Y25.8774 
G01 X-17.2354 Y25.7813 
G01 X-17.3811 Y25.7070 
G01 X-17.5367 Y25.6565 
G01 X-17.6982 Y25.6309 
G01 X-20.4018 Y25.6309 
G01 X-20.5633 Y25.6565 
G01 X-20.7189 Y25.7070 
G01 X-20.8646 Y25.7813 
G01 X-20.9969 Y25.8774 
G01 X-21.1126 Y25.9931 
G01 X-21.2087 Y26.1254 
G01 X-21.2830 Y26.2711 
G01 X-21.3335 Y26.4267 
G01 X-21.3591 Y26.5882 
G01 X-21.3591 Y26.7518 
G01 X-21.3335 Y26.9133 
G01 X-21.2830 Y27.0689 
G01 X-21.2087 Y27.2146 
G01 X-21.1126 Y27.3469 
G01 X-20.9969 Y27.4626 
G01 X-20.8646 Y27.5587 
G01 X-20.7189 Y27.6330 
G01 X-20.5633 Y27.6835 
G01 X-20.4018 Y27.7091 
G00 Z1.0000 
G00 X-23.4482 Y2.6901 
G01 Z-0.1700 F250.00 
G01 X-22.2718 Y2.6901 F250.00 
G01 X-21.4399 Y1.8582 
G01 X-21.4399 Y0.6818 
G01 X-22.2718 Y-0.1501 
G01 X-23.4482 Y-0.1501 
G01 X-23.8292 Y0.2309 
G01 X-36.9118 Y0.2309 
G01 X-37.0733 Y0.2565 
G01 X-37.2289 Y0.3070 
G01 X-37.3746 Y0.3813 
G01 X-37.5069 Y0.4774 
G01 X-37.6226 Y0.5931 
G01 X-37.7187 Y0.7254 
G01 X-37.7930 Y0.8711 
G01 X-37.8435 Y1.0267 
G01 X-37.8691 Y1.1882 
G01 X-37.8691 Y21.8908 
G01 X-38.2501 Y22.2718 
G01 X-38.2501 Y23.4482 
G01 X-37.8691 Y23.8292 
G01 X-37.8691 Y36.9118 
G01 X-37.8435 Y37.0733 
G01 X-37.7930 Y37.2289 
G01 X-37.7187 Y37.3746 
G01 X-37.6226 Y37.5069 
G01 X-37.5069 Y37.6226 
G01 X-37.3746 Y37.7187 
G01 X-37.2289 Y37.7930 
G01 X-37.0733 Y37.8435 
G01 X-36.9118 Y37.8691 
G01 X-16.2092 Y37.8691 
G01 X-15.8282 Y38.2501 
G01 X-14.6518 Y38.2501 
G01 X-14.2708 Y37.8691 
G01 X-1.1882 Y37.8691 
G01 X-1.0267 Y37.8435 
G01 X-0.8711 Y37.7930 
G01 X-0.7254 Y37.7187 
G01 X-0.5931 Y37.6226 
G01 X-0.4774 Y37.5069 
G01 X-0.3813 Y37.3746 
G01 X-0.3070 Y37.2289 
G01 X-0.2565 Y37.0733 
G01 X-0.2309 Y36.9118 
G01 X-0.2309 Y16.2092 
G01 X0.1501 Y15.8282 
G01 X0.1501 Y14.6518 
G01 X-0.6818 Y13.8199 
G01 X-1.8582 Y13.8199 
G01 X-2.2392 Y14.2009 
G01 X-6.4318 Y14.2009 
G01 X-6.5933 Y14.2265 
G01 X-6.7489 Y14.2770 
G01 X-6.8946 Y14.3513 
G01 X-7.0269 Y14.4474 
G01 X-7.1426 Y14.5631 
G01 X-7.2387 Y14.6954 
G01 X-7.3130 Y14.8411 
G01 X-7.3635 Y14.9967 
G01 X-7.3891 Y15.1582 
G01 X-7.3891 Y15.3218 
G01 X-7.3635 Y15.4833 
G01 X-7.3130 Y15.6389 
G01 X-7.2387 Y15.7846 
G01 X-7.1426 Y15.9169 
G01 X-7.0269 Y16.0326 
G01 X-6.8946 Y16.1287 
G01 X-6.7489 Y16.2030 
G01 X-6.5933 Y16.2535 
G01 X-6.4318 Y16.2791 
G01 X-2.3091 Y16.2791 
G01 X-2.3091 Y35.7909 
G01 X-14.2708 Y35.7909 
G01 X-14.6518 Y35.4099 
G01 X-15.8282 Y35.4099 
G01 X-16.2092 Y35.7909 
G01 X-35.7909 Y35.7909 
G01 X-35.7909 Y23.8292 
G01 X-35.4099 Y23.4482 
G01 X-35.4099 Y22.2718 
G01 X-35.7909 Y21.8908 
G01 X-35.7909 Y2.3091 
G01 X-23.8292 Y2.3091 
G01 X-23.4482 Y2.6901 
G00 Z1.0000 
G00 X-30.6301 Y14.6518 
G01 Z-0.1700 F250.00 
G01 X-30.6301 Y15.8282 F250.00 
G01 X-30.2491 Y16.2092 
G01 X-30.2491 Y29.2918 
G01 X-30.2235 Y29.4533 
G01 X-30.1730 Y29.6089 
G01 X-30.0987 Y29.7546 
G01 X-30.0026 Y29.8869 
G01 X-29.8869 Y30.0026 
G01 X-29.7546 Y30.0987 
G01 X-29.6089 Y30.1730 
G01 X-29.4533 Y30.2235 
G01 X-29.2918 Y30.2491 
G01 X-23.8292 Y30.2491 
G01 X-23.4482 Y30.6301 
G01 X-22.2718 Y30.6301 
G01 X-21.8908 Y30.2491 
G01 X-8.8082 Y30.2491 
G01 X-8.6467 Y30.2235 
G01 X-8.4911 Y30.1730 
G01 X-8.3454 Y30.0987 
G01 X-8.2131 Y30.0026 
G01 X-8.0974 Y29.8869 
G01 X-8.0013 Y29.7546 
G01 X-7.9270 Y29.6089 
G01 X-7.8765 Y29.4533 
G01 X-7.8509 Y29.2918 
G01 X-7.8509 Y23.8292 
G01 X-7.4699 Y23.4482 
G01 X-7.4699 Y22.2718 
G01 X-8.3018 Y21.4399 
G01 X-9.4782 Y21.4399 
G01 X-10.3101 Y22.2718 
G01 X-10.3101 Y23.4482 
G01 X-9.9291 Y23.8292 
G01 X-9.9291 Y28.1709 
G01 X-21.8908 Y28.1709 
G01 X-22.2718 Y27.7899 
G01 X-23.4482 Y27.7899 
G01 X-23.8292 Y28.1709 
G01 X-28.1709 Y28.1709 
G01 X-28.1709 Y16.2092 
G01 X-27.7899 Y15.8282 
G01 X-27.7899 Y14.6518 
G01 X-28.1709 Y14.2708 
G01 X-28.1709 Y9.9291 
G01 X-16.2092 Y9.9291 
G01 X-15.8282 Y10.3101 
G01 X-14.6518 Y10.3101 
G01 X-13.8199 Y9.4782 
G01 X-13.8199 Y8.3018 
G01 X-14.6518 Y7.4699 
G01 X-15.8282 Y7.4699 
G01 X-16.2092 Y7.8509 
G01 X-29.2918 Y7.8509 
G01 X-29.4533 Y7.8765 
G01 X-29.6089 Y7.9270 
G01 X-29.7546 Y8.0013 
G01 X-29.8869 Y8.0974 
G01 X-30.0026 Y8.2131 
G01 X-30.0987 Y8.3454 
G01 X-30.1730 Y8.4911 
G01 X-30.2235 Y8.6467 
G01 X-30.2491 Y8.8082 
G01 X-30.2491 Y14.2708 
G01 X-30.6301 Y14.6518 
G00 Z1.0000 
G00 X-12.8501 Y26.0818 
G01 Z-0.1700 F250.00 
G01 X-12.8501 Y27.2582 F250.00 
G01 X-12.0182 Y28.0901 
G01 X-10.8418 Y28.0901 
G01 X-10.0099 Y27.2582 
G01 X-10.0099 Y26.0818 
G01 X-10.3909 Y25.7008 
G01 X-10.3909 Y22.7782 
G01 X-10.4165 Y22.6167 
G01 X-10.4670 Y22.4611 
G01 X-10.5413 Y22.3154 
G01 X-10.6374 Y22.1831 
G01 X-10.7531 Y22.0674 
G01 X-10.8854 Y21.9713 
G01 X-11.0311 Y21.8970 
G01 X-11.1867 Y21.8465 
G01 X-11.3482 Y21.8209 
G01 X-11.5118 Y21.8209 
G01 X-11.6733 Y21.8465 
G01 X-11.8289 Y21.8970 
G01 X-11.9746 Y21.9713 
G01 X-12.1069 Y22.0674 
G01 X-12.2226 Y22.1831 
G01 X-12.3187 Y22.3154 
G01 X-12.3930 Y22.4611 
G01 X-12.4435 Y22.6167 
G01 X-12.4691 Y22.7782 
G01 X-12.4691 Y25.7008 
G01 X-12.8501 Y26.0818 
G00 Z1.0000 
G00 X-28.0901 Y26.0818 
G01 Z-0.1700 F250.00 
G01 X-28.0901 Y27.2582 F250.00 
G01 X-27.2582 Y28.0901 
G01 X-26.0818 Y28.0901 
G01 X-25.7008 Y27.7091 
G01 X-24.0482 Y27.7091 
G01 X-23.8867 Y27.6835 
G01 X-23.7311 Y27.6330 
G01 X-23.5854 Y27.5587 
G01 X-23.4531 Y27.4626 
G01 X-23.3374 Y27.3469 
G01 X-23.2413 Y27.2146 
G01 X-23.1670 Y27.0689 
G01 X-23.1165 Y26.9133 
G01 X-23.0909 Y26.7518 
G01 X-23.0909 Y26.5882 
G01 X-23.1165 Y26.4267 
G01 X-23.1670 Y26.2711 
G01 X-23.2413 Y26.1254 
G01 X-23.3374 Y25.9931 
G01 X-23.4531 Y25.8774 
G01 X-23.5854 Y25.7813 
G01 X-23.7311 Y25.7070 
G01 X-23.8867 Y25.6565 
G01 X-24.0482 Y25.6309 
G01 X-25.7008 Y25.6309 
G01 X-26.0818 Y25.2499 
G01 X-27.2582 Y25.2499 
G01 X-28.0901 Y26.0818 
G00 Z1.0000 
G00 X-8.2082 Y12.8501 
G01 Z-0.1700 F250.00 
G01 X-7.0318 Y12.8501 F250.00 
G01 X-6.1999 Y12.0182 
G01 X-6.1999 Y10.8418 
G01 X-7.0318 Y10.0099 
G01 X-8.2082 Y10.0099 
G01 X-8.5892 Y10.3909 
G01 X-11.5118 Y10.3909 
G01 X-11.6733 Y10.4165 
G01 X-11.8289 Y10.4670 
G01 X-11.9746 Y10.5413 
G01 X-12.1069 Y10.6374 
G01 X-12.2226 Y10.7531 
G01 X-12.3187 Y10.8854 
G01 X-12.3930 Y11.0311 
G01 X-12.4435 Y11.1867 
G01 X-12.4691 Y11.3482 
G01 X-12.4691 Y11.5118 
G01 X-12.4435 Y11.6733 
G01 X-12.3930 Y11.8289 
G01 X-12.3187 Y11.9746 
G01 X-12.2226 Y12.1069 
G01 X-12.1069 Y12.2226 
G01 X-11.9746 Y12.3187 
G01 X-11.8289 Y12.3930 
G01 X-11.6733 Y12.4435 
G01 X-11.5118 Y12.4691 
G01 X-8.5892 Y12.4691 
G01 X-8.2082 Y12.8501 
G00 Z1.0000 
G00 X-25.1691 Y22.6291 
G01 Z-0.1700 F250.00 
G01 X-25.1691 Y24.2118 F250.00 
G01 X-25.1435 Y24.3733 
G01 X-25.0930 Y24.5289 
G01 X-25.0187 Y24.6746 
G01 X-24.9226 Y24.8069 
G01 X-24.8069 Y24.9226 
G01 X-24.6746 Y25.0187 
G01 X-24.5289 Y25.0930 
G01 X-24.3733 Y25.1435 
G01 X-24.2118 Y25.1691 
G01 X-24.0482 Y25.1691 
G01 X-23.8867 Y25.1435 
G01 X-23.7311 Y25.0930 
G01 X-23.5854 Y25.0187 
G01 X-23.4531 Y24.9226 
G01 X-23.3374 Y24.8069 
G01 X-23.2413 Y24.6746 
G01 X-23.1670 Y24.5289 
G01 X-23.1165 Y24.3733 
G01 X-23.0909 Y24.2118 
G01 X-23.0909 Y21.5082 
G01 X-23.1165 Y21.3467 
G01 X-23.1670 Y21.1911 
G01 X-23.2413 Y21.0454 
G01 X-23.3374 Y20.9131 
G01 X-23.4531 Y20.7974 
G01 X-23.5854 Y20.7013 
G01 X-23.7311 Y20.6270 
G01 X-23.8867 Y20.5765 
G01 X-24.0482 Y20.5509 
G01 X-24.4397 Y20.5509 
G01 X-24.5113 Y20.4104 
G01 X-24.6074 Y20.2781 
G01 X-24.7231 Y20.1624 
G01 X-24.8554 Y20.0663 
G01 X-25.0011 Y19.9920 
G01 X-25.1567 Y19.9415 
G01 X-25.3182 Y19.9159 
G01 X-25.4818 Y19.9159 
G01 X-25.6433 Y19.9415 
G01 X-25.7989 Y19.9920 
G01 X-25.9446 Y20.0663 
G01 X-26.0769 Y20.1624 
G01 X-26.1926 Y20.2781 
G01 X-26.2887 Y20.4104 
G01 X-26.3630 Y20.5561 
G01 X-26.4135 Y20.7117 
G01 X-26.4391 Y20.8732 
G01 X-26.4391 Y21.6718 
G01 X-26.4135 Y21.8333 
G01 X-26.3630 Y21.9889 
G01 X-26.2887 Y22.1346 
G01 X-26.1926 Y22.2669 
G01 X-26.0769 Y22.3826 
G01 X-25.9446 Y22.4787 
G01 X-25.7989 Y22.5530 
G01 X-25.6433 Y22.6035 
G01 X-25.4818 Y22.6291 
G01 X-25.3182 Y22.6291 
G01 X-25.1691 Y22.6291 
G00 Z1.0000 
G00 X-20.9082 Y5.2301 
G01 Z-0.1700 F250.00 
G01 X-19.7318 Y5.2301 F250.00 
G01 X-18.8999 Y4.3982 
G01 X-18.8999 Y3.2218 
G01 X-19.7318 Y2.3899 
G01 X-20.9082 Y2.3899 
G01 X-21.2892 Y2.7709 
G01 X-34.3718 Y2.7709 
G01 X-34.5333 Y2.7965 
G01 X-34.6889 Y2.8470 
G01 X-34.8346 Y2.9213 
G01 X-34.9669 Y3.0174 
G01 X-35.0826 Y3.1331 
G01 X-35.1787 Y3.2654 
G01 X-35.2530 Y3.4111 
G01 X-35.3035 Y3.5667 
G01 X-35.3291 Y3.7282 
G01 X-35.3291 Y19.3508 
G01 X-35.7101 Y19.7318 
G01 X-35.7101 Y20.9082 
G01 X-35.3291 Y21.2892 
G01 X-35.3291 Y34.3718 
G01 X-35.3035 Y34.5333 
G01 X-35.2530 Y34.6889 
G01 X-35.1787 Y34.8346 
G01 X-35.0826 Y34.9669 
G01 X-34.9669 Y35.0826 
G01 X-34.8346 Y35.1787 
G01 X-34.6889 Y35.2530 
G01 X-34.5333 Y35.3035 
G01 X-34.3718 Y35.3291 
G01 X-18.7492 Y35.3291 
G01 X-18.3682 Y35.7101 
G01 X-17.1918 Y35.7101 
G01 X-16.8108 Y35.3291 
G01 X-3.7282 Y35.3291 
G01 X-3.5667 Y35.3035 
G01 X-3.4111 Y35.2530 
G01 X-3.2654 Y35.1787 
G01 X-3.1331 Y35.0826 
G01 X-3.0174 Y34.9669 
G01 X-2.9213 Y34.8346 
G01 X-2.8470 Y34.6889 
G01 X-2.7965 Y34.5333 
G01 X-2.7709 Y34.3718 
G01 X-2.7709 Y18.7492 
G01 X-2.3899 Y18.3682 
G01 X-2.3899 Y17.1918 
G01 X-3.2218 Y16.3599 
G01 X-4.3982 Y16.3599 
G01 X-5.2301 Y17.1918 
G01 X-5.2301 Y18.3682 
G01 X-4.8491 Y18.7492 
G01 X-4.8491 Y33.2509 
G01 X-16.8108 Y33.2509 
G01 X-17.1918 Y32.8699 
G01 X-18.3682 Y32.8699 
G01 X-18.7492 Y33.2509 
G01 X-33.2509 Y33.2509 
G01 X-33.2509 Y21.2892 
G01 X-32.8699 Y20.9082 
G01 X-32.8699 Y19.7318 
G01 X-33.2509 Y19.3508 
G01 X-33.2509 Y4.8491 
G01 X-21.2892 Y4.8491 
G01 X-20.9082 Y5.2301 
G00 Z1.0000 
G00 X-18.3682 Y7.7701 
G01 Z-0.1700 F250.00 
G01 X-17.1918 Y7.7701 F250.00 
G01 X-16.8108 Y7.3891 
G01 X-12.4691 Y7.3891 
G01 X-12.4691 Y7.9208 
G01 X-12.8501 Y8.3018 
G01 X-12.8501 Y9.4782 
G01 X-12.0182 Y10.3101 
G01 X-10.8418 Y10.3101 
G01 X-10.0099 Y9.4782 
G01 X-10.0099 Y8.3018 
G01 X-10.3909 Y7.9208 
G01 X-10.3909 Y6.2682 
G01 X-10.4165 Y6.1067 
G01 X-10.4670 Y5.9511 
G01 X-10.5413 Y5.8054 
G01 X-10.6374 Y5.6731 
G01 X-10.7531 Y5.5574 
G01 X-10.8854 Y5.4613 
G01 X-11.0311 Y5.3870 
G01 X-11.1867 Y5.3365 
G01 X-11.3482 Y5.3109 
G01 X-16.8108 Y5.3109 
G01 X-17.1918 Y4.9299 
G01 X-18.3682 Y4.9299 
G01 X-18.7492 Y5.3109 
G01 X-31.8318 Y5.3109 
G01 X-31.9933 Y5.3365 
G01 X-32.1489 Y5.3870 
G01 X-32.2946 Y5.4613 
G01 X-32.4269 Y5.5574 
G01 X-32.5426 Y5.6731 
G01 X-32.6387 Y5.8054 
G01 X-32.7130 Y5.9511 
G01 X-32.7635 Y6.1067 
G01 X-32.7891 Y6.2682 
G01 X-32.7891 Y16.8108 
G01 X-33.1701 Y17.1918 
G01 X-33.1701 Y18.3682 
G01 X-32.7891 Y18.7492 
G01 X-32.7891 Y31.8318 
G01 X-32.7635 Y31.9933 
G01 X-32.7130 Y32.1489 
G01 X-32.6387 Y32.2946 
G01 X-32.5426 Y32.4269 
G01 X-32.4269 Y32.5426 
G01 X-32.2946 Y32.6387 
G01 X-32.1489 Y32.7130 
G01 X-31.9933 Y32.7635 
G01 X-31.8318 Y32.7891 
G01 X-21.2892 Y32.7891 
G01 X-20.9082 Y33.1701 
G01 X-19.7318 Y33.1701 
G01 X-19.3508 Y32.7891 
G01 X-6.2682 Y32.7891 
G01 X-6.1067 Y32.7635 
G01 X-5.9511 Y32.7130 
G01 X-5.8054 Y32.6387 
G01 X-5.6731 Y32.5426 
G01 X-5.5574 Y32.4269 
G01 X-5.4613 Y32.2946 
G01 X-5.3870 Y32.1489 
G01 X-5.3365 Y31.9933 
G01 X-5.3109 Y31.8318 
G01 X-5.3109 Y21.2892 
G01 X-4.9299 Y20.9082 
G01 X-4.9299 Y19.7318 
G01 X-5.7618 Y18.8999 
G01 X-6.9382 Y18.8999 
G01 X-7.7701 Y19.7318 
G01 X-7.7701 Y20.9082 
G01 X-7.3891 Y21.2892 
G01 X-7.3891 Y30.7109 
G01 X-19.3508 Y30.7109 
G01 X-19.7318 Y30.3299 
G01 X-20.9082 Y30.3299 
G01 X-21.2892 Y30.7109 
G01 X-30.7109 Y30.7109 
G01 X-30.7109 Y18.7492 
G01 X-30.3299 Y18.3682 
G01 X-30.3299 Y17.1918 
G01 X-30.7109 Y16.8108 
G01 X-30.7109 Y7.3891 
G01 X-18.7492 Y7.3891 
G01 X-18.3682 Y7.7701 
G00 Z1.0000 
G00 X-27.7091 Y11.3482 
G01 Z-0.1700 F250.00 
G01 X-27.7091 Y19.1318 F250.00 
G01 X-27.6835 Y19.2933 
G01 X-27.6330 Y19.4489 
G01 X-27.5587 Y19.5946 
G01 X-27.4626 Y19.7269 
G01 X-27.3469 Y19.8426 
G01 X-27.2146 Y19.9387 
G01 X-27.0689 Y20.0130 
G01 X-26.9133 Y20.0635 
G01 X-26.7518 Y20.0891 
G01 X-26.5882 Y20.0891 
G01 X-26.4267 Y20.0635 
G01 X-26.2711 Y20.0130 
G01 X-26.1254 Y19.9387 
G01 X-25.9931 Y19.8426 
G01 X-25.8774 Y19.7269 
G01 X-25.7813 Y19.5946 
G01 X-25.7070 Y19.4489 
G01 X-25.6565 Y19.2933 
G01 X-25.6309 Y19.1318 
G01 X-25.6309 Y11.3482 
G01 X-25.6565 Y11.1867 
G01 X-25.7070 Y11.0311 
G01 X-25.7813 Y10.8854 
G01 X-25.8774 Y10.7531 
G01 X-25.9931 Y10.6374 
G01 X-26.1254 Y10.5413 
G01 X-26.2711 Y10.4670 
G01 X-26.4267 Y10.4165 
G01 X-26.5882 Y10.3909 
G01 X-26.7518 Y10.3909 
G01 X-26.9133 Y10.4165 
G01 X-27.0689 Y10.4670 
G01 X-27.2146 Y10.5413 
G01 X-27.3469 Y10.6374 
G01 X-27.4626 Y10.7531 
G01 X-27.5587 Y10.8854 
G01 X-27.6330 Y11.0311 
G01 X-27.6835 Y11.1867 
G01 X-27.7091 Y11.3482 
G00 Z1.0000 
G00 X-12.6182 Y20.0891 
G01 Z-0.1700 F250.00 
G01 X-12.4567 Y20.0635 F250.00 
G01 X-12.3011 Y20.0130 
G01 X-12.1554 Y19.9387 
G01 X-12.0231 Y19.8426 
G01 X-11.9074 Y19.7269 
G01 X-11.8113 Y19.5946 
G01 X-11.7370 Y19.4489 
G01 X-11.6865 Y19.2933 
G01 X-11.6609 Y19.1318 
G01 X-11.6609 Y18.9682 
G01 X-11.6865 Y18.8067 
G01 X-11.7370 Y18.6511 
G01 X-11.8113 Y18.5054 
G01 X-11.9074 Y18.3731 
G01 X-12.0231 Y18.2574 
G01 X-12.1554 Y18.1613 
G01 X-12.3011 Y18.0870 
G01 X-12.4567 Y18.0365 
G01 X-12.6182 Y18.0109 
G01 X-12.9545 Y18.0109 
G01 X-12.9309 Y17.8618 
G01 X-12.9309 Y11.3482 
G01 X-12.9565 Y11.1867 
G01 X-13.0070 Y11.0311 
G01 X-13.0813 Y10.8854 
G01 X-13.1774 Y10.7531 
G01 X-13.2931 Y10.6374 
G01 X-13.4254 Y10.5413 
G01 X-13.5711 Y10.4670 
G01 X-13.7267 Y10.4165 
G01 X-13.8882 Y10.3909 
G01 X-16.8108 Y10.3909 
G01 X-17.1918 Y10.0099 
G01 X-18.3682 Y10.0099 
G01 X-18.7492 Y10.3909 
G01 X-24.2118 Y10.3909 
G01 X-24.3733 Y10.4165 
G01 X-24.5289 Y10.4670 
G01 X-24.6746 Y10.5413 
G01 X-24.8069 Y10.6374 
G01 X-24.9226 Y10.7531 
G01 X-25.0187 Y10.8854 
G01 X-25.0930 Y11.0311 
G01 X-25.1435 Y11.1867 
G01 X-25.1691 Y11.3482 
G01 X-25.1691 Y19.1318 
G01 X-25.1435 Y19.2933 
G01 X-25.0930 Y19.4489 
G01 X-25.0187 Y19.5946 
G01 X-24.9226 Y19.7269 
G01 X-24.8069 Y19.8426 
G01 X-24.6746 Y19.9387 
G01 X-24.5289 Y20.0130 
G01 X-24.3733 Y20.0635 
G01 X-24.2118 Y20.0891 
G01 X-22.6291 Y20.0891 
G01 X-22.6291 Y24.2118 
G01 X-22.6035 Y24.3733 
G01 X-22.5530 Y24.5289 
G01 X-22.4787 Y24.6746 
G01 X-22.3826 Y24.8069 
G01 X-22.2669 Y24.9226 
G01 X-22.1346 Y25.0187 
G01 X-21.9889 Y25.0930 
G01 X-21.8333 Y25.1435 
G01 X-21.6718 Y25.1691 
G01 X-17.6982 Y25.1691 
G01 X-17.5367 Y25.1435 
G01 X-17.3811 Y25.0930 
G01 X-17.2354 Y25.0187 
G01 X-17.1031 Y24.9226 
G01 X-16.9874 Y24.8069 
G01 X-16.8913 Y24.6746 
G01 X-16.8170 Y24.5289 
G01 X-16.7665 Y24.3733 
G01 X-16.7409 Y24.2118 
G01 X-16.7409 Y20.0891 
G01 X-12.6182 Y20.0891 
G00 Z1.0000 
G82 X-7.6200 Y11.4300 Z-0.2000 F250.00 R1.0000 P0.000000
G82 X-26.6700 Y26.6700 
G82 X-17.7800 Y11.4300 
G82 X-15.2400 Y36.8300 
G82 X-17.7800 Y34.2900 
G82 X-20.3200 Y31.7500 
G82 X-22.8600 Y29.2100 
G82 X-36.8300 Y22.8600 
G82 X-34.2900 Y20.3200 
G82 X-31.7500 Y17.7800 
G82 X-29.2100 Y15.2400 
G82 X-1.2700 Y15.2400 
G82 X-3.8100 Y17.7800 
G82 X-6.3500 Y20.3200 
G82 X-8.8900 Y22.8600 
G82 X-22.8600 Y1.2700 
G82 X-20.3200 Y3.8100 
G82 X-17.7800 Y6.3500 
G82 X-15.2400 Y8.8900 
G82 X-17.7800 Y26.6700 
G82 X-15.8750 Y25.4000 
G82 X-17.7800 Y24.1300 
G82 X-26.6700 Y19.0500 
G82 X-25.4000 Y20.9550 
G82 X-24.1300 Y19.0500 
G82 X-10.1600 Y19.0500 
G82 X-11.4300 Y17.1450 
G82 X-12.7000 Y19.0500 
G82 X-11.4300 Y26.6700 
G82 X-13.9700 Y22.8600 
G82 X-11.4300 Y22.8600 
G82 X-24.1300 Y24.1300 
G82 X-24.1300 Y26.6700 
G82 X-11.4300 Y13.9700 
G82 X-11.4300 Y11.4300 
G82 X-20.3200 Y29.2100 
G82 X-20.3200 Y26.6700 
G82 X-26.6700 Y3.8100 
G82 X-26.6700 Y11.4300 
G82 X-6.3500 Y15.2400 
G82 X-8.8900 Y15.2400 
G82 X-11.4300 Y8.8900 
M05
M02
