(.../pcb-gcode-3.6.0.4/pcb-gcode.ulp)
(Copyright 2005 - 2012 by John Johnson)
(See readme.txt for licensing terms.)
(This file generated from the board:)
(.../Neues_Projekt/shifter-4rgb.brd)
(Current profile is .../pcb-gcode-3.6.0.4/profiles/emc.pp  )
(This file generated 04.08.14 00:49)
(Settings from pcb-machine.h)
(  Tool Size)
(0.3000 )
(Z Axis Settings)
(  High     Up        Down     Drill)
(1.0000 	1.0000 	-0.1700 	-0.2000 )
(spindle on time = 0.0000)
(milling depth = -0.1700)
(text depth = -0.1270)
(tool change at 12.7000 15.2400 25.4000 )
(feed rate xy = F250.00 )
(feed rate z  = F250.00 )
(Settings from pcb-defaults.h)
(isolate min = 0.0001)
(isolate max = 0.5080)
(isolate step = 0.1270)
(Generated bottom outlines, bottom drill, )
(Unit of measure: mm)
( Tool|       Size       |  Min Sub |  Max Sub |   Count )
( T01 | 0.813mm 0.0320in | 0.0000in | 0.0000in |       0 )
(Metric Mode)
G21
(Absolute Coordinates)
G90
M05
G00 Z25.4000 
G00 X12.7000 Y15.2400 
M06 T01 (0.8128 )
G01 Z0.0000 F250.00 
M06 T01 (0.8128 )
G00 Z1.0000 
M03
G04 P0.000000
G82 X-31.7500 Y17.7800 Z-0.2000 F250.00 R1.0000 P0.000000
G82 X-34.2900 Y20.3200 
G82 X-36.8300 Y22.8600 
G82 X-3.8100 Y17.7800 
G82 X-6.3500 Y15.2400 
G82 X-6.3500 Y20.3200 
G82 X-7.6200 Y11.4300 
G82 X-8.8900 Y15.2400 
G82 X-8.8900 Y22.8600 
G82 X-10.1600 Y19.0500 
G82 X-11.4300 Y8.8900 
G82 X-11.4300 Y11.4300 
G82 X-11.4300 Y13.9700 
G82 X-11.4300 Y17.1450 
G82 X-11.4300 Y22.8600 
G82 X-11.4300 Y26.6700 
G82 X-1.2700 Y15.2400 
G82 X-12.7000 Y19.0500 
G82 X-13.9700 Y22.8600 
G82 X-15.2400 Y36.8300 
G82 X-15.2400 Y8.8900 
G82 X-15.8750 Y25.4000 
G82 X-17.7800 Y34.2900 
G82 X-17.7800 Y6.3500 
G82 X-17.7800 Y11.4300 
G82 X-17.7800 Y24.1300 
G82 X-17.7800 Y26.6700 
G82 X-20.3200 Y31.7500 
G82 X-20.3200 Y3.8100 
G82 X-20.3200 Y26.6700 
G82 X-20.3200 Y29.2100 
G82 X-22.8600 Y1.2700 
G82 X-22.8600 Y29.2100 
G82 X-24.1300 Y19.0500 
G82 X-24.1300 Y24.1300 
G82 X-24.1300 Y26.6700 
G82 X-25.4000 Y20.9550 
G82 X-26.6700 Y3.8100 
G82 X-26.6700 Y11.4300 
G82 X-26.6700 Y19.0500 
G82 X-26.6700 Y26.6700 
G82 X-29.2100 Y15.2400 
T01 
M05
M02
