(.../pcb-gcode-3.6.0.4/pcb-gcode.ulp)
(Copyright 2005 - 2012 by John Johnson)
(See readme.txt for licensing terms.)
(This file generated from the board:)
(.../multiwii-conn/multiwii-conn.brd)
(Current profile is .../pcb-gcode-3.6.0.4/profiles/emc.pp  )
(This file generated 25.09.14 00:09)
(Settings from pcb-machine.h)
(  Tool Size)
(0.3000 )
(Z Axis Settings)
(  High     Up        Down     Drill)
(1.0000 	1.0000 	0.0000 	-0.1500 )
(spindle on time = 0.0000)
(milling depth = 0.0000)
(text depth = -0.1270)
(tool change at 12.7000 15.2400 25.4000 )
(feed rate xy = F300.00 )
(feed rate z  = F300.00 )
(Settings from pcb-defaults.h)
(isolate min = 0.3000)
(isolate max = 0.5080)
(isolate step = 0.1270)
(Generated bottom outlines, bottom drill, )
(Unit of measure: mm)
(Metric Mode)
G21
(Absolute Coordinates)
G90
G00 X0.0000 Y0.0000 
M03
G04 P0.000000
G00 Z1.0000 
G00 X-25.3420 Y10.9280 
G01 Z0.0000 F300.00 
G01 X-25.3420 Y11.9320 F300.00 
G01 X-24.6320 Y12.6420 
X-23.6280 
X-23.5010 Y12.5150 
X-5.7090 
X-5.5820 Y12.6420 
X-4.5780 
X-3.8680 Y11.9320 
Y10.9280 
X-4.5780 Y10.2180 
X-5.5820 
X-5.7090 Y10.3450 
X-23.5010 
X-23.6280 Y10.2180 
X-24.6320 
X-25.3420 Y10.9280 
G00 Z1.0000 
G00 X-25.3420 Y5.8480 
G01 Z0.0000 F300.00 
G01 X-25.3420 Y6.8520 F300.00 
G01 X-24.6320 Y7.5620 
X-23.6280 
X-23.5010 Y7.4350 
X-5.7090 
X-5.5820 Y7.5620 
X-4.5780 
X-3.8680 Y6.8520 
Y5.8480 
X-4.5780 Y5.1380 
X-5.5820 
X-5.7090 Y5.2650 
X-23.5010 
X-23.6280 Y5.1380 
X-24.6320 
X-25.3420 Y5.8480 
G00 Z1.0000 
G00 X-5.5820 Y17.7220 
G01 Z0.0000 F300.00 
G01 X-4.5780 Y17.7220 F300.00 
G01 X-3.8680 Y17.0120 
Y16.0080 
X-4.5780 Y15.2980 
X-5.5820 
X-5.7090 Y15.4250 
X-23.5010 
X-23.6280 Y15.2980 
X-24.6320 
X-25.3420 Y16.0080 
Y17.0120 
X-24.6320 Y17.7220 
X-23.6280 
X-23.5010 Y17.5950 
X-5.7090 
X-5.5820 Y17.7220 
G00 Z1.0000 
G00 X-5.5820 Y10.1020 
G01 Z0.0000 F300.00 
G01 X-4.5780 Y10.1020 F300.00 
G01 X-3.8680 Y9.3920 
Y8.3880 
X-4.5780 Y7.6780 
X-5.5820 
X-5.7090 Y7.8050 
X-23.5010 
X-23.6280 Y7.6780 
X-24.6320 
X-25.3420 Y8.3880 
Y9.3920 
X-24.6320 Y10.1020 
X-23.6280 
X-23.5010 Y9.9750 
X-5.7090 
X-5.5820 Y10.1020 
G00 Z1.0000 
G00 X-5.5820 Y15.1820 
G01 Z0.0000 F300.00 
G01 X-4.5780 Y15.1820 F300.00 
G01 X-3.8680 Y14.4720 
Y13.4680 
X-4.5780 Y12.7580 
X-5.5820 
X-5.7090 Y12.8850 
X-23.5010 
X-23.6280 Y12.7580 
X-24.6320 
X-25.3420 Y13.4680 
Y14.4720 
X-24.6320 Y15.1820 
X-23.6280 
X-23.5010 Y15.0550 
X-5.7090 
X-5.5820 Y15.1820 
G00 Z1.0000 
G00 X-5.5820 Y20.2620 
G01 Z0.0000 F300.00 
G01 X-4.5780 Y20.2620 F300.00 
G01 X-3.8680 Y19.5520 
Y18.5480 
X-4.5780 Y17.8380 
X-5.5820 
X-5.7090 Y17.9650 
X-23.5010 
X-23.6280 Y17.8380 
X-24.6320 
X-25.3420 Y18.5480 
Y19.5520 
X-24.6320 Y20.2620 
X-23.6280 
X-23.5010 Y20.1350 
X-5.7090 
X-5.5820 Y20.2620 
G00 Z1.0000 
G00 X-13.9120 Y21.0880 
G01 Z0.0000 F300.00 
G01 X-13.9120 Y22.0920 F300.00 
G01 X-13.2020 Y22.8020 
X-12.1980 
X-12.0710 Y22.6750 
X-5.7090 
X-5.5820 Y22.8020 
X-4.5780 
X-3.8680 Y22.0920 
Y21.0880 
X-4.5780 Y20.3780 
X-5.5820 
X-5.7090 Y20.5050 
X-12.0710 
X-12.1980 Y20.3780 
X-13.2020 
X-13.9120 Y21.0880 
G00 Z1.0000 
G00 X-9.3920 Y5.0220 
G01 Z0.0000 F300.00 
G01 X-8.3880 Y5.0220 F300.00 
G01 X-7.6780 Y4.3120 
Y3.3080 
X-8.3880 Y2.5980 
X-9.3920 
X-9.5190 Y2.7250 
X-26.7554 
X-26.9241 Y2.7517 
X-27.0865 Y2.8045 
X-27.2387 Y2.8820 
X-27.3768 Y2.9824 
X-27.4976 Y3.1032 
X-27.5980 Y3.2413 
X-27.6755 Y3.3935 
X-27.7283 Y3.5559 
X-27.7550 Y3.7246 
Y5.7210 
X-27.8820 Y5.8480 
Y6.8520 
X-27.7550 Y6.9790 
Y8.2610 
X-27.8820 Y8.3880 
Y9.3920 
X-27.7550 Y9.5190 
Y10.8010 
X-27.8820 Y10.9280 
Y11.9320 
X-27.7550 Y12.0590 
Y13.3410 
X-27.8820 Y13.4680 
Y14.4720 
X-27.7550 Y14.5990 
Y15.8810 
X-27.8820 Y16.0080 
Y17.0120 
X-27.7550 Y17.1390 
Y18.4210 
X-27.8820 Y18.5480 
Y19.5520 
X-27.1720 Y20.2620 
X-26.1680 
X-25.4580 Y19.5520 
Y18.5480 
X-25.5850 Y18.4210 
Y17.1390 
X-25.4580 Y17.0120 
Y16.0080 
X-25.5850 Y15.8810 
Y14.5990 
X-25.4580 Y14.4720 
Y13.4680 
X-25.5850 Y13.3410 
Y12.0590 
X-25.4580 Y11.9320 
Y10.9280 
X-25.5850 Y10.8010 
Y9.5190 
X-25.4580 Y9.3920 
Y8.3880 
X-25.5850 Y8.2610 
Y6.9790 
X-25.4580 Y6.8520 
Y5.8480 
X-25.5850 Y5.7210 
Y4.8950 
X-9.5190 
X-9.3920 Y5.0220 
G00 Z1.0000 
G00 X-30.4220 Y5.8480 
G01 Z0.0000 F300.00 
G01 X-30.4220 Y6.8520 F300.00 
G01 X-30.2950 Y6.9790 
Y8.2610 
X-30.4220 Y8.3880 
Y9.3920 
X-30.2950 Y9.5190 
Y10.8010 
X-30.4220 Y10.9280 
Y11.9320 
X-30.2950 Y12.0590 
Y13.3410 
X-30.4220 Y13.4680 
Y14.4720 
X-30.2950 Y14.5990 
Y15.8810 
X-30.4220 Y16.0080 
Y17.0120 
X-30.2950 Y17.1390 
Y18.4210 
X-30.4220 Y18.5480 
Y19.5520 
X-30.2950 Y19.6790 
Y21.6754 
X-30.2683 Y21.8441 
X-30.2155 Y22.0065 
X-30.1380 Y22.1587 
X-30.0376 Y22.2968 
X-29.9168 Y22.4176 
X-29.7787 Y22.5180 
X-29.6265 Y22.5955 
X-29.4641 Y22.6483 
X-29.2954 Y22.6750 
X-15.8690 
X-15.7420 Y22.8020 
X-14.7380 
X-14.0280 Y22.0920 
Y21.0880 
X-14.7380 Y20.3780 
X-15.7420 
X-15.8690 Y20.5050 
X-28.1250 
Y19.6790 
X-27.9980 Y19.5520 
Y18.5480 
X-28.1250 Y18.4210 
Y17.1390 
X-27.9980 Y17.0120 
Y16.0080 
X-28.1250 Y15.8810 
Y14.5990 
X-27.9980 Y14.4720 
Y13.4680 
X-28.1250 Y13.3410 
Y12.0590 
X-27.9980 Y11.9320 
Y10.9280 
X-28.1250 Y10.8010 
Y9.5190 
X-27.9980 Y9.3920 
Y8.3880 
X-28.1250 Y8.2610 
Y6.9790 
X-27.9980 Y6.8520 
Y5.8480 
X-28.7080 Y5.1380 
X-29.7120 
X-30.4220 Y5.8480 
G00 Z1.0000 
G82 X-8.8900 Y3.8100 Z-0.1500 F300.00 R1.0000 P0.000000
G82 X-15.2400 Y21.5900 
G82 X-5.0800 Y21.5900 
G82 X-12.7000 Y21.5900 
G82 X-24.1300 Y11.4300 
G82 X-5.0800 Y19.0500 
G82 X-24.1300 Y16.5100 
G82 X-5.0800 Y13.9700 
G82 X-5.0800 Y8.8900 
G82 X-24.1300 Y8.8900 
G82 X-5.0800 Y11.4300 
G82 X-24.1300 Y19.0500 
G82 X-5.0800 Y16.5100 
G82 X-24.1300 Y13.9700 
G82 X-5.0800 Y6.3500 
G82 X-24.1300 Y6.3500 
G82 X-29.2100 Y6.3500 
G82 X-26.6700 Y6.3500 
G82 X-29.2100 Y8.8900 
G82 X-26.6700 Y8.8900 
G82 X-29.2100 Y11.4300 
G82 X-26.6700 Y11.4300 
G82 X-29.2100 Y13.9700 
G82 X-26.6700 Y13.9700 
G82 X-29.2100 Y16.5100 
G82 X-26.6700 Y16.5100 
G82 X-29.2100 Y19.0500 
G82 X-26.6700 Y19.0500 
M05
M02
