(.../pcb-gcode-3.6.0.4/pcb-gcode.ulp)
(Copyright 2005 - 2012 by John Johnson)
(See readme.txt for licensing terms.)
(This file generated from the board:)
(.../multiwii-conn/multiwii-conn.brd)
(Current profile is .../pcb-gcode-3.6.0.4/profiles/emc.pp  )
(This file generated 25.09.14 00:10)
(Settings from pcb-machine.h)
(  Tool Size)
(0.3000 )
(Z Axis Settings)
(  High     Up        Down     Drill)
(1.0000 	1.0000 	0.0000 	-0.1500 )
(spindle on time = 0.0000)
(milling depth = 0.0000)
(text depth = -0.1270)
(tool change at 12.7000 15.2400 25.4000 )
(feed rate xy = F300.00 )
(feed rate z  = F300.00 )
(Settings from pcb-defaults.h)
(isolate min = 0.3000)
(isolate max = 0.5080)
(isolate step = 0.1270)
(Generated bottom outlines, bottom drill, )
(Unit of measure: mm)
( Tool|       Size       |  Min Sub |  Max Sub |   Count )
( T01 | 1.016mm 0.0400in | 0.0000in | 0.0000in |       0 )
(Metric Mode)
G21
(Absolute Coordinates)
G90
M05
G00 Z25.4000 
G00 X12.7000 Y15.2400 
M06 T01 (1.0160 )
G01 Z0.0000 F300.00 
M06 T01 (1.0160 )
G00 Z1.0000 
M03
G04 P0.000000
G82 X-5.0800 Y6.3500 Z-0.1500 F300.00 R1.0000 P0.000000
G82 X-5.0800 Y8.8900 
G82 X-5.0800 Y11.4300 
G82 X-5.0800 Y13.9700 
G82 X-5.0800 Y16.5100 
G82 X-5.0800 Y19.0500 
G82 X-5.0800 Y21.5900 
G82 X-8.8900 Y3.8100 
G82 X-12.7000 Y21.5900 
G82 X-15.2400 Y21.5900 
G82 X-24.1300 Y6.3500 
G82 X-24.1300 Y8.8900 
G82 X-24.1300 Y11.4300 
G82 X-24.1300 Y13.9700 
G82 X-24.1300 Y16.5100 
G82 X-24.1300 Y19.0500 
G82 X-26.6700 Y6.3500 
G82 X-26.6700 Y8.8900 
G82 X-26.6700 Y11.4300 
G82 X-26.6700 Y13.9700 
G82 X-26.6700 Y16.5100 
G82 X-26.6700 Y19.0500 
G82 X-29.2100 Y6.3500 
G82 X-29.2100 Y8.8900 
G82 X-29.2100 Y11.4300 
G82 X-29.2100 Y13.9700 
G82 X-29.2100 Y16.5100 
G82 X-29.2100 Y19.0500 
T01 
M05
M02
