(.../pcb-gcode-3.6.0.4/pcb-gcode.ulp)
(Copyright 2005 - 2012 by John Johnson)
(See readme.txt for licensing terms.)
(This file generated from the board:)
(.../pwm-555/level-shift rpi-atmel.brd)
(Current profile is .../pcb-gcode-3.6.0.4/profiles/emc.pp  )
(This file generated 07.09.14 15:49)
(Settings from pcb-machine.h)
(  Tool Size)
(0.1000 )
(Z Axis Settings)
(  High     Up        Down     Drill)
(1.0000 	1.0000 	0.0000 	-0.2000 )
(spindle on time = 0.0000)
(milling depth = 0.0000)
(text depth = -0.1270)
(tool change at 12.7000 15.2400 25.4000 )
(feed rate xy = F300.00 )
(feed rate z  = F300.00 )
(Settings from pcb-defaults.h)
(isolate min = 0.0001)
(isolate max = 0.5080)
(isolate step = 0.1270)
(Generated bottom outlines, bottom drill, )
(Unit of measure: mm)
( Tool|       Size       |  Min Sub |  Max Sub |   Count )
( T01 | 0.813mm 0.0320in | 0.0000in | 0.0000in |       0 )
( T02 | 1.016mm 0.0400in | 0.0000in | 0.0000in |       0 )
(Metric Mode)
G21
(Absolute Coordinates)
G90
M05
G00 Z25.4000 
G00 X12.7000 Y15.2400 
M06 T01 (0.8128 )
G01 Z0.0000 F300.00 
M06 T01 (0.8128 )
G00 Z1.0000 
M03
G04 P0.000000
G82 X-31.7500 Y7.6200 Z-0.2000 F300.00 R1.0000 P0.000000
G82 X-31.7500 Y2.5400 
G82 X-33.6550 Y7.6200 
G82 X-35.5600 Y6.3500 
G82 X-35.5600 Y8.8900 
G82 X-11.4300 Y6.3500 
G82 X-11.4300 Y1.2700 
G82 X-13.9700 Y6.3500 
G82 X-13.9700 Y1.2700 
G82 X-16.5100 Y6.3500 
G82 X-16.5100 Y1.2700 
G82 X-19.0500 Y7.6200 
G82 X-19.0500 Y2.5400 
G82 X-20.9550 Y6.3500 
G82 X-22.8600 Y5.0800 
G82 X-22.8600 Y7.6200 
G82 X-26.6700 Y3.8100 
G82 X-26.6700 Y11.4300 
G82 X-29.2100 Y3.8100 
G82 X-29.2100 Y11.4300 
M05
G00 Z25.4000 
M06 T02 (1.0160 )
G01 Z0.0000 F300.00 
M06 T02 (1.0160 )
G00 Z1.0000 
M03
G04 P0.000000
G82 X-3.8100 Y3.8100 Z-0.2000 F300.00 R1.0000 P0.000000
G82 X-3.8100 Y6.3500 
G82 X-3.8100 Y8.8900 
G82 X-3.8100 Y1.2700 
G82 X-39.3700 Y3.8100 
G82 X-39.3700 Y6.3500 
G82 X-39.3700 Y11.4300 
G82 X-39.3700 Y1.2700 
G82 X-41.9100 Y3.8100 
G82 X-41.9100 Y6.3500 
G82 X-41.9100 Y8.8900 
G82 X-41.9100 Y11.4300 
G82 X-41.9100 Y1.2700 
G82 X-7.6200 Y3.8100 
G82 X-7.6200 Y6.3500 
G82 X-7.6200 Y8.8900 
G82 X-7.6200 Y1.2700 
G82 X-13.9700 Y8.8900 
T01 
M05
M02
