(.../pcb-gcode-3.6.0.4/pcb-gcode.ulp)
(Copyright 2005 - 2012 by John Johnson)
(See readme.txt for licensing terms.)
(This file generated from the board:)
(.../pwm-555/level-shift rpi-atmel.brd)
(Current profile is .../pcb-gcode-3.6.0.4/profiles/emc.pp  )
(This file generated 07.09.14 15:49)
(Settings from pcb-machine.h)
(  Tool Size)
(0.1000 )
(Z Axis Settings)
(  High     Up        Down     Drill)
(1.0000 	1.0000 	0.0000 	-0.2000 )
(spindle on time = 0.0000)
(milling depth = 0.0000)
(text depth = -0.1270)
(tool change at 12.7000 15.2400 25.4000 )
(feed rate xy = F300.00 )
(feed rate z  = F300.00 )
(Settings from pcb-defaults.h)
(isolate min = 0.0001)
(isolate max = 0.5080)
(isolate step = 0.1270)
(Generated bottom outlines, bottom drill, )
(Unit of measure: mm)
(Metric Mode)
G21
(Absolute Coordinates)
G90
G00 X0.0000 Y0.0000 
M03
G04 P0.000000
G00 Z1.0000 
G00 X-41.0680 Y8.0779 
G01 Z0.0000 F300.00 
G01 X-42.7520 Y8.0779 F300.00 
G01 X-42.9089 Y8.1091 
X-43.0567 Y8.1703 
X-43.1897 Y8.2592 
X-43.3028 Y8.3723 
X-43.3917 Y8.5053 
X-43.4529 Y8.6531 
X-43.4841 Y8.8100 
Y8.9700 
X-43.4529 Y9.1269 
X-43.3917 Y9.2747 
X-43.3028 Y9.4077 
X-43.1897 Y9.5208 
X-43.0567 Y9.6097 
X-42.9089 Y9.6709 
X-42.7520 Y9.7021 
X-41.0680 
X-40.9111 Y9.6709 
X-40.7633 Y9.6097 
X-40.6303 Y9.5208 
X-40.5172 Y9.4077 
X-40.4283 Y9.2747 
X-40.3671 Y9.1269 
X-40.3359 Y8.9700 
Y8.8100 
X-40.3671 Y8.6531 
X-40.4283 Y8.5053 
X-40.5172 Y8.3723 
X-40.6303 Y8.2592 
X-40.7633 Y8.1703 
X-40.9111 Y8.1091 
X-41.0680 Y8.0779 
G00 Z1.0000 
G00 X-41.0680 Y5.5379 
G01 Z0.0000 F300.00 
G01 X-42.7520 Y5.5379 F300.00 
G01 X-42.9089 Y5.5691 
X-43.0567 Y5.6303 
X-43.1897 Y5.7192 
X-43.3028 Y5.8323 
X-43.3917 Y5.9653 
X-43.4529 Y6.1131 
X-43.4841 Y6.2700 
Y6.4300 
X-43.4529 Y6.5869 
X-43.3917 Y6.7347 
X-43.3028 Y6.8677 
X-43.1897 Y6.9808 
X-43.0567 Y7.0697 
X-42.9089 Y7.1309 
X-42.7520 Y7.1621 
X-41.0680 
X-40.9111 Y7.1309 
X-40.7633 Y7.0697 
X-40.6303 Y6.9808 
X-40.5576 Y6.9081 
X-40.4094 
X-39.9281 Y7.3894 
Y8.1335 
X-39.9686 Y8.1606 
X-40.0994 Y8.2914 
X-40.2022 Y8.4452 
X-40.2730 Y8.6161 
X-40.3091 Y8.7975 
Y8.9825 
X-40.2730 Y9.1639 
X-40.2022 Y9.3348 
X-40.0994 Y9.4886 
X-39.9686 Y9.6194 
X-39.8148 Y9.7222 
X-39.6439 Y9.7930 
X-39.4625 Y9.8291 
X-38.1501 
Y10.1807 
X-38.1208 Y10.2101 
X-6.3292 
X-6.2999 Y10.1807 
Y9.8291 
X-4.4684 
X-4.2779 Y10.0196 
X-3.3421 
X-2.6804 Y9.3579 
Y8.4221 
X-3.3421 Y7.7604 
X-4.2779 
X-4.4684 Y7.9509 
X-13.3116 
X-13.4119 Y7.8506 
Y6.7967 
X-13.2595 Y6.6443 
Y6.0557 
X-13.6757 Y5.6395 
X-14.2643 
X-14.4167 Y5.7919 
X-16.0633 
X-16.2157 Y5.6395 
X-16.8043 
X-17.2205 Y6.0557 
Y6.6443 
X-16.8043 Y7.0605 
X-16.2157 
X-16.0633 Y6.9081 
X-14.5281 
Y7.8506 
X-15.0094 Y8.3319 
X-22.3019 
Y8.0667 
X-22.1495 Y7.9143 
Y7.3257 
X-22.5657 Y6.9095 
X-23.1543 
X-23.5705 Y7.3257 
Y7.9143 
X-23.4181 Y8.0667 
Y8.3319 
X-34.8035 
X-34.8306 Y8.2914 
X-34.9614 Y8.1606 
X-35.1152 Y8.0578 
X-35.2861 Y7.9870 
X-35.4675 Y7.9509 
X-38.8119 
Y7.3894 
X-38.2404 Y6.8179 
Y5.8821 
X-38.9021 Y5.2204 
X-39.8379 
X-40.4094 Y5.7919 
X-40.5576 
X-40.6303 Y5.7192 
X-40.7633 Y5.6303 
X-40.9111 Y5.5691 
X-41.0680 Y5.5379 
G00 Z1.0000 
G00 X-39.8379 Y2.3996 
G01 Z0.0000 F300.00 
G01 X-38.9021 Y2.3996 F300.00 
G01 X-38.3306 Y1.8281 
X-16.9567 
X-16.8043 Y1.9805 
X-16.2157 
X-15.9617 Y1.7265 
X-14.5183 
X-14.2643 Y1.9805 
X-13.6757 
X-13.4217 Y1.7265 
X-11.9783 
X-11.7243 Y1.9805 
X-11.1357 
X-10.7195 Y1.5643 
Y0.9757 
X-11.1357 Y0.5595 
X-11.7243 
X-11.9783 Y0.8135 
X-13.4217 
X-13.6757 Y0.5595 
X-14.2643 
X-14.5183 Y0.8135 
X-15.9617 
X-16.2157 Y0.5595 
X-16.8043 
X-16.9567 Y0.7119 
X-38.3306 
X-38.9021 Y0.1404 
X-39.8379 
X-40.4094 Y0.7119 
X-40.5576 
X-40.6303 Y0.6392 
X-40.7633 Y0.5503 
X-40.9111 Y0.4891 
X-41.0680 Y0.4579 
X-42.7520 
X-42.9089 Y0.4891 
X-43.0567 Y0.5503 
X-43.1897 Y0.6392 
X-43.3028 Y0.7523 
X-43.3917 Y0.8853 
X-43.4529 Y1.0331 
X-43.4841 Y1.1900 
Y1.3500 
X-43.4529 Y1.5069 
X-43.3917 Y1.6547 
X-43.3028 Y1.7877 
X-43.1897 Y1.9008 
X-43.0567 Y1.9897 
X-42.9089 Y2.0509 
X-42.7520 Y2.0821 
X-41.0680 
X-40.9111 Y2.0509 
X-40.7633 Y1.9897 
X-40.6303 Y1.9008 
X-40.5576 Y1.8281 
X-40.4094 
X-39.8379 Y2.3996 
G00 Z1.0000 
G00 X-39.8379 Y4.9396 
G01 Z0.0000 F300.00 
G01 X-38.9021 Y4.9396 F300.00 
G01 X-38.3306 Y4.3681 
X-31.6765 
X-31.5346 Y4.3301 
X-31.4073 Y4.2566 
X-31.3034 Y4.1527 
X-31.2299 Y4.0254 
X-31.1919 Y3.8835 
Y3.7365 
X-31.2299 Y3.5946 
X-31.2935 Y3.4845 
Y3.0883 
X-31.0395 Y2.8343 
Y2.2457 
X-31.4557 Y1.8295 
X-32.0443 
X-32.4605 Y2.2457 
Y2.8343 
X-32.2065 Y3.0883 
Y3.2519 
X-38.3306 
X-38.9021 Y2.6804 
X-39.8379 
X-40.4094 Y3.2519 
X-40.5576 
X-40.6303 Y3.1792 
X-40.7633 Y3.0903 
X-40.9111 Y3.0291 
X-41.0680 Y2.9979 
X-42.7520 
X-42.9089 Y3.0291 
X-43.0567 Y3.0903 
X-43.1897 Y3.1792 
X-43.3028 Y3.2923 
X-43.3917 Y3.4253 
X-43.4529 Y3.5731 
X-43.4841 Y3.7300 
Y3.8900 
X-43.4529 Y4.0469 
X-43.3917 Y4.1947 
X-43.3028 Y4.3277 
X-43.1897 Y4.4408 
X-43.0567 Y4.5297 
X-42.9089 Y4.5909 
X-42.7520 Y4.6221 
X-41.0680 
X-40.9111 Y4.5909 
X-40.7633 Y4.5297 
X-40.6303 Y4.4408 
X-40.5576 Y4.3681 
X-40.4094 
X-39.8379 Y4.9396 
G00 Z1.0000 
G00 X-36.2705 Y6.0557 
G01 Z0.0000 F300.00 
G01 X-36.2705 Y6.6443 F300.00 
G01 X-35.8543 Y7.0605 
X-35.2657 
X-34.8495 Y6.6443 
Y6.0557 
X-35.0019 Y5.9033 
Y5.6381 
X-29.1365 
X-28.9946 Y5.6001 
X-28.8673 Y5.5266 
X-28.7634 Y5.4227 
X-28.6899 Y5.2954 
X-28.6519 Y5.1535 
Y4.2567 
X-28.4995 Y4.1043 
Y3.5157 
X-28.6519 Y3.3633 
Y3.0981 
X-19.4967 
X-19.3443 Y3.2505 
X-18.7557 
X-18.3395 Y2.8343 
Y2.2457 
X-18.7557 Y1.8295 
X-19.3443 
X-19.4967 Y1.9819 
X-29.2835 
X-29.4254 Y2.0199 
X-29.5527 Y2.0934 
X-29.6566 Y2.1973 
X-29.7301 Y2.3246 
X-29.7681 Y2.4665 
Y3.3633 
X-29.9205 Y3.5157 
Y4.1043 
X-29.7681 Y4.2567 
Y4.5219 
X-35.6335 
X-35.7754 Y4.5599 
X-35.9027 Y4.6334 
X-36.0066 Y4.7373 
X-36.0801 Y4.8646 
X-36.1181 Y5.0065 
Y5.9033 
X-36.2705 Y6.0557 
G00 Z1.0000 
G00 X-21.6655 Y6.0557 
G01 Z0.0000 F300.00 
G01 X-21.6655 Y6.6443 F300.00 
G01 X-21.5131 Y6.7967 
Y7.6935 
X-21.4751 Y7.8354 
X-21.4016 Y7.9627 
X-21.2977 Y8.0666 
X-21.1704 Y8.1401 
X-21.0285 Y8.1781 
X-19.4967 
X-19.3443 Y8.3305 
X-18.7557 
X-18.3395 Y7.9143 
Y7.3257 
X-18.7557 Y6.9095 
X-19.3443 
X-19.4967 Y7.0619 
X-20.3969 
Y6.7967 
X-20.2445 Y6.6443 
Y6.0557 
X-20.6607 Y5.6395 
X-21.2493 
X-21.6655 Y6.0557 
G00 Z1.0000 
G00 X-27.3805 Y3.5157 
G01 Z0.0000 F300.00 
G01 X-27.3805 Y4.1043 F300.00 
G01 X-26.9643 Y4.5205 
X-26.3757 
X-26.2233 Y4.3681 
X-23.4181 
Y4.6333 
X-23.5705 Y4.7857 
Y5.3743 
X-23.1543 Y5.7905 
X-22.5657 
X-22.1495 Y5.3743 
Y4.7857 
X-22.3019 Y4.6333 
Y4.3681 
X-8.9724 
X-8.8997 Y4.4408 
X-8.7667 Y4.5297 
X-8.6189 Y4.5909 
X-8.4620 Y4.6221 
X-6.7780 
X-6.6211 Y4.5909 
X-6.4733 Y4.5297 
X-6.3403 Y4.4408 
X-6.2676 Y4.3681 
X-4.8494 
X-4.2779 Y4.9396 
X-3.3421 
X-2.6804 Y4.2779 
Y3.3421 
X-3.3421 Y2.6804 
X-4.2779 
X-4.8494 Y3.2519 
X-6.2676 
X-6.3403 Y3.1792 
X-6.4733 Y3.0903 
X-6.6211 Y3.0291 
X-6.7780 Y2.9979 
X-8.4620 
X-8.6189 Y3.0291 
X-8.7667 Y3.0903 
X-8.8997 Y3.1792 
X-8.9724 Y3.2519 
X-26.2233 
X-26.3757 Y3.0995 
X-26.9643 
X-27.3805 Y3.5157 
G00 Z1.0000 
G00 X-12.1405 Y6.0557 
G01 Z0.0000 F300.00 
G01 X-12.1405 Y6.6443 F300.00 
G01 X-11.7243 Y7.0605 
X-11.1357 
X-10.9833 Y6.9081 
X-8.9724 
X-8.8997 Y6.9808 
X-8.7667 Y7.0697 
X-8.6189 Y7.1309 
X-8.4620 Y7.1621 
X-6.7780 
X-6.6211 Y7.1309 
X-6.4733 Y7.0697 
X-6.3403 Y6.9808 
X-6.2676 Y6.9081 
X-4.8494 
X-4.2779 Y7.4796 
X-3.3421 
X-2.6804 Y6.8179 
Y5.8821 
X-3.3421 Y5.2204 
X-4.2779 
X-4.8494 Y5.7919 
X-6.2676 
X-6.3403 Y5.7192 
X-6.4733 Y5.6303 
X-6.6211 Y5.5691 
X-6.7780 Y5.5379 
X-8.4620 
X-8.6189 Y5.5691 
X-8.7667 Y5.6303 
X-8.8997 Y5.7192 
X-8.9724 Y5.7919 
X-10.9833 
X-11.1357 Y5.6395 
X-11.7243 
X-12.1405 Y6.0557 
G00 Z1.0000 
G00 X-32.0443 Y8.3305 
G01 Z0.0000 F300.00 
G01 X-31.4557 Y8.3305 F300.00 
G01 X-31.0395 Y7.9143 
Y7.3257 
X-31.4557 Y6.9095 
X-32.0443 
X-32.1967 Y7.0619 
X-33.2083 
X-33.3607 Y6.9095 
X-33.9493 
X-34.3655 Y7.3257 
Y7.9143 
X-33.9493 Y8.3305 
X-33.3607 
X-33.2083 Y8.1781 
X-32.1967 
X-32.0443 Y8.3305 
G00 Z1.0000 
G00 X-39.8379 Y12.5596 
G01 Z0.0000 F300.00 
G01 X-38.9021 Y12.5596 F300.00 
G01 X-38.7116 Y12.3691 
X-1.1775 
X-0.9961 Y12.3330 
X-0.8252 Y12.2622 
X-0.6714 Y12.1594 
X-0.5406 Y12.0286 
X-0.4378 Y11.8748 
X-0.3670 Y11.7039 
X-0.3309 Y11.5225 
Y1.1775 
X-0.3670 Y0.9961 
X-0.4378 Y0.8252 
X-0.5406 Y0.6714 
X-0.6714 Y0.5406 
X-0.8252 Y0.4378 
X-0.9961 Y0.3670 
X-1.1775 Y0.3309 
X-1.3625 
X-1.5439 Y0.3670 
X-1.7148 Y0.4378 
X-1.8686 Y0.5406 
X-1.9994 Y0.6714 
X-2.0265 Y0.7119 
X-2.7706 
X-3.3421 Y0.1404 
X-4.2779 
X-4.8494 Y0.7119 
X-6.2676 
X-6.3403 Y0.6392 
X-6.4733 Y0.5503 
X-6.6211 Y0.4891 
X-6.7780 Y0.4579 
X-8.4620 
X-8.6189 Y0.4891 
X-8.7667 Y0.5503 
X-8.8997 Y0.6392 
X-9.0128 Y0.7523 
X-9.1017 Y0.8853 
X-9.1629 Y1.0331 
X-9.1941 Y1.1900 
Y1.3500 
X-9.1629 Y1.5069 
X-9.1017 Y1.6547 
X-9.0128 Y1.7877 
X-8.8997 Y1.9008 
X-8.7667 Y1.9897 
X-8.6189 Y2.0509 
X-8.4620 Y2.0821 
X-6.7780 
X-6.6211 Y2.0509 
X-6.4733 Y1.9897 
X-6.3403 Y1.9008 
X-6.2676 Y1.8281 
X-4.8494 
X-4.2779 Y2.3996 
X-3.3421 
X-2.7706 Y1.8281 
X-2.2091 
Y10.4909 
X-38.7116 
X-38.9021 Y10.3004 
X-39.8379 
X-40.0284 Y10.4909 
X-42.0025 
X-42.1839 Y10.5270 
X-42.3548 Y10.5978 
X-42.3849 Y10.6179 
X-42.7520 
X-42.9089 Y10.6491 
X-43.0567 Y10.7103 
X-43.1897 Y10.7992 
X-43.3028 Y10.9123 
X-43.3917 Y11.0453 
X-43.4529 Y11.1931 
X-43.4841 Y11.3500 
Y11.5100 
X-43.4529 Y11.6669 
X-43.3917 Y11.8147 
X-43.3028 Y11.9477 
X-43.1897 Y12.0608 
X-43.0567 Y12.1497 
X-42.9089 Y12.2109 
X-42.7520 Y12.2421 
X-42.3849 
X-42.3548 Y12.2622 
X-42.1839 Y12.3330 
X-42.0025 Y12.3691 
X-40.0284 
X-39.8379 Y12.5596 
G00 Z1.0000 
G82 X-3.8100 Y1.2700  Z-0.2000 F300.00 R1.0000 P0.000000
G82 X-3.8100 Y3.8100 
G82 X-3.8100 Y6.3500 
G82 X-3.8100 Y8.8900 
G82 X-7.6200 Y1.2700 
G82 X-7.6200 Y3.8100 
G82 X-7.6200 Y6.3500 
G82 X-7.6200 Y8.8900 

G82 X-11.4300 Y1.2700 
G82 X-11.4300 Y6.3500 
G82 X-13.9700 Y1.2700 
G82 X-13.9700 Y6.3500 
G82 X-13.9700 Y8.8900 
G82 X-16.5100 Y1.2700 
G82 X-16.5100 Y6.3500 
G82 X-19.0500 Y2.5400 
G82 X-19.0500 Y7.6200 
G82 X-20.9550 Y6.3500 
G82 X-22.8600 Y5.0800 
G82 X-22.8600 Y7.6200 
G82 X-26.6700 Y11.4300 
G82 X-26.6700 Y3.8100 
G82 X-29.2100 Y11.4300 
G82 X-29.2100 Y3.8100 




G82 X-31.7500 Y2.5400 
G82 X-31.7500 Y7.6200 
G82 X-33.6550 Y7.6200 
G82 X-35.5600 Y6.3500 
G82 X-35.5600 Y8.8900 
G82 X-39.3700 Y1.2700 
G82 X-39.3700 Y3.8100 
G82 X-39.3700 Y6.3500 
G82 X-39.3700 Y11.4300
G82 X-41.9100 Y1.2700 
G82 X-41.9100 Y11.4300 
G82 X-41.9100 Y3.8100 
G82 X-41.9100 Y6.3500 
G82 X-41.9100 Y8.8900 

M05
M02
