(.../pcb-gcode-3.6.0.4/pcb-gcode.ulp)
(Copyright 2005 - 2012 by John Johnson)
(See readme.txt for licensing terms.)
(This file generated from the board:)
(/home/mst/eagle/pwm-555/pwm-555.brd)
(Current profile is .../pcb-gcode-3.6.0.4/profiles/emc.pp  )
(This file generated 23.08.14 00:38)
(Settings from pcb-machine.h)
(  Tool Size)
(0.3000 )
(Z Axis Settings)
(  High     Up        Down     Drill)
(1.0000 	1.0000 	-0.1700 	-0.2000 )
(spindle on time = 0.0000)
(milling depth = -0.1700)
(text depth = -0.1270)
(tool change at 12.7000 15.2400 25.4000 )
(feed rate xy = F250.00 )
(feed rate z  = F250.00 )
(Settings from pcb-defaults.h)
(isolate min = 0.0001)
(isolate max = 0.5080)
(isolate step = 0.1270)
(Generated bottom outlines, bottom drill, )
(Unit of measure: mm)
(Metric Mode)
G21
(Absolute Coordinates)
G90
G00 X0.0000 Y0.0000 
M03
G04 P0.000000
G00 Z1.0000 
G00 X-17.8678 Y34.1353 
G01 Z-0.1700 F250.00 
G01 X-17.6922 Y34.1353 F250.00 
G01 X-17.5188 Y34.1078 
G01 X-17.3519 Y34.0536 
G01 X-17.1955 Y33.9739 
G01 X-17.0534 Y33.8707 
G01 X-16.9293 Y33.7466 
G01 X-16.8261 Y33.6045 
G01 X-16.7464 Y33.4481 
G01 X-16.6922 Y33.2812 
G01 X-16.6647 Y33.1078 
G01 X-16.6647 Y11.2753 
G01 X-15.1522 Y11.2753 
G01 X-14.9788 Y11.2478 
G01 X-14.8119 Y11.1936 
G01 X-14.6555 Y11.1139 
G01 X-14.5134 Y11.0107 
G01 X-14.3893 Y10.8866 
G01 X-14.2861 Y10.7445 
G01 X-14.2064 Y10.5881 
G01 X-14.1522 Y10.4212 
G01 X-14.1247 Y10.2478 
G01 X-14.1247 Y10.0722 
G01 X-14.1522 Y9.8988 
G01 X-14.2064 Y9.7319 
G01 X-14.2861 Y9.5755 
G01 X-14.3893 Y9.4334 
G01 X-14.5134 Y9.3093 
G01 X-14.6555 Y9.2061 
G01 X-14.8119 Y9.1264 
G01 X-14.9788 Y9.0722 
G01 X-15.1522 Y9.0447 
G01 X-17.8678 Y9.0447 
G01 X-18.0412 Y9.0722 
G01 X-18.2081 Y9.1264 
G01 X-18.3645 Y9.2061 
G01 X-18.5066 Y9.3093 
G01 X-18.6307 Y9.4334 
G01 X-18.7339 Y9.5755 
G01 X-18.8136 Y9.7319 
G01 X-18.8678 Y9.8988 
G01 X-18.8953 Y10.0722 
G01 X-18.8953 Y15.3947 
G01 X-20.4078 Y15.3947 
G01 X-20.5812 Y15.4222 
G01 X-20.7481 Y15.4764 
G01 X-20.9045 Y15.5561 
G01 X-21.0466 Y15.6593 
G01 X-21.1707 Y15.7834 
G01 X-21.2739 Y15.9255 
G01 X-21.3536 Y16.0819 
G01 X-21.4078 Y16.2488 
G01 X-21.4353 Y16.4222 
G01 X-21.4353 Y16.5978 
G01 X-21.4078 Y16.7712 
G01 X-21.3536 Y16.9381 
G01 X-21.2739 Y17.0945 
G01 X-21.1707 Y17.2366 
G01 X-21.0466 Y17.3607 
G01 X-20.9045 Y17.4639 
G01 X-20.7481 Y17.5436 
G01 X-20.5812 Y17.5978 
G01 X-20.4078 Y17.6253 
G01 X-18.8953 Y17.6253 
G01 X-18.8953 Y31.9047 
G01 X-29.2978 Y31.9047 
G01 X-29.4712 Y31.9322 
G01 X-29.6381 Y31.9864 
G01 X-29.7945 Y32.0661 
G01 X-29.9366 Y32.1693 
G01 X-30.0607 Y32.2934 
G01 X-30.1639 Y32.4355 
G01 X-30.2436 Y32.5919 
G01 X-30.2978 Y32.7588 
G01 X-30.3253 Y32.9322 
G01 X-30.3253 Y33.1078 
G01 X-30.2978 Y33.2812 
G01 X-30.2436 Y33.4481 
G01 X-30.1639 Y33.6045 
G01 X-30.0607 Y33.7466 
G01 X-29.9366 Y33.8707 
G01 X-29.7945 Y33.9739 
G01 X-29.6381 Y34.0536 
G01 X-29.4712 Y34.1078 
G01 X-29.2978 Y34.1353 
G01 X-22.7722 Y34.1353 
G01 X-17.8678 Y34.1353 
G00 Z1.0000 
G00 X-22.7722 Y29.0553 
G01 Z-0.1700 F250.00 
G01 X-22.5988 Y29.0278 F250.00 
G01 X-22.4319 Y28.9736 
G01 X-22.2755 Y28.8939 
G01 X-22.1334 Y28.7907 
G01 X-22.0093 Y28.6666 
G01 X-21.9061 Y28.5245 
G01 X-21.8264 Y28.3681 
G01 X-21.7722 Y28.2012 
G01 X-21.7447 Y28.0278 
G01 X-21.7447 Y27.8522 
G01 X-21.7722 Y27.6788 
G01 X-21.8264 Y27.5119 
G01 X-21.9061 Y27.3555 
G01 X-22.0093 Y27.2134 
G01 X-22.1334 Y27.0893 
G01 X-22.2755 Y26.9861 
G01 X-22.4319 Y26.9064 
G01 X-22.5988 Y26.8522 
G01 X-22.7722 Y26.8247 
G01 X-24.2847 Y26.8247 
G01 X-24.2847 Y20.1653 
G01 X-20.2322 Y20.1653 
G01 X-20.0588 Y20.1378 
G01 X-19.8919 Y20.0836 
G01 X-19.7355 Y20.0039 
G01 X-19.5934 Y19.9007 
G01 X-19.4693 Y19.7766 
G01 X-19.3661 Y19.6345 
G01 X-19.2864 Y19.4781 
G01 X-19.2322 Y19.3112 
G01 X-19.2047 Y19.1378 
G01 X-19.2047 Y18.9622 
G01 X-19.2322 Y18.7888 
G01 X-19.2864 Y18.6219 
G01 X-19.3661 Y18.4655 
G01 X-19.4693 Y18.3234 
G01 X-19.5934 Y18.1993 
G01 X-19.7355 Y18.0961 
G01 X-19.8919 Y18.0164 
G01 X-20.0588 Y17.9622 
G01 X-20.2322 Y17.9347 
G01 X-24.2847 Y17.9347 
G01 X-24.2847 Y16.4222 
G01 X-24.3122 Y16.2488 
G01 X-24.3664 Y16.0819 
G01 X-24.4461 Y15.9255 
G01 X-24.5493 Y15.7834 
G01 X-24.6734 Y15.6593 
G01 X-24.8155 Y15.5561 
G01 X-24.9719 Y15.4764 
G01 X-25.1388 Y15.4222 
G01 X-25.3122 Y15.3947 
G01 X-28.0278 Y15.3947 
G01 X-28.2012 Y15.4222 
G01 X-28.3681 Y15.4764 
G01 X-28.5245 Y15.5561 
G01 X-28.6666 Y15.6593 
G01 X-28.7907 Y15.7834 
G01 X-28.8939 Y15.9255 
G01 X-28.9736 Y16.0819 
G01 X-29.0278 Y16.2488 
G01 X-29.0553 Y16.4222 
G01 X-29.0553 Y16.5978 
G01 X-29.0278 Y16.7712 
G01 X-28.9736 Y16.9381 
G01 X-28.8939 Y17.0945 
G01 X-28.7907 Y17.2366 
G01 X-28.6666 Y17.3607 
G01 X-28.5245 Y17.4639 
G01 X-28.3681 Y17.5436 
G01 X-28.2012 Y17.5978 
G01 X-28.0278 Y17.6253 
G01 X-26.5153 Y17.6253 
G01 X-26.5153 Y28.0278 
G01 X-26.4878 Y28.2012 
G01 X-26.4336 Y28.3681 
G01 X-26.3539 Y28.5245 
G01 X-26.2507 Y28.6666 
G01 X-26.1266 Y28.7907 
G01 X-25.9845 Y28.8939 
G01 X-25.8281 Y28.9736 
G01 X-25.6612 Y29.0278 
G01 X-25.4878 Y29.0553 
G01 X-25.3122 Y29.0553 
G01 X-22.7722 Y29.0553 
G00 Z1.0000 
G00 X-16.6601 Y29.1801 
G01 Z-0.1700 F250.00 
G01 X-16.6601 Y31.7799 F250.00 
G01 X-16.6372 Y31.8350 
G01 X-16.5950 Y31.8772 
G01 X-16.5399 Y31.9001 
G01 X-16.3553 Y31.9001 
G01 X-16.3553 Y33.1078 
G01 X-16.3278 Y33.2812 
G01 X-16.2736 Y33.4481 
G01 X-16.1939 Y33.6045 
G01 X-16.0907 Y33.7466 
G01 X-15.9666 Y33.8707 
G01 X-15.8245 Y33.9739 
G01 X-15.6681 Y34.0536 
G01 X-15.5012 Y34.1078 
G01 X-15.3278 Y34.1353 
G01 X-15.1522 Y34.1353 
G01 X-14.9788 Y34.1078 
G01 X-14.8119 Y34.0536 
G01 X-14.6555 Y33.9739 
G01 X-14.5134 Y33.8707 
G01 X-14.3893 Y33.7466 
G01 X-14.2861 Y33.6045 
G01 X-14.2064 Y33.4481 
G01 X-14.1522 Y33.2812 
G01 X-14.1247 Y33.1078 
G01 X-14.1247 Y31.9001 
G01 X-13.9401 Y31.9001 
G01 X-13.8850 Y31.8772 
G01 X-13.8428 Y31.8350 
G01 X-13.8199 Y31.7799 
G01 X-13.8199 Y29.1801 
G01 X-13.8428 Y29.1250 
G01 X-13.8850 Y29.0828 
G01 X-13.9401 Y29.0599 
G01 X-16.5399 Y29.0599 
G01 X-16.5950 Y29.0828 
G01 X-16.6372 Y29.1250 
G01 X-16.6601 Y29.1801 
G00 Z1.0000 
G00 X-16.6601 Y24.1001 
G01 Z-0.1700 F250.00 
G01 X-16.6601 Y26.6999 F250.00 
G01 X-16.6372 Y26.7550 
G01 X-16.5950 Y26.7972 
G01 X-16.5399 Y26.8201 
G01 X-16.3553 Y26.8201 
G01 X-16.3553 Y28.0278 
G01 X-16.3278 Y28.2012 
G01 X-16.2736 Y28.3681 
G01 X-16.1939 Y28.5245 
G01 X-16.0907 Y28.6666 
G01 X-15.9666 Y28.7907 
G01 X-15.8245 Y28.8939 
G01 X-15.6681 Y28.9736 
G01 X-15.5012 Y29.0278 
G01 X-15.3278 Y29.0553 
G01 X-15.1522 Y29.0553 
G01 X-14.9788 Y29.0278 
G01 X-14.8119 Y28.9736 
G01 X-14.6555 Y28.8939 
G01 X-14.5134 Y28.7907 
G01 X-14.3893 Y28.6666 
G01 X-14.2861 Y28.5245 
G01 X-14.2064 Y28.3681 
G01 X-14.1522 Y28.2012 
G01 X-14.1247 Y28.0278 
G01 X-14.1247 Y26.8201 
G01 X-13.9401 Y26.8201 
G01 X-13.8850 Y26.7972 
G01 X-13.8428 Y26.7550 
G01 X-13.8199 Y26.6999 
G01 X-13.8199 Y24.1001 
G01 X-13.8428 Y24.0450 
G01 X-13.8850 Y24.0028 
G01 X-13.9401 Y23.9799 
G01 X-16.5399 Y23.9799 
G01 X-16.5950 Y24.0028 
G01 X-16.6372 Y24.0450 
G01 X-16.6601 Y24.1001 
G00 Z1.0000 
G00 X-16.6601 Y20.2901 
G01 Z-0.1700 F250.00 
G01 X-16.6601 Y22.8899 F250.00 
G01 X-16.6372 Y22.9450 
G01 X-16.5950 Y22.9872 
G01 X-16.5399 Y23.0101 
G01 X-13.9401 Y23.0101 
G01 X-13.8850 Y22.9872 
G01 X-13.8428 Y22.9450 
G01 X-13.8199 Y22.8899 
G01 X-13.8199 Y20.2901 
G01 X-13.8428 Y20.2350 
G01 X-13.8850 Y20.1928 
G01 X-13.9401 Y20.1699 
G01 X-14.1247 Y20.1699 
G01 X-14.1247 Y17.6922 
G01 X-14.1522 Y17.5188 
G01 X-14.2064 Y17.3519 
G01 X-14.2861 Y17.1955 
G01 X-14.3893 Y17.0534 
G01 X-14.5134 Y16.9293 
G01 X-14.6555 Y16.8261 
G01 X-14.8119 Y16.7464 
G01 X-14.9788 Y16.6922 
G01 X-15.1522 Y16.6647 
G01 X-15.3278 Y16.6647 
G01 X-15.5012 Y16.6922 
G01 X-15.6681 Y16.7464 
G01 X-15.8245 Y16.8261 
G01 X-15.9666 Y16.9293 
G01 X-16.0907 Y17.0534 
G01 X-16.1939 Y17.1955 
G01 X-16.2736 Y17.3519 
G01 X-16.3278 Y17.5188 
G01 X-16.3553 Y17.6922 
G01 X-16.3553 Y20.1699 
G01 X-16.5399 Y20.1699 
G01 X-16.5950 Y20.1928 
G01 X-16.6372 Y20.2350 
G01 X-16.6601 Y20.2901 
G00 Z1.0000 
G00 X-28.7505 Y18.3597 
G01 Z-0.1700 F250.00 
G01 X-28.7505 Y19.7403 F250.00 
G01 X-28.7276 Y19.7954 
G01 X-28.6854 Y19.8376 
G01 X-28.6303 Y19.8605 
G01 X-27.2497 Y19.8605 
G01 X-27.1946 Y19.8376 
G01 X-27.1524 Y19.7954 
G01 X-27.1295 Y19.7403 
G01 X-27.1295 Y18.3597 
G01 X-27.1524 Y18.3046 
G01 X-27.1946 Y18.2624 
G01 X-27.2497 Y18.2395 
G01 X-28.6303 Y18.2395 
G01 X-28.6854 Y18.2624 
G01 X-28.7276 Y18.3046 
G01 X-28.7505 Y18.3597 
G00 Z1.0000 
G00 X-40.3143 Y18.2395 
G01 Z-0.1700 F250.00 
G01 X-40.3694 Y18.2624 F250.00 
G01 X-40.4116 Y18.3046 
G01 X-40.4345 Y18.3597 
G01 X-40.4345 Y19.7403 
G01 X-40.4116 Y19.7954 
G01 X-40.3694 Y19.8376 
G01 X-40.3143 Y19.8605 
G01 X-40.2313 Y19.8605 
G01 X-40.2313 Y25.4848 
G01 X-40.1982 Y25.6512 
G01 X-40.1333 Y25.8080 
G01 X-40.0390 Y25.9490 
G01 X-39.9190 Y26.0690 
G01 X-39.7780 Y26.1633 
G01 X-39.6212 Y26.2282 
G01 X-39.4548 Y26.2613 
G01 X-37.8183 Y26.2613 
G01 X-37.8183 Y26.2681 
G01 X-37.7954 Y26.3232 
G01 X-37.7532 Y26.3654 
G01 X-37.6981 Y26.3883 
G01 X-35.9619 Y26.3883 
G01 X-35.9068 Y26.3654 
G01 X-35.8646 Y26.3232 
G01 X-35.8417 Y26.2681 
G01 X-35.8417 Y26.2613 
G01 X-34.1353 Y26.2613 
G01 X-34.1353 Y30.5678 
G01 X-34.1078 Y30.7412 
G01 X-34.0536 Y30.9081 
G01 X-33.9739 Y31.0645 
G01 X-33.8707 Y31.2066 
G01 X-33.7466 Y31.3307 
G01 X-33.6045 Y31.4339 
G01 X-33.4481 Y31.5136 
G01 X-33.2812 Y31.5678 
G01 X-33.1078 Y31.5953 
G01 X-20.2322 Y31.5953 
G01 X-20.0588 Y31.5678 
G01 X-19.8919 Y31.5136 
G01 X-19.7355 Y31.4339 
G01 X-19.5934 Y31.3307 
G01 X-19.4693 Y31.2066 
G01 X-19.3661 Y31.0645 
G01 X-19.2864 Y30.9081 
G01 X-19.2322 Y30.7412 
G01 X-19.2047 Y30.5678 
G01 X-19.2047 Y21.5022 
G01 X-19.2322 Y21.3288 
G01 X-19.2864 Y21.1619 
G01 X-19.3661 Y21.0055 
G01 X-19.4693 Y20.8634 
G01 X-19.5934 Y20.7393 
G01 X-19.7355 Y20.6361 
G01 X-19.8919 Y20.5564 
G01 X-20.0588 Y20.5022 
G01 X-20.2322 Y20.4747 
G01 X-20.4078 Y20.4747 
G01 X-20.5812 Y20.5022 
G01 X-20.7481 Y20.5564 
G01 X-20.9045 Y20.6361 
G01 X-21.0466 Y20.7393 
G01 X-21.1707 Y20.8634 
G01 X-21.2739 Y21.0055 
G01 X-21.3536 Y21.1619 
G01 X-21.4078 Y21.3288 
G01 X-21.4353 Y21.5022 
G01 X-21.4353 Y29.3647 
G01 X-28.3995 Y29.3647 
G01 X-28.3995 Y28.5197 
G01 X-28.4224 Y28.4646 
G01 X-28.4646 Y28.4224 
G01 X-28.5197 Y28.3995 
G01 X-29.9003 Y28.3995 
G01 X-29.9554 Y28.4224 
G01 X-29.9976 Y28.4646 
G01 X-30.0205 Y28.5197 
G01 X-30.0205 Y29.3647 
G01 X-31.9047 Y29.3647 
G01 X-31.9047 Y18.9622 
G01 X-31.9322 Y18.7888 
G01 X-31.9864 Y18.6219 
G01 X-32.0661 Y18.4655 
G01 X-32.1693 Y18.3234 
G01 X-32.2934 Y18.1993 
G01 X-32.4355 Y18.0961 
G01 X-32.5919 Y18.0164 
G01 X-32.7588 Y17.9622 
G01 X-32.9322 Y17.9347 
G01 X-33.1078 Y17.9347 
G01 X-33.2812 Y17.9622 
G01 X-33.4481 Y18.0164 
G01 X-33.6045 Y18.0961 
G01 X-33.7320 Y18.1887 
G01 X-39.4548 Y18.1887 
G01 X-39.6212 Y18.2218 
G01 X-39.6640 Y18.2395 
G01 X-40.3143 Y18.2395 
G00 Z1.0000 
G00 X-40.8455 Y19.7403 
G01 Z-0.1700 F250.00 
G01 X-40.8455 Y19.3440 F250.00 
G01 X-40.8278 Y19.3012 
G01 X-40.7947 Y19.1348 
G01 X-40.7947 Y18.9652 
G01 X-40.8278 Y18.7988 
G01 X-40.8455 Y18.7560 
G01 X-40.8455 Y18.3597 
G01 X-40.8683 Y18.3046 
G01 X-40.9106 Y18.2624 
G01 X-40.9657 Y18.2395 
G01 X-41.0487 Y18.2395 
G01 X-41.0487 Y17.3713 
G01 X-31.3413 Y17.3713 
G01 X-31.3413 Y21.6748 
G01 X-31.3082 Y21.8412 
G01 X-31.2433 Y21.9980 
G01 X-31.1490 Y22.1390 
G01 X-31.0290 Y22.2590 
G01 X-30.8880 Y22.3533 
G01 X-30.7312 Y22.4182 
G01 X-30.5648 Y22.4513 
G01 X-30.0713 Y22.4513 
G01 X-30.0713 Y24.2148 
G01 X-30.0382 Y24.3812 
G01 X-30.0205 Y24.4240 
G01 X-30.0205 Y24.8203 
G01 X-29.9976 Y24.8754 
G01 X-29.9554 Y24.9176 
G01 X-29.9003 Y24.9405 
G01 X-29.5040 Y24.9405 
G01 X-29.4612 Y24.9582 
G01 X-29.2948 Y24.9913 
G01 X-29.1252 Y24.9913 
G01 X-28.9588 Y24.9582 
G01 X-28.9160 Y24.9405 
G01 X-28.5197 Y24.9405 
G01 X-28.4646 Y24.9176 
G01 X-28.4224 Y24.8754 
G01 X-28.3995 Y24.8203 
G01 X-28.3995 Y24.4240 
G01 X-28.3818 Y24.3812 
G01 X-28.3487 Y24.2148 
G01 X-28.3487 Y22.4513 
G01 X-27.8552 Y22.4513 
G01 X-27.6888 Y22.4182 
G01 X-27.6460 Y22.4005 
G01 X-27.2497 Y22.4005 
G01 X-27.1946 Y22.3776 
G01 X-27.1524 Y22.3354 
G01 X-27.1295 Y22.2803 
G01 X-27.1295 Y21.8840 
G01 X-27.1118 Y21.8412 
G01 X-27.0787 Y21.6748 
G01 X-27.0787 Y21.5052 
G01 X-27.1118 Y21.3388 
G01 X-27.1295 Y21.2960 
G01 X-27.1295 Y20.8997 
G01 X-27.1524 Y20.8446 
G01 X-27.1946 Y20.8024 
G01 X-27.2497 Y20.7795 
G01 X-27.6460 Y20.7795 
G01 X-27.6888 Y20.7618 
G01 X-27.8552 Y20.7287 
G01 X-29.6187 Y20.7287 
G01 X-29.6187 Y16.4252 
G01 X-29.6518 Y16.2588 
G01 X-29.7167 Y16.1020 
G01 X-29.8110 Y15.9610 
G01 X-29.9310 Y15.8410 
G01 X-30.0720 Y15.7467 
G01 X-30.2288 Y15.6818 
G01 X-30.3952 Y15.6487 
G01 X-34.6987 Y15.6487 
G01 X-34.6987 Y11.2753 
G01 X-21.4353 Y11.2753 
G01 X-21.4353 Y14.0578 
G01 X-21.4078 Y14.2312 
G01 X-21.3536 Y14.3981 
G01 X-21.2739 Y14.5545 
G01 X-21.1707 Y14.6966 
G01 X-21.0466 Y14.8207 
G01 X-20.9045 Y14.9239 
G01 X-20.7481 Y15.0036 
G01 X-20.5812 Y15.0578 
G01 X-20.4078 Y15.0853 
G01 X-20.2322 Y15.0853 
G01 X-20.0588 Y15.0578 
G01 X-19.8919 Y15.0036 
G01 X-19.7355 Y14.9239 
G01 X-19.5934 Y14.8207 
G01 X-19.4693 Y14.6966 
G01 X-19.3661 Y14.5545 
G01 X-19.2864 Y14.3981 
G01 X-19.2322 Y14.2312 
G01 X-19.2047 Y14.0578 
G01 X-19.2047 Y10.0722 
G01 X-19.2322 Y9.8988 
G01 X-19.2864 Y9.7319 
G01 X-19.3661 Y9.5755 
G01 X-19.4693 Y9.4334 
G01 X-19.5934 Y9.3093 
G01 X-19.7355 Y9.2061 
G01 X-19.8919 Y9.1264 
G01 X-20.0588 Y9.0722 
G01 X-20.2322 Y9.0447 
G01 X-35.4099 Y9.0447 
G01 X-35.4099 Y8.8601 
G01 X-35.4327 Y8.8050 
G01 X-35.4750 Y8.7628 
G01 X-35.5301 Y8.7399 
G01 X-38.1299 Y8.7399 
G01 X-38.1850 Y8.7628 
G01 X-38.2272 Y8.8050 
G01 X-38.2501 Y8.8601 
G01 X-38.2501 Y9.2987 
G01 X-40.4899 Y9.2987 
G01 X-40.4899 Y8.8601 
G01 X-40.5128 Y8.8050 
G01 X-40.5550 Y8.7628 
G01 X-40.6101 Y8.7399 
G01 X-43.2099 Y8.7399 
G01 X-43.2650 Y8.7628 
G01 X-43.3072 Y8.8050 
G01 X-43.3301 Y8.8601 
G01 X-43.3301 Y11.4599 
G01 X-43.3072 Y11.5150 
G01 X-43.2650 Y11.5572 
G01 X-43.2099 Y11.5801 
G01 X-42.7713 Y11.5801 
G01 X-42.7713 Y19.1348 
G01 X-42.7382 Y19.3012 
G01 X-42.6733 Y19.4580 
G01 X-42.5790 Y19.5990 
G01 X-42.4665 Y19.7116 
G01 X-42.4665 Y19.7403 
G01 X-42.4436 Y19.7954 
G01 X-42.4014 Y19.8376 
G01 X-42.3463 Y19.8605 
G01 X-42.2040 Y19.8605 
G01 X-42.1612 Y19.8782 
G01 X-41.9948 Y19.9113 
G01 X-41.5712 Y19.9113 
G01 X-41.4048 Y19.8782 
G01 X-41.3620 Y19.8605 
G01 X-40.9657 Y19.8605 
G01 X-40.9106 Y19.8376 
G01 X-40.8683 Y19.7954 
G01 X-40.8455 Y19.7403 
G00 Z1.0000 
G00 X-37.8183 Y29.6119 
G01 Z-0.1700 F250.00 
G01 X-37.8183 Y31.3481 F250.00 
G01 X-37.7954 Y31.4032 
G01 X-37.7532 Y31.4454 
G01 X-37.6981 Y31.4683 
G01 X-37.6913 Y31.4683 
G01 X-37.6913 Y33.1048 
G01 X-37.6582 Y33.2712 
G01 X-37.6405 Y33.3140 
G01 X-37.6405 Y33.7103 
G01 X-37.6176 Y33.7654 
G01 X-37.5754 Y33.8076 
G01 X-37.5203 Y33.8305 
G01 X-37.1240 Y33.8305 
G01 X-37.0812 Y33.8482 
G01 X-36.9148 Y33.8813 
G01 X-36.7452 Y33.8813 
G01 X-36.5788 Y33.8482 
G01 X-36.5360 Y33.8305 
G01 X-36.1397 Y33.8305 
G01 X-36.0846 Y33.8076 
G01 X-36.0423 Y33.7654 
G01 X-36.0195 Y33.7103 
G01 X-36.0195 Y33.3140 
G01 X-36.0018 Y33.2712 
G01 X-35.9687 Y33.1048 
G01 X-35.9687 Y31.4683 
G01 X-35.9619 Y31.4683 
G01 X-35.9068 Y31.4454 
G01 X-35.8646 Y31.4032 
G01 X-35.8417 Y31.3481 
G01 X-35.8417 Y29.6119 
G01 X-35.8646 Y29.5568 
G01 X-35.9068 Y29.5145 
G01 X-35.9619 Y29.4917 
G01 X-37.6981 Y29.4917 
G01 X-37.7532 Y29.5145 
G01 X-37.7954 Y29.5568 
G01 X-37.8183 Y29.6119 
G00 Z1.0000 
G00 X-35.9619 Y28.9283 
G01 Z-0.1700 F250.00 
G01 X-35.9068 Y28.9054 F250.00 
G01 X-35.8646 Y28.8632 
G01 X-35.8417 Y28.8081 
G01 X-35.8417 Y28.4570 
G01 X-35.7964 Y28.3681 
G01 X-35.7422 Y28.2012 
G01 X-35.7147 Y28.0278 
G01 X-35.7147 Y27.8522 
G01 X-35.7422 Y27.6788 
G01 X-35.7964 Y27.5119 
G01 X-35.8417 Y27.4230 
G01 X-35.8417 Y27.0719 
G01 X-35.8646 Y27.0168 
G01 X-35.9068 Y26.9746 
G01 X-35.9619 Y26.9517 
G01 X-36.3130 Y26.9517 
G01 X-36.4019 Y26.9064 
G01 X-36.5688 Y26.8522 
G01 X-36.7422 Y26.8247 
G01 X-41.0487 Y26.8247 
G01 X-41.0487 Y21.5052 
G01 X-41.0818 Y21.3388 
G01 X-41.1467 Y21.1820 
G01 X-41.2410 Y21.0410 
G01 X-41.3610 Y20.9210 
G01 X-41.5020 Y20.8267 
G01 X-41.6588 Y20.7618 
G01 X-41.8252 Y20.7287 
G01 X-43.2648 Y20.7287 
G01 X-43.4312 Y20.7618 
G01 X-43.5880 Y20.8267 
G01 X-43.5887 Y10.0752 
G01 X-43.6218 Y9.9088 
G01 X-43.6867 Y9.7520 
G01 X-43.7810 Y9.6110 
G01 X-43.9010 Y9.4910 
G01 X-44.0420 Y9.3967 
G01 X-44.1988 Y9.3318 
G01 X-44.2999 Y9.3117 
G01 X-44.2999 Y8.8601 
G01 X-44.3227 Y8.8050 
G01 X-44.3650 Y8.7628 
G01 X-44.4201 Y8.7399 
G01 X-47.0199 Y8.7399 
G01 X-47.0750 Y8.7628 
G01 X-47.1172 Y8.8050 
G01 X-47.1401 Y8.8601 
G01 X-47.1401 Y9.3117 
G01 X-47.2412 Y9.3318 
G01 X-47.3980 Y9.3967 
G01 X-47.5390 Y9.4910 
G01 X-47.6590 Y9.6110 
G01 X-47.7533 Y9.7520 
G01 X-47.8182 Y9.9088 
G01 X-47.8513 Y10.0752 
G01 X-47.8513 Y33.1048 
G01 X-47.8182 Y33.2712 
G01 X-47.7533 Y33.4280 
G01 X-47.6590 Y33.5690 
G01 X-47.5390 Y33.6890 
G01 X-47.3980 Y33.7833 
G01 X-47.2412 Y33.8482 
G01 X-47.0748 Y33.8813 
G01 X-39.2852 Y33.8813 
G01 X-39.1188 Y33.8482 
G01 X-38.9620 Y33.7833 
G01 X-38.8210 Y33.6890 
G01 X-38.7010 Y33.5690 
G01 X-38.6067 Y33.4280 
G01 X-38.5418 Y33.2712 
G01 X-38.5087 Y33.1048 
G01 X-38.5087 Y29.0553 
G01 X-36.7422 Y29.0553 
G01 X-36.5688 Y29.0278 
G01 X-36.4019 Y28.9736 
G01 X-36.3130 Y28.9283 
G01 X-35.9619 Y28.9283 
G00 Z1.0000 
G00 X-33.1078 Y15.0853 
G01 Z-0.1700 F250.00 
G01 X-27.8522 Y15.0853 F250.00 
G01 X-27.6788 Y15.0578 
G01 X-27.5119 Y15.0036 
G01 X-27.3555 Y14.9239 
G01 X-27.2134 Y14.8207 
G01 X-27.0893 Y14.6966 
G01 X-26.9861 Y14.5545 
G01 X-26.9064 Y14.3981 
G01 X-26.8522 Y14.2312 
G01 X-26.8247 Y14.0578 
G01 X-26.8247 Y13.8822 
G01 X-26.8522 Y13.7088 
G01 X-26.9064 Y13.5419 
G01 X-26.9861 Y13.3855 
G01 X-27.0893 Y13.2434 
G01 X-27.2134 Y13.1193 
G01 X-27.3555 Y13.0161 
G01 X-27.5119 Y12.9364 
G01 X-27.6788 Y12.8822 
G01 X-27.8522 Y12.8547 
G01 X-33.1078 Y12.8547 
G01 X-33.2812 Y12.8822 
G01 X-33.4481 Y12.9364 
G01 X-33.6045 Y13.0161 
G01 X-33.7466 Y13.1193 
G01 X-33.8707 Y13.2434 
G01 X-33.9739 Y13.3855 
G01 X-34.0536 Y13.5419 
G01 X-34.1078 Y13.7088 
G01 X-34.1353 Y13.8822 
G01 X-34.1353 Y14.0578 
G01 X-34.1078 Y14.2312 
G01 X-34.0536 Y14.3981 
G01 X-33.9739 Y14.5545 
G01 X-33.8707 Y14.6966 
G01 X-33.7466 Y14.8207 
G01 X-33.6045 Y14.9239 
G01 X-33.4481 Y15.0036 
G01 X-33.2812 Y15.0578 
G01 X-33.1078 Y15.0853 
G00 Z1.0000 
G82 X-20.3200 Y25.4000 Z-0.2000 F250.00 R1.0000 P0.000000
G82 X-25.4000 Y25.4000 
G82 X-33.0200 Y19.0500 
G82 X-33.0200 Y13.9700 
G82 X-29.2100 Y29.2100 
G82 X-29.2100 Y24.1300 
G82 X-41.6560 Y19.0500 
G82 X-39.6240 Y19.0500 
G82 X-15.2400 Y33.0200 
G82 X-22.8600 Y33.0200 
G82 X-15.2400 Y10.1600 
G82 X-15.2400 Y17.7800 
G82 X-45.7200 Y13.9700 
G82 X-38.1000 Y13.9700 
G82 X-20.3200 Y21.5900 
G82 X-20.3200 Y19.0500 
G82 X-20.3200 Y16.5100 
G82 X-20.3200 Y13.9700 
G82 X-27.9400 Y13.9700 
G82 X-27.9400 Y16.5100 
G82 X-27.9400 Y19.0500 
G82 X-27.9400 Y21.5900 
G82 X-36.8300 Y21.5900 
G82 X-41.9100 Y10.1600 
G82 X-45.7200 Y10.1600 
G82 X-36.8300 Y10.1600 
G82 X-36.8300 Y30.4800 
G82 X-36.8300 Y27.9400 
G82 X-36.8300 Y25.4000 
G82 X-54.3560 Y27.9400 
G82 X-15.2400 Y27.9400 
G82 X-22.8600 Y27.9400 
G82 X-29.2100 Y33.0200 
G82 X-36.8300 Y33.0200 
G82 X-15.2400 Y30.4800 
G82 X-15.2400 Y25.4000 
G82 X-15.2400 Y21.5900 
M05
M02
