(.../pcb-gcode-3.6.0.4/pcb-gcode.ulp)
(Copyright 2005 - 2012 by John Johnson)
(See readme.txt for licensing terms.)
(This file generated from the board:)
(.../NC/eagle/shifter2-8rgb-atmel.brd)
(Current profile is .../pcb-gcode-3.6.0.4/profiles/emc.pp  )
(This file generated 06.08.14 21:20)
(Settings from pcb-machine.h)
(  Tool Size)
(0.3000 )
(Z Axis Settings)
(  High     Up        Down     Drill)
(1.0000 	1.0000 	-0.1700 	-0.2000 )
(spindle on time = 0.0000)
(milling depth = -0.1700)
(text depth = -0.1270)
(tool change at 12.7000 15.2400 25.4000 )
(feed rate xy = F250.00 )
(feed rate z  = F250.00 )
(Settings from pcb-defaults.h)
(isolate min = 0.0001)
(isolate max = 0.5080)
(isolate step = 0.1270)
(Generated bottom outlines, bottom drill, )
(Unit of measure: mm)
(Metric Mode)
G21
(Absolute Coordinates)
G90
G00 X0.0000 Y0.0000 
M03
G04 P0.000000
G00 Z1.0000 
G00 X-5.0167 Y29.1045 
G01 Z-0.1700 F250.00 
G01 X-4.9745 Y29.1467 F250.00 
G01 X-4.9194 Y29.1696 
G01 X-2.7006 Y29.1696 
G01 X-2.6455 Y29.1467 
G01 X-2.6033 Y29.1045 
G01 X-2.5804 Y29.0494 
G01 X-2.5804 Y26.8306 
G01 X-2.6033 Y26.7755 
G01 X-2.6455 Y26.7333 
G01 X-2.7006 Y26.7104 
G01 X-4.9194 Y26.7104 
G01 X-4.9745 Y26.7333 
G01 X-5.0167 Y26.7755 
G01 X-5.0371 Y26.8247 
G01 X-6.5047 Y26.8247 
G01 X-6.5047 Y26.5822 
G01 X-6.5322 Y26.4088 
G01 X-6.5864 Y26.2419 
G01 X-6.6661 Y26.0855 
G01 X-6.7693 Y25.9434 
G01 X-6.8934 Y25.8193 
G01 X-7.0355 Y25.7161 
G01 X-7.1919 Y25.6364 
G01 X-7.3588 Y25.5822 
G01 X-7.5322 Y25.5547 
G01 X-71.2078 Y25.5547 
G01 X-71.3812 Y25.5822 
G01 X-71.5481 Y25.6364 
G01 X-71.7045 Y25.7161 
G01 X-71.8466 Y25.8193 
G01 X-71.9707 Y25.9434 
G01 X-72.0739 Y26.0855 
G01 X-72.1536 Y26.2419 
G01 X-72.2078 Y26.4088 
G01 X-72.2353 Y26.5822 
G01 X-72.2353 Y26.7578 
G01 X-72.2078 Y26.9312 
G01 X-72.1536 Y27.0981 
G01 X-72.0739 Y27.2545 
G01 X-71.9707 Y27.3966 
G01 X-71.8466 Y27.5207 
G01 X-71.7045 Y27.6239 
G01 X-71.5481 Y27.7036 
G01 X-71.3812 Y27.7578 
G01 X-71.2078 Y27.7853 
G01 X-8.7353 Y27.7853 
G01 X-8.7353 Y28.0278 
G01 X-8.7078 Y28.2012 
G01 X-8.6536 Y28.3681 
G01 X-8.5739 Y28.5245 
G01 X-8.4707 Y28.6666 
G01 X-8.3466 Y28.7907 
G01 X-8.2045 Y28.8939 
G01 X-8.0481 Y28.9736 
G01 X-7.8812 Y29.0278 
G01 X-7.7078 Y29.0553 
G01 X-5.0371 Y29.0553 
G01 X-5.0167 Y29.1045 
G00 Z1.0000 
G00 X-5.0167 Y25.2945 
G01 Z-0.1700 F250.00 
G01 X-4.9745 Y25.3367 F250.00 
G01 X-4.9194 Y25.3596 
G01 X-2.7006 Y25.3596 
G01 X-2.6455 Y25.3367 
G01 X-2.6033 Y25.2945 
G01 X-2.5804 Y25.2394 
G01 X-2.5804 Y23.0206 
G01 X-2.6033 Y22.9655 
G01 X-2.6455 Y22.9232 
G01 X-2.7006 Y22.9004 
G01 X-4.9194 Y22.9004 
G01 X-4.9745 Y22.9232 
G01 X-5.0167 Y22.9655 
G01 X-5.0371 Y23.0147 
G01 X-21.7447 Y23.0147 
G01 X-21.7447 Y16.4222 
G01 X-21.7722 Y16.2488 
G01 X-21.7955 Y16.1770 
G01 X-21.7955 Y15.5657 
G01 X-21.8184 Y15.5106 
G01 X-21.8606 Y15.4684 
G01 X-21.9157 Y15.4455 
G01 X-22.5270 Y15.4455 
G01 X-22.5988 Y15.4222 
G01 X-22.7722 Y15.3947 
G01 X-22.9478 Y15.3947 
G01 X-23.1212 Y15.4222 
G01 X-23.1930 Y15.4455 
G01 X-23.8043 Y15.4455 
G01 X-23.8594 Y15.4684 
G01 X-23.9016 Y15.5106 
G01 X-23.9245 Y15.5657 
G01 X-23.9245 Y16.1770 
G01 X-23.9478 Y16.2488 
G01 X-23.9753 Y16.4222 
G01 X-23.9753 Y23.0147 
G01 X-47.1447 Y23.0147 
G01 X-47.1447 Y16.4222 
G01 X-47.1722 Y16.2488 
G01 X-47.1955 Y16.1770 
G01 X-47.1955 Y15.5657 
G01 X-47.2184 Y15.5106 
G01 X-47.2606 Y15.4684 
G01 X-47.3157 Y15.4455 
G01 X-47.9270 Y15.4455 
G01 X-47.9988 Y15.4222 
G01 X-48.1722 Y15.3947 
G01 X-48.3478 Y15.3947 
G01 X-48.5212 Y15.4222 
G01 X-48.5930 Y15.4455 
G01 X-49.2043 Y15.4455 
G01 X-49.2594 Y15.4684 
G01 X-49.3016 Y15.5106 
G01 X-49.3245 Y15.5657 
G01 X-49.3245 Y16.1770 
G01 X-49.3478 Y16.2488 
G01 X-49.3753 Y16.4222 
G01 X-49.3753 Y23.0147 
G01 X-72.5447 Y23.0147 
G01 X-72.5447 Y16.4222 
G01 X-72.5722 Y16.2488 
G01 X-72.5955 Y16.1770 
G01 X-72.5955 Y15.5657 
G01 X-72.6184 Y15.5106 
G01 X-72.6606 Y15.4684 
G01 X-72.7157 Y15.4455 
G01 X-73.3270 Y15.4455 
G01 X-73.3988 Y15.4222 
G01 X-73.5722 Y15.3947 
G01 X-73.7478 Y15.3947 
G01 X-73.9212 Y15.4222 
G01 X-73.9930 Y15.4455 
G01 X-74.6043 Y15.4455 
G01 X-74.6594 Y15.4684 
G01 X-74.7016 Y15.5106 
G01 X-74.7245 Y15.5657 
G01 X-74.7245 Y16.1770 
G01 X-74.7478 Y16.2488 
G01 X-74.7753 Y16.4222 
G01 X-74.7753 Y24.2178 
G01 X-74.7478 Y24.3912 
G01 X-74.6936 Y24.5581 
G01 X-74.6139 Y24.7145 
G01 X-74.5107 Y24.8566 
G01 X-74.3866 Y24.9807 
G01 X-74.2445 Y25.0839 
G01 X-74.0881 Y25.1636 
G01 X-73.9212 Y25.2178 
G01 X-73.7478 Y25.2453 
G01 X-5.0371 Y25.2453 
G01 X-5.0167 Y25.2945 
G00 Z1.0000 
G00 X-74.7694 Y6.3096 
G01 Z-0.1700 F250.00 
G01 X-74.6991 Y6.3096 F250.00 
G01 X-74.6991 Y7.8880 
G01 X-74.7016 Y7.8906 
G01 X-74.7245 Y7.9457 
G01 X-74.7245 Y9.8343 
G01 X-74.7016 Y9.8894 
G01 X-74.6594 Y9.9316 
G01 X-74.6043 Y9.9545 
G01 X-72.7157 Y9.9545 
G01 X-72.6606 Y9.9316 
G01 X-72.6184 Y9.8894 
G01 X-72.5955 Y9.8343 
G01 X-72.5955 Y7.9457 
G01 X-72.6184 Y7.8906 
G01 X-72.6209 Y7.8880 
G01 X-72.6209 Y6.3096 
G01 X-72.5506 Y6.3096 
G01 X-72.4955 Y6.2867 
G01 X-72.4532 Y6.2445 
G01 X-72.4304 Y6.1894 
G01 X-72.4304 Y3.9706 
G01 X-72.4532 Y3.9155 
G01 X-72.4955 Y3.8733 
G01 X-72.5506 Y3.8504 
G01 X-74.7694 Y3.8504 
G01 X-74.8245 Y3.8733 
G01 X-74.8667 Y3.9155 
G01 X-74.8896 Y3.9706 
G01 X-74.8896 Y6.1894 
G01 X-74.8667 Y6.2445 
G01 X-74.8245 Y6.2867 
G01 X-74.7694 Y6.3096 
G00 Z1.0000 
G00 X-69.6894 Y6.3096 
G01 Z-0.1700 F250.00 
G01 X-69.6191 Y6.3096 F250.00 
G01 X-69.6191 Y7.8880 
G01 X-69.6216 Y7.8906 
G01 X-69.6445 Y7.9457 
G01 X-69.6445 Y9.8343 
G01 X-69.6216 Y9.8894 
G01 X-69.5794 Y9.9316 
G01 X-69.5243 Y9.9545 
G01 X-67.6357 Y9.9545 
G01 X-67.5806 Y9.9316 
G01 X-67.5384 Y9.8894 
G01 X-67.5155 Y9.8343 
G01 X-67.5155 Y7.9457 
G01 X-67.5384 Y7.8906 
G01 X-67.5409 Y7.8880 
G01 X-67.5409 Y6.3096 
G01 X-67.4706 Y6.3096 
G01 X-67.4155 Y6.2867 
G01 X-67.3732 Y6.2445 
G01 X-67.3504 Y6.1894 
G01 X-67.3504 Y3.9706 
G01 X-67.3732 Y3.9155 
G01 X-67.4155 Y3.8733 
G01 X-67.4706 Y3.8504 
G01 X-69.6894 Y3.8504 
G01 X-69.7445 Y3.8733 
G01 X-69.7867 Y3.9155 
G01 X-69.8096 Y3.9706 
G01 X-69.8096 Y6.1894 
G01 X-69.7867 Y6.2445 
G01 X-69.7445 Y6.2867 
G01 X-69.6894 Y6.3096 
G00 Z1.0000 
G00 X-64.6094 Y6.3096 
G01 Z-0.1700 F250.00 
G01 X-64.5391 Y6.3096 F250.00 
G01 X-64.5391 Y7.8880 
G01 X-64.5416 Y7.8906 
G01 X-64.5645 Y7.9457 
G01 X-64.5645 Y9.8343 
G01 X-64.5416 Y9.8894 
G01 X-64.4994 Y9.9316 
G01 X-64.4443 Y9.9545 
G01 X-62.5557 Y9.9545 
G01 X-62.5006 Y9.9316 
G01 X-62.4584 Y9.8894 
G01 X-62.4355 Y9.8343 
G01 X-62.4355 Y7.9457 
G01 X-62.4584 Y7.8906 
G01 X-62.4609 Y7.8880 
G01 X-62.4609 Y6.3096 
G01 X-62.3906 Y6.3096 
G01 X-62.3355 Y6.2867 
G01 X-62.2933 Y6.2445 
G01 X-62.2704 Y6.1894 
G01 X-62.2704 Y3.9706 
G01 X-62.2933 Y3.9155 
G01 X-62.3355 Y3.8733 
G01 X-62.3906 Y3.8504 
G01 X-64.6094 Y3.8504 
G01 X-64.6645 Y3.8733 
G01 X-64.7067 Y3.9155 
G01 X-64.7296 Y3.9706 
G01 X-64.7296 Y6.1894 
G01 X-64.7067 Y6.2445 
G01 X-64.6645 Y6.2867 
G01 X-64.6094 Y6.3096 
G00 Z1.0000 
G00 X-59.5294 Y6.3096 
G01 Z-0.1700 F250.00 
G01 X-59.4591 Y6.3096 F250.00 
G01 X-59.4591 Y10.3147 
G01 X-63.5878 Y10.3147 
G01 X-63.7612 Y10.3422 
G01 X-63.9281 Y10.3964 
G01 X-64.0845 Y10.4761 
G01 X-64.2266 Y10.5793 
G01 X-64.3507 Y10.7034 
G01 X-64.4539 Y10.8455 
G01 X-64.5336 Y11.0019 
G01 X-64.5878 Y11.1688 
G01 X-64.6153 Y11.3422 
G01 X-64.6153 Y16.5978 
G01 X-64.5878 Y16.7712 
G01 X-64.5645 Y16.8430 
G01 X-64.5645 Y17.4543 
G01 X-64.5416 Y17.5094 
G01 X-64.4994 Y17.5516 
G01 X-64.4443 Y17.5745 
G01 X-63.8330 Y17.5745 
G01 X-63.7612 Y17.5978 
G01 X-63.5878 Y17.6253 
G01 X-63.4122 Y17.6253 
G01 X-63.2388 Y17.5978 
G01 X-63.1670 Y17.5745 
G01 X-62.5557 Y17.5745 
G01 X-62.5006 Y17.5516 
G01 X-62.4584 Y17.5094 
G01 X-62.4355 Y17.4543 
G01 X-62.4355 Y16.8430 
G01 X-62.4122 Y16.7712 
G01 X-62.3847 Y16.5978 
G01 X-62.3847 Y12.5453 
G01 X-58.3322 Y12.5453 
G01 X-58.1588 Y12.5178 
G01 X-57.9919 Y12.4636 
G01 X-57.8355 Y12.3839 
G01 X-57.6934 Y12.2807 
G01 X-57.5693 Y12.1566 
G01 X-57.4661 Y12.0145 
G01 X-57.3864 Y11.8581 
G01 X-57.3322 Y11.6912 
G01 X-57.3047 Y11.5178 
G01 X-57.3047 Y11.3422 
G01 X-57.3322 Y11.1688 
G01 X-57.3809 Y11.0188 
G01 X-57.3809 Y6.3096 
G01 X-57.3106 Y6.3096 
G01 X-57.2555 Y6.2867 
G01 X-57.2133 Y6.2445 
G01 X-57.1904 Y6.1894 
G01 X-57.1904 Y3.9706 
G01 X-57.2133 Y3.9155 
G01 X-57.2555 Y3.8733 
G01 X-57.3106 Y3.8504 
G01 X-59.5294 Y3.8504 
G01 X-59.5845 Y3.8733 
G01 X-59.6267 Y3.9155 
G01 X-59.6496 Y3.9706 
G01 X-59.6496 Y6.1894 
G01 X-59.6267 Y6.2445 
G01 X-59.5845 Y6.2867 
G01 X-59.5294 Y6.3096 
G00 Z1.0000 
G00 X-51.9094 Y6.3096 
G01 Z-0.1700 F250.00 
G01 X-51.8391 Y6.3096 F250.00 
G01 X-51.8391 Y7.8880 
G01 X-51.8416 Y7.8906 
G01 X-51.8645 Y7.9457 
G01 X-51.8645 Y9.8343 
G01 X-51.8416 Y9.8894 
G01 X-51.7994 Y9.9316 
G01 X-51.7443 Y9.9545 
G01 X-49.8557 Y9.9545 
G01 X-49.8006 Y9.9316 
G01 X-49.7584 Y9.8894 
G01 X-49.7355 Y9.8343 
G01 X-49.7355 Y7.9457 
G01 X-49.7584 Y7.8906 
G01 X-49.7609 Y7.8880 
G01 X-49.7609 Y6.3096 
G01 X-49.6906 Y6.3096 
G01 X-49.6355 Y6.2867 
G01 X-49.5933 Y6.2445 
G01 X-49.5704 Y6.1894 
G01 X-49.5704 Y3.9706 
G01 X-49.5933 Y3.9155 
G01 X-49.6355 Y3.8733 
G01 X-49.6906 Y3.8504 
G01 X-51.9094 Y3.8504 
G01 X-51.9645 Y3.8733 
G01 X-52.0067 Y3.9155 
G01 X-52.0296 Y3.9706 
G01 X-52.0296 Y6.1894 
G01 X-52.0067 Y6.2445 
G01 X-51.9645 Y6.2867 
G01 X-51.9094 Y6.3096 
G00 Z1.0000 
G00 X-46.8294 Y6.3096 
G01 Z-0.1700 F250.00 
G01 X-46.7591 Y6.3096 F250.00 
G01 X-46.7591 Y7.8880 
G01 X-46.7616 Y7.8906 
G01 X-46.7845 Y7.9457 
G01 X-46.7845 Y9.8343 
G01 X-46.7616 Y9.8894 
G01 X-46.7194 Y9.9316 
G01 X-46.6643 Y9.9545 
G01 X-44.7757 Y9.9545 
G01 X-44.7206 Y9.9316 
G01 X-44.6784 Y9.8894 
G01 X-44.6555 Y9.8343 
G01 X-44.6555 Y7.9457 
G01 X-44.6784 Y7.8906 
G01 X-44.6809 Y7.8880 
G01 X-44.6809 Y6.3096 
G01 X-44.6106 Y6.3096 
G01 X-44.5555 Y6.2867 
G01 X-44.5132 Y6.2445 
G01 X-44.4904 Y6.1894 
G01 X-44.4904 Y3.9706 
G01 X-44.5132 Y3.9155 
G01 X-44.5555 Y3.8733 
G01 X-44.6106 Y3.8504 
G01 X-46.8294 Y3.8504 
G01 X-46.8845 Y3.8733 
G01 X-46.9267 Y3.9155 
G01 X-46.9496 Y3.9706 
G01 X-46.9496 Y6.1894 
G01 X-46.9267 Y6.2445 
G01 X-46.8845 Y6.2867 
G01 X-46.8294 Y6.3096 
G00 Z1.0000 
G00 X-41.7494 Y6.3096 
G01 Z-0.1700 F250.00 
G01 X-41.6791 Y6.3096 F250.00 
G01 X-41.6791 Y7.8880 
G01 X-41.6816 Y7.8906 
G01 X-41.7045 Y7.9457 
G01 X-41.7045 Y9.8343 
G01 X-41.6816 Y9.8894 
G01 X-41.6394 Y9.9316 
G01 X-41.5843 Y9.9545 
G01 X-39.6957 Y9.9545 
G01 X-39.6406 Y9.9316 
G01 X-39.5984 Y9.8894 
G01 X-39.5755 Y9.8343 
G01 X-39.5755 Y7.9457 
G01 X-39.5984 Y7.8906 
G01 X-39.6009 Y7.8880 
G01 X-39.6009 Y6.3096 
G01 X-39.5306 Y6.3096 
G01 X-39.4755 Y6.2867 
G01 X-39.4333 Y6.2445 
G01 X-39.4104 Y6.1894 
G01 X-39.4104 Y3.9706 
G01 X-39.4333 Y3.9155 
G01 X-39.4755 Y3.8733 
G01 X-39.5306 Y3.8504 
G01 X-41.7494 Y3.8504 
G01 X-41.8045 Y3.8733 
G01 X-41.8467 Y3.9155 
G01 X-41.8696 Y3.9706 
G01 X-41.8696 Y6.1894 
G01 X-41.8467 Y6.2445 
G01 X-41.8045 Y6.2867 
G01 X-41.7494 Y6.3096 
G00 Z1.0000 
G00 X-36.6694 Y6.3096 
G01 Z-0.1700 F250.00 
G01 X-36.5991 Y6.3096 F250.00 
G01 X-36.5991 Y7.8880 
G01 X-36.6016 Y7.8906 
G01 X-36.6245 Y7.9457 
G01 X-36.6245 Y9.8343 
G01 X-36.6016 Y9.8894 
G01 X-36.5594 Y9.9316 
G01 X-36.5043 Y9.9545 
G01 X-34.6157 Y9.9545 
G01 X-34.5606 Y9.9316 
G01 X-34.5184 Y9.8894 
G01 X-34.4955 Y9.8343 
G01 X-34.4955 Y7.9457 
G01 X-34.5184 Y7.8906 
G01 X-34.5209 Y7.8880 
G01 X-34.5209 Y6.3096 
G01 X-34.4506 Y6.3096 
G01 X-34.3955 Y6.2867 
G01 X-34.3533 Y6.2445 
G01 X-34.3304 Y6.1894 
G01 X-34.3304 Y3.9706 
G01 X-34.3533 Y3.9155 
G01 X-34.3955 Y3.8733 
G01 X-34.4506 Y3.8504 
G01 X-36.6694 Y3.8504 
G01 X-36.7245 Y3.8733 
G01 X-36.7667 Y3.9155 
G01 X-36.7896 Y3.9706 
G01 X-36.7896 Y6.1894 
G01 X-36.7667 Y6.2445 
G01 X-36.7245 Y6.2867 
G01 X-36.6694 Y6.3096 
G00 Z1.0000 
G00 X-26.5094 Y6.3096 
G01 Z-0.1700 F250.00 
G01 X-26.4391 Y6.3096 F250.00 
G01 X-26.4391 Y7.8880 
G01 X-26.4416 Y7.8906 
G01 X-26.4645 Y7.9457 
G01 X-26.4645 Y9.8343 
G01 X-26.4416 Y9.8894 
G01 X-26.3994 Y9.9316 
G01 X-26.3443 Y9.9545 
G01 X-24.4557 Y9.9545 
G01 X-24.4006 Y9.9316 
G01 X-24.3584 Y9.8894 
G01 X-24.3355 Y9.8343 
G01 X-24.3355 Y7.9457 
G01 X-24.3584 Y7.8906 
G01 X-24.3609 Y7.8880 
G01 X-24.3609 Y6.3096 
G01 X-24.2906 Y6.3096 
G01 X-24.2355 Y6.2867 
G01 X-24.1933 Y6.2445 
G01 X-24.1704 Y6.1894 
G01 X-24.1704 Y3.9706 
G01 X-24.1933 Y3.9155 
G01 X-24.2355 Y3.8733 
G01 X-24.2906 Y3.8504 
G01 X-26.5094 Y3.8504 
G01 X-26.5645 Y3.8733 
G01 X-26.6067 Y3.9155 
G01 X-26.6296 Y3.9706 
G01 X-26.6296 Y6.1894 
G01 X-26.6067 Y6.2445 
G01 X-26.5645 Y6.2867 
G01 X-26.5094 Y6.3096 
G00 Z1.0000 
G00 X-21.4294 Y6.3096 
G01 Z-0.1700 F250.00 
G01 X-21.3591 Y6.3096 F250.00 
G01 X-21.3591 Y7.8880 
G01 X-21.3616 Y7.8906 
G01 X-21.3845 Y7.9457 
G01 X-21.3845 Y9.8343 
G01 X-21.3616 Y9.8894 
G01 X-21.3194 Y9.9316 
G01 X-21.2643 Y9.9545 
G01 X-19.3757 Y9.9545 
G01 X-19.3206 Y9.9316 
G01 X-19.2783 Y9.8894 
G01 X-19.2555 Y9.8343 
G01 X-19.2555 Y7.9457 
G01 X-19.2783 Y7.8906 
G01 X-19.2809 Y7.8880 
G01 X-19.2809 Y6.3096 
G01 X-19.2106 Y6.3096 
G01 X-19.1555 Y6.2867 
G01 X-19.1133 Y6.2445 
G01 X-19.0904 Y6.1894 
G01 X-19.0904 Y3.9706 
G01 X-19.1133 Y3.9155 
G01 X-19.1555 Y3.8733 
G01 X-19.2106 Y3.8504 
G01 X-21.4294 Y3.8504 
G01 X-21.4845 Y3.8733 
G01 X-21.5267 Y3.9155 
G01 X-21.5496 Y3.9706 
G01 X-21.5496 Y6.1894 
G01 X-21.5267 Y6.2445 
G01 X-21.4845 Y6.2867 
G01 X-21.4294 Y6.3096 
G00 Z1.0000 
G00 X-18.8894 Y6.3096 
G01 Z-0.1700 F250.00 
G01 X-18.8191 Y6.3096 F250.00 
G01 X-18.8191 Y7.8880 
G01 X-18.8216 Y7.8906 
G01 X-18.8445 Y7.9457 
G01 X-18.8445 Y9.8343 
G01 X-18.8216 Y9.8894 
G01 X-18.7794 Y9.9316 
G01 X-18.7243 Y9.9545 
G01 X-16.8357 Y9.9545 
G01 X-16.7806 Y9.9316 
G01 X-16.7384 Y9.8894 
G01 X-16.7155 Y9.8343 
G01 X-16.7155 Y7.9457 
G01 X-16.7384 Y7.8906 
G01 X-16.7409 Y7.8880 
G01 X-16.7409 Y6.3096 
G01 X-16.6706 Y6.3096 
G01 X-16.6155 Y6.2867 
G01 X-16.5733 Y6.2445 
G01 X-16.5504 Y6.1894 
G01 X-16.5504 Y3.9706 
G01 X-16.5733 Y3.9155 
G01 X-16.6155 Y3.8733 
G01 X-16.6706 Y3.8504 
G01 X-18.8894 Y3.8504 
G01 X-18.9445 Y3.8733 
G01 X-18.9867 Y3.9155 
G01 X-19.0096 Y3.9706 
G01 X-19.0096 Y6.1894 
G01 X-18.9867 Y6.2445 
G01 X-18.9445 Y6.2867 
G01 X-18.8894 Y6.3096 
G00 Z1.0000 
G00 X-11.2694 Y6.3096 
G01 Z-0.1700 F250.00 
G01 X-11.1991 Y6.3096 F250.00 
G01 X-11.1991 Y7.8880 
G01 X-11.2016 Y7.8906 
G01 X-11.2245 Y7.9457 
G01 X-11.2245 Y9.8343 
G01 X-11.2016 Y9.8894 
G01 X-11.1594 Y9.9316 
G01 X-11.1043 Y9.9545 
G01 X-9.2157 Y9.9545 
G01 X-9.1606 Y9.9316 
G01 X-9.1184 Y9.8894 
G01 X-9.0955 Y9.8343 
G01 X-9.0955 Y7.9457 
G01 X-9.1184 Y7.8906 
G01 X-9.1209 Y7.8880 
G01 X-9.1209 Y6.3096 
G01 X-9.0506 Y6.3096 
G01 X-8.9955 Y6.2867 
G01 X-8.9533 Y6.2445 
G01 X-8.9304 Y6.1894 
G01 X-8.9304 Y3.9706 
G01 X-8.9533 Y3.9155 
G01 X-8.9955 Y3.8733 
G01 X-9.0506 Y3.8504 
G01 X-11.2694 Y3.8504 
G01 X-11.3245 Y3.8733 
G01 X-11.3667 Y3.9155 
G01 X-11.3896 Y3.9706 
G01 X-11.3896 Y6.1894 
G01 X-11.3667 Y6.2445 
G01 X-11.3245 Y6.2867 
G01 X-11.2694 Y6.3096 
G00 Z1.0000 
G00 X-59.5353 Y19.1378 
G01 Z-0.1700 F250.00 
G01 X-59.5078 Y19.3112 F250.00 
G01 X-59.4536 Y19.4781 
G01 X-59.3739 Y19.6345 
G01 X-59.2707 Y19.7766 
G01 X-59.1466 Y19.9007 
G01 X-59.0045 Y20.0039 
G01 X-58.8481 Y20.0836 
G01 X-58.6812 Y20.1378 
G01 X-58.5078 Y20.1653 
G01 X-58.3322 Y20.1653 
G01 X-58.1588 Y20.1378 
G01 X-57.9919 Y20.0836 
G01 X-57.8355 Y20.0039 
G01 X-57.6934 Y19.9007 
G01 X-57.5693 Y19.7766 
G01 X-57.4661 Y19.6345 
G01 X-57.3864 Y19.4781 
G01 X-57.3322 Y19.3112 
G01 X-57.3047 Y19.1378 
G01 X-57.3047 Y16.4222 
G01 X-57.3322 Y16.2488 
G01 X-57.3555 Y16.1770 
G01 X-57.3555 Y15.5657 
G01 X-57.3784 Y15.5106 
G01 X-57.4206 Y15.4684 
G01 X-57.4757 Y15.4455 
G01 X-58.0870 Y15.4455 
G01 X-58.1588 Y15.4222 
G01 X-58.3322 Y15.3947 
G01 X-61.0478 Y15.3947 
G01 X-61.2212 Y15.4222 
G01 X-61.2930 Y15.4455 
G01 X-61.9043 Y15.4455 
G01 X-61.9594 Y15.4684 
G01 X-62.0016 Y15.5106 
G01 X-62.0245 Y15.5657 
G01 X-62.0245 Y16.1770 
G01 X-62.0478 Y16.2488 
G01 X-62.0753 Y16.4222 
G01 X-62.0753 Y16.5978 
G01 X-62.0478 Y16.7712 
G01 X-62.0245 Y16.8430 
G01 X-62.0245 Y17.4543 
G01 X-62.0016 Y17.5094 
G01 X-61.9594 Y17.5516 
G01 X-61.9043 Y17.5745 
G01 X-61.2930 Y17.5745 
G01 X-61.2212 Y17.5978 
G01 X-61.0478 Y17.6253 
G01 X-59.5353 Y17.6253 
G01 X-59.5353 Y19.1378 
G00 Z1.0000 
G00 X-31.9555 Y15.5657 
G01 Z-0.1700 F250.00 
G01 X-31.9784 Y15.5106 F250.00 
G01 X-32.0206 Y15.4684 
G01 X-32.0757 Y15.4455 
G01 X-32.6870 Y15.4455 
G01 X-32.7588 Y15.4222 
G01 X-32.9322 Y15.3947 
G01 X-35.6478 Y15.3947 
G01 X-35.8212 Y15.4222 
G01 X-35.8930 Y15.4455 
G01 X-36.5043 Y15.4455 
G01 X-36.5594 Y15.4684 
G01 X-36.6016 Y15.5106 
G01 X-36.6245 Y15.5657 
G01 X-36.6245 Y16.1770 
G01 X-36.6478 Y16.2488 
G01 X-36.6753 Y16.4222 
G01 X-36.6753 Y16.5978 
G01 X-36.6478 Y16.7712 
G01 X-36.6245 Y16.8430 
G01 X-36.6245 Y17.4543 
G01 X-36.6016 Y17.5094 
G01 X-36.5594 Y17.5516 
G01 X-36.5043 Y17.5745 
G01 X-35.8930 Y17.5745 
G01 X-35.8212 Y17.5978 
G01 X-35.6478 Y17.6253 
G01 X-34.1353 Y17.6253 
G01 X-34.1353 Y19.1378 
G01 X-34.1078 Y19.3112 
G01 X-34.0536 Y19.4781 
G01 X-33.9739 Y19.6345 
G01 X-33.8707 Y19.7766 
G01 X-33.7466 Y19.9007 
G01 X-33.6045 Y20.0039 
G01 X-33.4481 Y20.0836 
G01 X-33.2812 Y20.1378 
G01 X-33.1078 Y20.1653 
G01 X-32.9322 Y20.1653 
G01 X-32.7588 Y20.1378 
G01 X-32.5919 Y20.0836 
G01 X-32.4355 Y20.0039 
G01 X-32.2934 Y19.9007 
G01 X-32.1693 Y19.7766 
G01 X-32.0661 Y19.6345 
G01 X-31.9864 Y19.4781 
G01 X-31.9322 Y19.3112 
G01 X-31.9047 Y19.1378 
G01 X-31.9047 Y16.4222 
G01 X-31.9322 Y16.2488 
G01 X-31.9555 Y16.1770 
G01 X-31.9555 Y15.5657 
G00 Z1.0000 
G00 X-69.5243 Y17.5745 
G01 Z-0.1700 F250.00 
G01 X-67.6357 Y17.5745 F250.00 
G01 X-67.5806 Y17.5516 
G01 X-67.5384 Y17.5094 
G01 X-67.5155 Y17.4543 
G01 X-67.5155 Y15.5657 
G01 X-67.5384 Y15.5106 
G01 X-67.5409 Y15.5080 
G01 X-67.5409 Y12.6182 
G01 X-67.5665 Y12.4567 
G01 X-67.6170 Y12.3011 
G01 X-67.6913 Y12.1554 
G01 X-67.7874 Y12.0231 
G01 X-67.9031 Y11.9074 
G01 X-68.0354 Y11.8113 
G01 X-68.1811 Y11.7370 
G01 X-68.3367 Y11.6865 
G01 X-68.4982 Y11.6609 
G01 X-77.7009 Y11.6609 
G01 X-77.7009 Y9.8920 
G01 X-77.6984 Y9.8894 
G01 X-77.6755 Y9.8343 
G01 X-77.6755 Y7.9457 
G01 X-77.6984 Y7.8906 
G01 X-77.7009 Y7.8880 
G01 X-77.7009 Y3.5791 
G01 X-54.3791 Y3.5791 
G01 X-54.3791 Y7.8880 
G01 X-54.3816 Y7.8906 
G01 X-54.4045 Y7.9457 
G01 X-54.4045 Y9.8343 
G01 X-54.3816 Y9.8894 
G01 X-54.3791 Y9.8920 
G01 X-54.3791 Y11.6609 
G01 X-55.9618 Y11.6609 
G01 X-56.1233 Y11.6865 
G01 X-56.2789 Y11.7370 
G01 X-56.4246 Y11.8113 
G01 X-56.5569 Y11.9074 
G01 X-56.6726 Y12.0231 
G01 X-56.7687 Y12.1554 
G01 X-56.8430 Y12.3011 
G01 X-56.8935 Y12.4567 
G01 X-56.9191 Y12.6182 
G01 X-56.9191 Y15.5080 
G01 X-56.9216 Y15.5106 
G01 X-56.9445 Y15.5657 
G01 X-56.9445 Y17.4543 
G01 X-56.9216 Y17.5094 
G01 X-56.8794 Y17.5516 
G01 X-56.8243 Y17.5745 
G01 X-54.9357 Y17.5745 
G01 X-54.8806 Y17.5516 
G01 X-54.8384 Y17.5094 
G01 X-54.8155 Y17.4543 
G01 X-54.8155 Y15.5657 
G01 X-54.8384 Y15.5106 
G01 X-54.8409 Y15.5080 
G01 X-54.8409 Y13.7391 
G01 X-44.2191 Y13.7391 
G01 X-44.2191 Y15.5080 
G01 X-44.2216 Y15.5106 
G01 X-44.2445 Y15.5657 
G01 X-44.2445 Y17.4543 
G01 X-44.2216 Y17.5094 
G01 X-44.1794 Y17.5516 
G01 X-44.1243 Y17.5745 
G01 X-42.2357 Y17.5745 
G01 X-42.1806 Y17.5516 
G01 X-42.1384 Y17.5094 
G01 X-42.1155 Y17.4543 
G01 X-42.1155 Y15.5657 
G01 X-42.1384 Y15.5106 
G01 X-42.1409 Y15.5080 
G01 X-42.1409 Y12.6182 
G01 X-42.1665 Y12.4567 
G01 X-42.2170 Y12.3011 
G01 X-42.2913 Y12.1554 
G01 X-42.3874 Y12.0231 
G01 X-42.5031 Y11.9074 
G01 X-42.6354 Y11.8113 
G01 X-42.7811 Y11.7370 
G01 X-42.9367 Y11.6865 
G01 X-43.0982 Y11.6609 
G01 X-52.3009 Y11.6609 
G01 X-52.3009 Y9.8920 
G01 X-52.2983 Y9.8894 
G01 X-52.2755 Y9.8343 
G01 X-52.2755 Y7.9457 
G01 X-52.2983 Y7.8906 
G01 X-52.3009 Y7.8880 
G01 X-52.3009 Y3.5791 
G01 X-28.9791 Y3.5791 
G01 X-28.9791 Y7.8880 
G01 X-28.9816 Y7.8906 
G01 X-29.0045 Y7.9457 
G01 X-29.0045 Y9.8343 
G01 X-28.9816 Y9.8894 
G01 X-28.9791 Y9.8920 
G01 X-28.9791 Y11.6609 
G01 X-30.5618 Y11.6609 
G01 X-30.7233 Y11.6865 
G01 X-30.8789 Y11.7370 
G01 X-31.0246 Y11.8113 
G01 X-31.1569 Y11.9074 
G01 X-31.2726 Y12.0231 
G01 X-31.3687 Y12.1554 
G01 X-31.4430 Y12.3011 
G01 X-31.4935 Y12.4567 
G01 X-31.5191 Y12.6182 
G01 X-31.5191 Y15.5080 
G01 X-31.5216 Y15.5106 
G01 X-31.5445 Y15.5657 
G01 X-31.5445 Y17.4543 
G01 X-31.5216 Y17.5094 
G01 X-31.4794 Y17.5516 
G01 X-31.4243 Y17.5745 
G01 X-29.5357 Y17.5745 
G01 X-29.4806 Y17.5516 
G01 X-29.4383 Y17.5094 
G01 X-29.4155 Y17.4543 
G01 X-29.4155 Y15.5657 
G01 X-29.4383 Y15.5106 
G01 X-29.4409 Y15.5080 
G01 X-29.4409 Y13.7391 
G01 X-18.8191 Y13.7391 
G01 X-18.8191 Y15.5080 
G01 X-18.8216 Y15.5106 
G01 X-18.8445 Y15.5657 
G01 X-18.8445 Y17.4543 
G01 X-18.8216 Y17.5094 
G01 X-18.7794 Y17.5516 
G01 X-18.7243 Y17.5745 
G01 X-16.8357 Y17.5745 
G01 X-16.7806 Y17.5516 
G01 X-16.7384 Y17.5094 
G01 X-16.7155 Y17.4543 
G01 X-16.7155 Y15.5657 
G01 X-16.7384 Y15.5106 
G01 X-16.7409 Y15.5080 
G01 X-16.7409 Y12.6182 
G01 X-16.7665 Y12.4567 
G01 X-16.8170 Y12.3011 
G01 X-16.8913 Y12.1554 
G01 X-16.9874 Y12.0231 
G01 X-17.1031 Y11.9074 
G01 X-17.2354 Y11.8113 
G01 X-17.3811 Y11.7370 
G01 X-17.5367 Y11.6865 
G01 X-17.6982 Y11.6609 
G01 X-26.9009 Y11.6609 
G01 X-26.9009 Y9.8920 
G01 X-26.8984 Y9.8894 
G01 X-26.8755 Y9.8343 
G01 X-26.8755 Y7.9457 
G01 X-26.8984 Y7.8906 
G01 X-26.9009 Y7.8880 
G01 X-26.9009 Y3.5791 
G01 X-6.1191 Y3.5791 
G01 X-6.1191 Y15.5080 
G01 X-6.1216 Y15.5106 
G01 X-6.1445 Y15.5657 
G01 X-6.1445 Y17.4543 
G01 X-6.1216 Y17.5094 
G01 X-6.0794 Y17.5516 
G01 X-6.0243 Y17.5745 
G01 X-4.1357 Y17.5745 
G01 X-4.0806 Y17.5516 
G01 X-4.0780 Y17.5491 
G01 X-2.3091 Y17.5491 
G01 X-2.3091 Y38.3309 
G01 X-2.8080 Y38.3309 
G01 X-2.8106 Y38.3284 
G01 X-2.8657 Y38.3055 
G01 X-3.4770 Y38.3055 
G01 X-3.5488 Y38.2822 
G01 X-3.7222 Y38.2547 
G01 X-3.8978 Y38.2547 
G01 X-4.0712 Y38.2822 
G01 X-4.1430 Y38.3055 
G01 X-4.7543 Y38.3055 
G01 X-4.8094 Y38.3284 
G01 X-4.8516 Y38.3706 
G01 X-4.8745 Y38.4257 
G01 X-4.8745 Y39.0370 
G01 X-4.8978 Y39.1088 
G01 X-4.9253 Y39.2822 
G01 X-4.9253 Y43.2229 
G01 X-4.9745 Y43.2433 
G01 X-5.0167 Y43.2855 
G01 X-5.0396 Y43.3406 
G01 X-5.0396 Y44.6809 
G01 X-11.6609 Y44.6809 
G01 X-11.6609 Y31.6682 
G01 X-11.6865 Y31.5067 
G01 X-11.7370 Y31.3511 
G01 X-11.8113 Y31.2054 
G01 X-11.9074 Y31.0731 
G01 X-12.0231 Y30.9574 
G01 X-12.1554 Y30.8613 
G01 X-12.3011 Y30.7870 
G01 X-12.4567 Y30.7365 
G01 X-12.6182 Y30.7109 
G01 X-63.5818 Y30.7109 
G01 X-63.7433 Y30.7365 
G01 X-63.8989 Y30.7870 
G01 X-64.0446 Y30.8613 
G01 X-64.1769 Y30.9574 
G01 X-64.2926 Y31.0731 
G01 X-64.3887 Y31.2054 
G01 X-64.4630 Y31.3511 
G01 X-64.5135 Y31.5067 
G01 X-64.5391 Y31.6682 
G01 X-64.5391 Y36.9118 
G01 X-64.5135 Y37.0733 
G01 X-64.4630 Y37.2289 
G01 X-64.3887 Y37.3746 
G01 X-64.2926 Y37.5069 
G01 X-64.1769 Y37.6226 
G01 X-64.0446 Y37.7187 
G01 X-63.8989 Y37.7930 
G01 X-63.7433 Y37.8435 
G01 X-63.5818 Y37.8691 
G01 X-48.0291 Y37.8691 
G01 X-48.0291 Y38.1818 
G01 X-48.0035 Y38.3433 
G01 X-47.9530 Y38.4989 
G01 X-47.8787 Y38.6446 
G01 X-47.7826 Y38.7769 
G01 X-47.6669 Y38.8926 
G01 X-47.5346 Y38.9887 
G01 X-47.3889 Y39.0630 
G01 X-47.2333 Y39.1135 
G01 X-47.0718 Y39.1391 
G01 X-40.5582 Y39.1391 
G01 X-40.3967 Y39.1135 
G01 X-40.2411 Y39.0630 
G01 X-40.0954 Y38.9887 
G01 X-39.9631 Y38.8926 
G01 X-39.8474 Y38.7769 
G01 X-39.7513 Y38.6446 
G01 X-39.6770 Y38.4989 
G01 X-39.6265 Y38.3433 
G01 X-39.6009 Y38.1818 
G01 X-39.6009 Y36.5991 
G01 X-16.2791 Y36.5991 
G01 X-16.2791 Y39.6009 
G01 X-17.8618 Y39.6009 
G01 X-18.0233 Y39.6265 
G01 X-18.1789 Y39.6770 
G01 X-18.3246 Y39.7513 
G01 X-18.4569 Y39.8474 
G01 X-18.5726 Y39.9631 
G01 X-18.6687 Y40.0954 
G01 X-18.7430 Y40.2411 
G01 X-18.7935 Y40.3967 
G01 X-18.8191 Y40.5582 
G01 X-18.8191 Y47.0718 
G01 X-18.7935 Y47.2333 
G01 X-18.7430 Y47.3889 
G01 X-18.6687 Y47.5346 
G01 X-18.5726 Y47.6669 
G01 X-18.4569 Y47.7826 
G01 X-18.3246 Y47.8787 
G01 X-18.1789 Y47.9530 
G01 X-18.0233 Y48.0035 
G01 X-17.8618 Y48.0291 
G01 X-1.1882 Y48.0291 
G01 X-1.0267 Y48.0035 
G01 X-0.8711 Y47.9530 
G01 X-0.7254 Y47.8787 
G01 X-0.5931 Y47.7826 
G01 X-0.4774 Y47.6669 
G01 X-0.3813 Y47.5346 
G01 X-0.3070 Y47.3889 
G01 X-0.2565 Y47.2333 
G01 X-0.2309 Y47.0718 
G01 X-0.2309 Y16.4282 
G01 X-0.2565 Y16.2667 
G01 X-0.3070 Y16.1111 
G01 X-0.3813 Y15.9654 
G01 X-0.4774 Y15.8331 
G01 X-0.5931 Y15.7174 
G01 X-0.7254 Y15.6213 
G01 X-0.8711 Y15.5470 
G01 X-1.0267 Y15.4965 
G01 X-1.1882 Y15.4709 
G01 X-4.0409 Y15.4709 
G01 X-4.0409 Y2.4582 
G01 X-4.0665 Y2.2967 
G01 X-4.1170 Y2.1411 
G01 X-4.1913 Y1.9954 
G01 X-4.2874 Y1.8631 
G01 X-4.4031 Y1.7474 
G01 X-4.5354 Y1.6513 
G01 X-4.6811 Y1.5770 
G01 X-4.8367 Y1.5265 
G01 X-4.9982 Y1.5009 
G01 X-78.8218 Y1.5009 
G01 X-78.9833 Y1.5265 
G01 X-79.1389 Y1.5770 
G01 X-79.2846 Y1.6513 
G01 X-79.4169 Y1.7474 
G01 X-79.5326 Y1.8631 
G01 X-79.6287 Y1.9954 
G01 X-79.7030 Y2.1411 
G01 X-79.7535 Y2.2967 
G01 X-79.7791 Y2.4582 
G01 X-79.7791 Y7.8880 
G01 X-79.7816 Y7.8906 
G01 X-79.8045 Y7.9457 
G01 X-79.8045 Y9.8343 
G01 X-79.7816 Y9.8894 
G01 X-79.7791 Y9.8920 
G01 X-79.7791 Y12.7818 
G01 X-79.7535 Y12.9433 
G01 X-79.7030 Y13.0989 
G01 X-79.6287 Y13.2446 
G01 X-79.5326 Y13.3769 
G01 X-79.4169 Y13.4926 
G01 X-79.2846 Y13.5887 
G01 X-79.1389 Y13.6630 
G01 X-78.9833 Y13.7135 
G01 X-78.8218 Y13.7391 
G01 X-69.6191 Y13.7391 
G01 X-69.6191 Y15.5080 
G01 X-69.6216 Y15.5106 
G01 X-69.6445 Y15.5657 
G01 X-69.6445 Y17.4543 
G01 X-69.6216 Y17.5094 
G01 X-69.5794 Y17.5516 
G01 X-69.5243 Y17.5745 
G00 Z1.0000 
G00 X-70.0555 Y15.5657 
G01 Z-0.1700 F250.00 
G01 X-70.0784 Y15.5106 F250.00 
G01 X-70.1206 Y15.4684 
G01 X-70.1757 Y15.4455 
G01 X-70.7870 Y15.4455 
G01 X-70.8588 Y15.4222 
G01 X-71.0322 Y15.3947 
G01 X-71.2078 Y15.3947 
G01 X-71.3812 Y15.4222 
G01 X-71.4530 Y15.4455 
G01 X-72.0643 Y15.4455 
G01 X-72.1194 Y15.4684 
G01 X-72.1616 Y15.5106 
G01 X-72.1845 Y15.5657 
G01 X-72.1845 Y16.1770 
G01 X-72.2078 Y16.2488 
G01 X-72.2353 Y16.4222 
G01 X-72.2353 Y19.1378 
G01 X-72.2078 Y19.3112 
G01 X-72.1536 Y19.4781 
G01 X-72.0739 Y19.6345 
G01 X-71.9707 Y19.7766 
G01 X-71.8466 Y19.9007 
G01 X-71.7045 Y20.0039 
G01 X-71.5481 Y20.0836 
G01 X-71.3812 Y20.1378 
G01 X-71.2078 Y20.1653 
G01 X-71.0322 Y20.1653 
G01 X-70.8588 Y20.1378 
G01 X-70.6919 Y20.0836 
G01 X-70.5355 Y20.0039 
G01 X-70.3934 Y19.9007 
G01 X-70.2693 Y19.7766 
G01 X-70.1661 Y19.6345 
G01 X-70.0864 Y19.4781 
G01 X-70.0322 Y19.3112 
G01 X-70.0047 Y19.1378 
G01 X-70.0047 Y16.4222 
G01 X-70.0322 Y16.2488 
G01 X-70.0555 Y16.1770 
G01 X-70.0555 Y15.5657 
G00 Z1.0000 
G00 X-75.1583 Y17.5094 
G01 Z-0.1700 F250.00 
G01 X-75.1355 Y17.4543 F250.00 
G01 X-75.1355 Y15.5657 
G01 X-75.1583 Y15.5106 
G01 X-75.2006 Y15.4684 
G01 X-75.2557 Y15.4455 
G01 X-77.1443 Y15.4455 
G01 X-77.1994 Y15.4684 
G01 X-77.2416 Y15.5106 
G01 X-77.2645 Y15.5657 
G01 X-77.2645 Y17.4543 
G01 X-77.2416 Y17.5094 
G01 X-77.2391 Y17.5120 
G01 X-77.2391 Y28.7988 
G01 X-77.2878 Y28.9488 
G01 X-77.3153 Y29.1222 
G01 X-77.3153 Y29.2978 
G01 X-77.2878 Y29.4712 
G01 X-77.2391 Y29.6212 
G01 X-77.2391 Y53.4218 
G01 X-77.2135 Y53.5833 
G01 X-77.1630 Y53.7389 
G01 X-77.0887 Y53.8846 
G01 X-76.9926 Y54.0169 
G01 X-76.8769 Y54.1326 
G01 X-76.7446 Y54.2287 
G01 X-76.5989 Y54.3030 
G01 X-76.4433 Y54.3535 
G01 X-76.2818 Y54.3791 
G01 X-53.1091 Y54.3791 
G01 X-53.1091 Y54.6631 
G01 X-53.1667 Y54.6631 
G01 X-53.2218 Y54.6860 
G01 X-53.2640 Y54.7282 
G01 X-53.2869 Y54.7833 
G01 X-53.2869 Y56.9767 
G01 X-53.2640 Y57.0318 
G01 X-53.2218 Y57.0740 
G01 X-53.1667 Y57.0969 
G01 X-50.9733 Y57.0969 
G01 X-50.9182 Y57.0740 
G01 X-50.8760 Y57.0318 
G01 X-50.8531 Y56.9767 
G01 X-50.8531 Y54.7833 
G01 X-50.8760 Y54.7282 
G01 X-50.9182 Y54.6860 
G01 X-50.9733 Y54.6631 
G01 X-51.0309 Y54.6631 
G01 X-51.0309 Y53.2582 
G01 X-51.0565 Y53.0967 
G01 X-51.1070 Y52.9411 
G01 X-51.1813 Y52.7954 
G01 X-51.2774 Y52.6631 
G01 X-51.3931 Y52.5474 
G01 X-51.5254 Y52.4513 
G01 X-51.6711 Y52.3770 
G01 X-51.8267 Y52.3265 
G01 X-51.9882 Y52.3009 
G01 X-71.3509 Y52.3009 
G01 X-71.3509 Y40.4091 
G01 X-50.5691 Y40.4091 
G01 X-50.5691 Y40.7218 
G01 X-50.5435 Y40.8833 
G01 X-50.4930 Y41.0389 
G01 X-50.4187 Y41.1846 
G01 X-50.3226 Y41.3169 
G01 X-50.2069 Y41.4326 
G01 X-50.0746 Y41.5287 
G01 X-49.9289 Y41.6030 
G01 X-49.7733 Y41.6535 
G01 X-49.6118 Y41.6791 
G01 X-41.8061 Y41.6791 
G01 X-41.8061 Y41.6859 
G01 X-41.7832 Y41.7410 
G01 X-41.7410 Y41.7832 
G01 X-41.6859 Y41.8061 
G01 X-39.5941 Y41.8061 
G01 X-39.5390 Y41.7832 
G01 X-39.4967 Y41.7410 
G01 X-39.4739 Y41.6859 
G01 X-39.4739 Y39.5941 
G01 X-39.4967 Y39.5390 
G01 X-39.5390 Y39.4967 
G01 X-39.5941 Y39.4739 
G01 X-41.6859 Y39.4739 
G01 X-41.7410 Y39.4967 
G01 X-41.7832 Y39.5390 
G01 X-41.8061 Y39.5941 
G01 X-41.8061 Y39.6009 
G01 X-48.4909 Y39.6009 
G01 X-48.4909 Y39.2882 
G01 X-48.5165 Y39.1267 
G01 X-48.5670 Y38.9711 
G01 X-48.6413 Y38.8254 
G01 X-48.7374 Y38.6931 
G01 X-48.8531 Y38.5774 
G01 X-48.9854 Y38.4813 
G01 X-49.1311 Y38.4070 
G01 X-49.2867 Y38.3565 
G01 X-49.4482 Y38.3309 
G01 X-65.0009 Y38.3309 
G01 X-65.0009 Y30.3253 
G01 X-25.3122 Y30.3253 
G01 X-25.1388 Y30.2978 
G01 X-24.9888 Y30.2491 
G01 X-11.2753 Y30.2491 
G01 X-11.2753 Y43.2678 
G01 X-11.2478 Y43.4412 
G01 X-11.2245 Y43.5130 
G01 X-11.2245 Y44.1243 
G01 X-11.2016 Y44.1794 
G01 X-11.1594 Y44.2216 
G01 X-11.1043 Y44.2445 
G01 X-10.4930 Y44.2445 
G01 X-10.4212 Y44.2678 
G01 X-10.2478 Y44.2953 
G01 X-10.0722 Y44.2953 
G01 X-9.8988 Y44.2678 
G01 X-9.8270 Y44.2445 
G01 X-9.2157 Y44.2445 
G01 X-9.1606 Y44.2216 
G01 X-9.1184 Y44.1794 
G01 X-9.0955 Y44.1243 
G01 X-9.0955 Y43.5130 
G01 X-9.0722 Y43.4412 
G01 X-9.0447 Y43.2678 
G01 X-9.0447 Y36.5991 
G01 X-4.9982 Y36.5991 
G01 X-4.9253 Y36.5875 
G01 X-4.9253 Y36.9178 
G01 X-4.8978 Y37.0912 
G01 X-4.8745 Y37.1630 
G01 X-4.8745 Y37.7743 
G01 X-4.8516 Y37.8294 
G01 X-4.8094 Y37.8716 
G01 X-4.7543 Y37.8945 
G01 X-4.1430 Y37.8945 
G01 X-4.0712 Y37.9178 
G01 X-3.8978 Y37.9453 
G01 X-3.7222 Y37.9453 
G01 X-3.5488 Y37.9178 
G01 X-3.4770 Y37.8945 
G01 X-2.8657 Y37.8945 
G01 X-2.8106 Y37.8716 
G01 X-2.7684 Y37.8294 
G01 X-2.7455 Y37.7743 
G01 X-2.7455 Y37.1630 
G01 X-2.7222 Y37.0912 
G01 X-2.6947 Y36.9178 
G01 X-2.6947 Y34.2471 
G01 X-2.6455 Y34.2267 
G01 X-2.6033 Y34.1845 
G01 X-2.5804 Y34.1294 
G01 X-2.5804 Y33.7348 
G01 X-2.4939 Y33.5651 
G01 X-2.4249 Y33.3525 
G01 X-2.3899 Y33.1318 
G01 X-2.3899 Y32.9082 
G01 X-2.4249 Y32.6875 
G01 X-2.4939 Y32.4749 
G01 X-2.5804 Y32.3052 
G01 X-2.5804 Y31.9106 
G01 X-2.6033 Y31.8555 
G01 X-2.6455 Y31.8133 
G01 X-2.7006 Y31.7904 
G01 X-2.7709 Y31.7904 
G01 X-2.7709 Y31.6682 
G01 X-2.7965 Y31.5067 
G01 X-2.8470 Y31.3511 
G01 X-2.9213 Y31.2054 
G01 X-3.0174 Y31.0731 
G01 X-3.1331 Y30.9574 
G01 X-3.2654 Y30.8613 
G01 X-3.4111 Y30.7870 
G01 X-3.5667 Y30.7365 
G01 X-3.7282 Y30.7109 
G01 X-9.0447 Y30.7109 
G01 X-9.0447 Y29.1222 
G01 X-9.0722 Y28.9488 
G01 X-9.1264 Y28.7819 
G01 X-9.2061 Y28.6255 
G01 X-9.3093 Y28.4834 
G01 X-9.4334 Y28.3593 
G01 X-9.5755 Y28.2561 
G01 X-9.7319 Y28.1764 
G01 X-9.8988 Y28.1222 
G01 X-10.0722 Y28.0947 
G01 X-10.2478 Y28.0947 
G01 X-10.4212 Y28.1222 
G01 X-10.5712 Y28.1709 
G01 X-24.9888 Y28.1709 
G01 X-25.1388 Y28.1222 
G01 X-25.3122 Y28.0947 
G01 X-75.1609 Y28.0947 
G01 X-75.1609 Y17.5120 
G01 X-75.1583 Y17.5094 
G00 Z1.0000 
G00 X-77.6984 Y17.5094 
G01 Z-0.1700 F250.00 
G01 X-77.6755 Y17.4543 F250.00 
G01 X-77.6755 Y15.5657 
G01 X-77.6984 Y15.5106 
G01 X-77.7406 Y15.4684 
G01 X-77.7957 Y15.4455 
G01 X-79.6843 Y15.4455 
G01 X-79.7394 Y15.4684 
G01 X-79.7816 Y15.5106 
G01 X-79.8045 Y15.5657 
G01 X-79.8045 Y17.4543 
G01 X-79.7816 Y17.5094 
G01 X-79.7536 Y17.5374 
G01 X-79.7791 Y17.6982 
G01 X-79.7791 Y20.4018 
G01 X-79.7535 Y20.5633 
G01 X-79.7030 Y20.7189 
G01 X-79.6287 Y20.8646 
G01 X-79.5326 Y20.9969 
G01 X-79.4169 Y21.1126 
G01 X-79.2846 Y21.2087 
G01 X-79.1389 Y21.2830 
G01 X-78.9833 Y21.3335 
G01 X-78.8218 Y21.3591 
G01 X-78.6582 Y21.3591 
G01 X-78.4967 Y21.3335 
G01 X-78.3411 Y21.2830 
G01 X-78.1954 Y21.2087 
G01 X-78.0631 Y21.1126 
G01 X-77.9474 Y20.9969 
G01 X-77.8513 Y20.8646 
G01 X-77.7770 Y20.7189 
G01 X-77.7265 Y20.5633 
G01 X-77.7009 Y20.4018 
G01 X-77.7009 Y17.6982 
G01 X-77.7264 Y17.5374 
G01 X-77.6984 Y17.5094 
G00 Z1.0000 
G00 X-72.0643 Y9.9545 
G01 Z-0.1700 F250.00 
G01 X-70.1757 Y9.9545 F250.00 
G01 X-70.1206 Y9.9316 
G01 X-70.0784 Y9.8894 
G01 X-70.0555 Y9.8343 
G01 X-70.0555 Y7.9457 
G01 X-70.0784 Y7.8906 
G01 X-70.0809 Y7.8880 
G01 X-70.0809 Y6.3096 
G01 X-70.0106 Y6.3096 
G01 X-69.9555 Y6.2867 
G01 X-69.9133 Y6.2445 
G01 X-69.8904 Y6.1894 
G01 X-69.8904 Y3.9706 
G01 X-69.9133 Y3.9155 
G01 X-69.9555 Y3.8733 
G01 X-70.0106 Y3.8504 
G01 X-72.2294 Y3.8504 
G01 X-72.2845 Y3.8733 
G01 X-72.3267 Y3.9155 
G01 X-72.3496 Y3.9706 
G01 X-72.3496 Y6.1894 
G01 X-72.3267 Y6.2445 
G01 X-72.2845 Y6.2867 
G01 X-72.2294 Y6.3096 
G01 X-72.1591 Y6.3096 
G01 X-72.1591 Y7.8880 
G01 X-72.1616 Y7.8906 
G01 X-72.1845 Y7.9457 
G01 X-72.1845 Y9.8343 
G01 X-72.1616 Y9.8894 
G01 X-72.1194 Y9.9316 
G01 X-72.0643 Y9.9545 
G00 Z1.0000 
G00 X-66.9843 Y9.9545 
G01 Z-0.1700 F250.00 
G01 X-65.0957 Y9.9545 F250.00 
G01 X-65.0406 Y9.9316 
G01 X-64.9984 Y9.8894 
G01 X-64.9755 Y9.8343 
G01 X-64.9755 Y7.9457 
G01 X-64.9984 Y7.8906 
G01 X-65.0009 Y7.8880 
G01 X-65.0009 Y6.3096 
G01 X-64.9306 Y6.3096 
G01 X-64.8755 Y6.2867 
G01 X-64.8333 Y6.2445 
G01 X-64.8104 Y6.1894 
G01 X-64.8104 Y3.9706 
G01 X-64.8333 Y3.9155 
G01 X-64.8755 Y3.8733 
G01 X-64.9306 Y3.8504 
G01 X-67.1494 Y3.8504 
G01 X-67.2045 Y3.8733 
G01 X-67.2467 Y3.9155 
G01 X-67.2696 Y3.9706 
G01 X-67.2696 Y6.1894 
G01 X-67.2467 Y6.2445 
G01 X-67.2045 Y6.2867 
G01 X-67.1494 Y6.3096 
G01 X-67.0791 Y6.3096 
G01 X-67.0791 Y7.8880 
G01 X-67.0816 Y7.8906 
G01 X-67.1045 Y7.9457 
G01 X-67.1045 Y9.8343 
G01 X-67.0816 Y9.8894 
G01 X-67.0394 Y9.9316 
G01 X-66.9843 Y9.9545 
G00 Z1.0000 
G00 X-77.1443 Y9.9545 
G01 Z-0.1700 F250.00 
G01 X-75.2557 Y9.9545 F250.00 
G01 X-75.2006 Y9.9316 
G01 X-75.1583 Y9.8894 
G01 X-75.1355 Y9.8343 
G01 X-75.1355 Y7.9457 
G01 X-75.1583 Y7.8906 
G01 X-75.1609 Y7.8880 
G01 X-75.1609 Y6.3096 
G01 X-75.0906 Y6.3096 
G01 X-75.0355 Y6.2867 
G01 X-74.9933 Y6.2445 
G01 X-74.9704 Y6.1894 
G01 X-74.9704 Y3.9706 
G01 X-74.9933 Y3.9155 
G01 X-75.0355 Y3.8733 
G01 X-75.0906 Y3.8504 
G01 X-77.3094 Y3.8504 
G01 X-77.3645 Y3.8733 
G01 X-77.4067 Y3.9155 
G01 X-77.4296 Y3.9706 
G01 X-77.4296 Y6.1894 
G01 X-77.4067 Y6.2445 
G01 X-77.3645 Y6.2867 
G01 X-77.3094 Y6.3096 
G01 X-77.2391 Y6.3096 
G01 X-77.2391 Y7.8880 
G01 X-77.2416 Y7.8906 
G01 X-77.2645 Y7.9457 
G01 X-77.2645 Y9.8343 
G01 X-77.2416 Y9.8894 
G01 X-77.1994 Y9.9316 
G01 X-77.1443 Y9.9545 
G00 Z1.0000 
G00 X-61.9043 Y9.9545 
G01 Z-0.1700 F250.00 
G01 X-60.0157 Y9.9545 F250.00 
G01 X-59.9606 Y9.9316 
G01 X-59.9184 Y9.8894 
G01 X-59.8955 Y9.8343 
G01 X-59.8955 Y7.9457 
G01 X-59.9184 Y7.8906 
G01 X-59.9209 Y7.8880 
G01 X-59.9209 Y6.3096 
G01 X-59.8506 Y6.3096 
G01 X-59.7955 Y6.2867 
G01 X-59.7533 Y6.2445 
G01 X-59.7304 Y6.1894 
G01 X-59.7304 Y3.9706 
G01 X-59.7533 Y3.9155 
G01 X-59.7955 Y3.8733 
G01 X-59.8506 Y3.8504 
G01 X-62.0694 Y3.8504 
G01 X-62.1245 Y3.8733 
G01 X-62.1667 Y3.9155 
G01 X-62.1896 Y3.9706 
G01 X-62.1896 Y6.1894 
G01 X-62.1667 Y6.2445 
G01 X-62.1245 Y6.2867 
G01 X-62.0694 Y6.3096 
G01 X-61.9991 Y6.3096 
G01 X-61.9991 Y7.8880 
G01 X-62.0016 Y7.8906 
G01 X-62.0245 Y7.9457 
G01 X-62.0245 Y9.8343 
G01 X-62.0016 Y9.8894 
G01 X-61.9594 Y9.9316 
G01 X-61.9043 Y9.9545 
G00 Z1.0000 
G00 X-39.0443 Y17.5745 
G01 Z-0.1700 F250.00 
G01 X-37.1557 Y17.5745 F250.00 
G01 X-37.1006 Y17.5516 
G01 X-37.0584 Y17.5094 
G01 X-37.0355 Y17.4543 
G01 X-37.0355 Y15.5657 
G01 X-37.0584 Y15.5106 
G01 X-37.0609 Y15.5080 
G01 X-37.0609 Y13.7391 
G01 X-32.9382 Y13.7391 
G01 X-32.7767 Y13.7135 
G01 X-32.6211 Y13.6630 
G01 X-32.4754 Y13.5887 
G01 X-32.3431 Y13.4926 
G01 X-32.2274 Y13.3769 
G01 X-32.1313 Y13.2446 
G01 X-32.0570 Y13.0989 
G01 X-32.0065 Y12.9433 
G01 X-31.9809 Y12.7818 
G01 X-31.9809 Y6.3096 
G01 X-31.9106 Y6.3096 
G01 X-31.8555 Y6.2867 
G01 X-31.8133 Y6.2445 
G01 X-31.7904 Y6.1894 
G01 X-31.7904 Y3.9706 
G01 X-31.8133 Y3.9155 
G01 X-31.8555 Y3.8733 
G01 X-31.9106 Y3.8504 
G01 X-34.1294 Y3.8504 
G01 X-34.1845 Y3.8733 
G01 X-34.2267 Y3.9155 
G01 X-34.2496 Y3.9706 
G01 X-34.2496 Y6.1894 
G01 X-34.2267 Y6.2445 
G01 X-34.1845 Y6.2867 
G01 X-34.1294 Y6.3096 
G01 X-34.0591 Y6.3096 
G01 X-34.0591 Y11.6609 
G01 X-38.1818 Y11.6609 
G01 X-38.3433 Y11.6865 
G01 X-38.4989 Y11.7370 
G01 X-38.6446 Y11.8113 
G01 X-38.7769 Y11.9074 
G01 X-38.8926 Y12.0231 
G01 X-38.9887 Y12.1554 
G01 X-39.0630 Y12.3011 
G01 X-39.1135 Y12.4567 
G01 X-39.1391 Y12.6182 
G01 X-39.1391 Y15.5080 
G01 X-39.1416 Y15.5106 
G01 X-39.1645 Y15.5657 
G01 X-39.1645 Y17.4543 
G01 X-39.1416 Y17.5094 
G01 X-39.0994 Y17.5516 
G01 X-39.0443 Y17.5745 
G00 Z1.0000 
G00 X-39.5755 Y15.5657 
G01 Z-0.1700 F250.00 
G01 X-39.5984 Y15.5106 F250.00 
G01 X-39.6406 Y15.4684 
G01 X-39.6957 Y15.4455 
G01 X-40.3070 Y15.4455 
G01 X-40.3788 Y15.4222 
G01 X-40.5522 Y15.3947 
G01 X-40.7278 Y15.3947 
G01 X-40.9012 Y15.4222 
G01 X-40.9730 Y15.4455 
G01 X-41.5843 Y15.4455 
G01 X-41.6394 Y15.4684 
G01 X-41.6816 Y15.5106 
G01 X-41.7045 Y15.5657 
G01 X-41.7045 Y16.1770 
G01 X-41.7278 Y16.2488 
G01 X-41.7553 Y16.4222 
G01 X-41.7553 Y21.6778 
G01 X-41.7278 Y21.8512 
G01 X-41.6736 Y22.0181 
G01 X-41.5939 Y22.1745 
G01 X-41.4907 Y22.3166 
G01 X-41.3666 Y22.4407 
G01 X-41.2245 Y22.5439 
G01 X-41.0681 Y22.6236 
G01 X-40.9012 Y22.6778 
G01 X-40.7278 Y22.7053 
G01 X-27.8522 Y22.7053 
G01 X-27.6788 Y22.6778 
G01 X-27.5119 Y22.6236 
G01 X-27.3555 Y22.5439 
G01 X-27.2134 Y22.4407 
G01 X-27.0893 Y22.3166 
G01 X-26.9861 Y22.1745 
G01 X-26.9064 Y22.0181 
G01 X-26.8522 Y21.8512 
G01 X-26.8247 Y21.6778 
G01 X-26.8247 Y16.4222 
G01 X-26.8522 Y16.2488 
G01 X-26.8755 Y16.1770 
G01 X-26.8755 Y15.5657 
G01 X-26.8984 Y15.5106 
G01 X-26.9406 Y15.4684 
G01 X-26.9957 Y15.4455 
G01 X-27.6070 Y15.4455 
G01 X-27.6788 Y15.4222 
G01 X-27.8522 Y15.3947 
G01 X-28.0278 Y15.3947 
G01 X-28.2012 Y15.4222 
G01 X-28.2730 Y15.4455 
G01 X-28.8843 Y15.4455 
G01 X-28.9394 Y15.4684 
G01 X-28.9816 Y15.5106 
G01 X-29.0045 Y15.5657 
G01 X-29.0045 Y16.1770 
G01 X-29.0278 Y16.2488 
G01 X-29.0553 Y16.4222 
G01 X-29.0553 Y20.4747 
G01 X-39.5247 Y20.4747 
G01 X-39.5247 Y16.4222 
G01 X-39.5522 Y16.2488 
G01 X-39.5755 Y16.1770 
G01 X-39.5755 Y15.5657 
G00 Z1.0000 
G00 X-44.6555 Y15.5657 
G01 Z-0.1700 F250.00 
G01 X-44.6784 Y15.5106 F250.00 
G01 X-44.7206 Y15.4684 
G01 X-44.7757 Y15.4455 
G01 X-45.3870 Y15.4455 
G01 X-45.4588 Y15.4222 
G01 X-45.6322 Y15.3947 
G01 X-45.8078 Y15.3947 
G01 X-45.9812 Y15.4222 
G01 X-46.0530 Y15.4455 
G01 X-46.6643 Y15.4455 
G01 X-46.7194 Y15.4684 
G01 X-46.7616 Y15.5106 
G01 X-46.7845 Y15.5657 
G01 X-46.7845 Y16.1770 
G01 X-46.8078 Y16.2488 
G01 X-46.8353 Y16.4222 
G01 X-46.8353 Y19.1378 
G01 X-46.8078 Y19.3112 
G01 X-46.7536 Y19.4781 
G01 X-46.6739 Y19.6345 
G01 X-46.5707 Y19.7766 
G01 X-46.4466 Y19.9007 
G01 X-46.3045 Y20.0039 
G01 X-46.1481 Y20.0836 
G01 X-45.9812 Y20.1378 
G01 X-45.8078 Y20.1653 
G01 X-45.6322 Y20.1653 
G01 X-45.4588 Y20.1378 
G01 X-45.2919 Y20.0836 
G01 X-45.1355 Y20.0039 
G01 X-44.9934 Y19.9007 
G01 X-44.8693 Y19.7766 
G01 X-44.7661 Y19.6345 
G01 X-44.6864 Y19.4781 
G01 X-44.6322 Y19.3112 
G01 X-44.6047 Y19.1378 
G01 X-44.6047 Y16.4222 
G01 X-44.6322 Y16.2488 
G01 X-44.6555 Y16.1770 
G01 X-44.6555 Y15.5657 
G00 Z1.0000 
G00 X-49.7584 Y17.5094 
G01 Z-0.1700 F250.00 
G01 X-49.7355 Y17.4543 F250.00 
G01 X-49.7355 Y15.5657 
G01 X-49.7584 Y15.5106 
G01 X-49.8006 Y15.4684 
G01 X-49.8557 Y15.4455 
G01 X-51.7443 Y15.4455 
G01 X-51.7994 Y15.4684 
G01 X-51.8416 Y15.5106 
G01 X-51.8645 Y15.5657 
G01 X-51.8645 Y17.4543 
G01 X-51.8416 Y17.5094 
G01 X-51.8391 Y17.5120 
G01 X-51.8391 Y19.1318 
G01 X-51.8135 Y19.2933 
G01 X-51.7630 Y19.4489 
G01 X-51.6887 Y19.5946 
G01 X-51.5926 Y19.7269 
G01 X-51.4769 Y19.8426 
G01 X-51.3446 Y19.9387 
G01 X-51.1989 Y20.0130 
G01 X-51.0433 Y20.0635 
G01 X-50.8818 Y20.0891 
G01 X-50.7182 Y20.0891 
G01 X-50.5567 Y20.0635 
G01 X-50.4011 Y20.0130 
G01 X-50.2554 Y19.9387 
G01 X-50.1231 Y19.8426 
G01 X-50.0074 Y19.7269 
G01 X-49.9113 Y19.5946 
G01 X-49.8370 Y19.4489 
G01 X-49.7865 Y19.2933 
G01 X-49.7609 Y19.1318 
G01 X-49.7609 Y17.5120 
G01 X-49.7584 Y17.5094 
G00 Z1.0000 
G00 X-52.2755 Y15.5657 
G01 Z-0.1700 F250.00 
G01 X-52.2983 Y15.5106 F250.00 
G01 X-52.3406 Y15.4684 
G01 X-52.3957 Y15.4455 
G01 X-53.0070 Y15.4455 
G01 X-53.0788 Y15.4222 
G01 X-53.2522 Y15.3947 
G01 X-53.4278 Y15.3947 
G01 X-53.6012 Y15.4222 
G01 X-53.6730 Y15.4455 
G01 X-54.2843 Y15.4455 
G01 X-54.3394 Y15.4684 
G01 X-54.3816 Y15.5106 
G01 X-54.4045 Y15.5657 
G01 X-54.4045 Y16.1770 
G01 X-54.4278 Y16.2488 
G01 X-54.4553 Y16.4222 
G01 X-54.4553 Y20.4747 
G01 X-64.9247 Y20.4747 
G01 X-64.9247 Y16.4222 
G01 X-64.9522 Y16.2488 
G01 X-64.9755 Y16.1770 
G01 X-64.9755 Y15.5657 
G01 X-64.9984 Y15.5106 
G01 X-65.0406 Y15.4684 
G01 X-65.0957 Y15.4455 
G01 X-65.7070 Y15.4455 
G01 X-65.7788 Y15.4222 
G01 X-65.9522 Y15.3947 
G01 X-66.1278 Y15.3947 
G01 X-66.3012 Y15.4222 
G01 X-66.3730 Y15.4455 
G01 X-66.9843 Y15.4455 
G01 X-67.0394 Y15.4684 
G01 X-67.0816 Y15.5106 
G01 X-67.1045 Y15.5657 
G01 X-67.1045 Y16.1770 
G01 X-67.1278 Y16.2488 
G01 X-67.1553 Y16.4222 
G01 X-67.1553 Y21.6778 
G01 X-67.1278 Y21.8512 
G01 X-67.0736 Y22.0181 
G01 X-66.9939 Y22.1745 
G01 X-66.8907 Y22.3166 
G01 X-66.7666 Y22.4407 
G01 X-66.6245 Y22.5439 
G01 X-66.4681 Y22.6236 
G01 X-66.3012 Y22.6778 
G01 X-66.1278 Y22.7053 
G01 X-53.2522 Y22.7053 
G01 X-53.0788 Y22.6778 
G01 X-52.9119 Y22.6236 
G01 X-52.7555 Y22.5439 
G01 X-52.6134 Y22.4407 
G01 X-52.4893 Y22.3166 
G01 X-52.3861 Y22.1745 
G01 X-52.3064 Y22.0181 
G01 X-52.2522 Y21.8512 
G01 X-52.2247 Y21.6778 
G01 X-52.2247 Y16.4222 
G01 X-52.2522 Y16.2488 
G01 X-52.2755 Y16.1770 
G01 X-52.2755 Y15.5657 
G00 Z1.0000 
G00 X-49.2043 Y9.9545 
G01 Z-0.1700 F250.00 
G01 X-47.3157 Y9.9545 F250.00 
G01 X-47.2606 Y9.9316 
G01 X-47.2184 Y9.8894 
G01 X-47.1955 Y9.8343 
G01 X-47.1955 Y7.9457 
G01 X-47.2184 Y7.8906 
G01 X-47.2209 Y7.8880 
G01 X-47.2209 Y6.3096 
G01 X-47.1506 Y6.3096 
G01 X-47.0955 Y6.2867 
G01 X-47.0533 Y6.2445 
G01 X-47.0304 Y6.1894 
G01 X-47.0304 Y3.9706 
G01 X-47.0533 Y3.9155 
G01 X-47.0955 Y3.8733 
G01 X-47.1506 Y3.8504 
G01 X-49.3694 Y3.8504 
G01 X-49.4245 Y3.8733 
G01 X-49.4667 Y3.9155 
G01 X-49.4896 Y3.9706 
G01 X-49.4896 Y6.1894 
G01 X-49.4667 Y6.2445 
G01 X-49.4245 Y6.2867 
G01 X-49.3694 Y6.3096 
G01 X-49.2991 Y6.3096 
G01 X-49.2991 Y7.8880 
G01 X-49.3016 Y7.8906 
G01 X-49.3245 Y7.9457 
G01 X-49.3245 Y9.8343 
G01 X-49.3016 Y9.8894 
G01 X-49.2594 Y9.9316 
G01 X-49.2043 Y9.9545 
G00 Z1.0000 
G00 X-44.1243 Y9.9545 
G01 Z-0.1700 F250.00 
G01 X-42.2357 Y9.9545 F250.00 
G01 X-42.1806 Y9.9316 
G01 X-42.1384 Y9.8894 
G01 X-42.1155 Y9.8343 
G01 X-42.1155 Y7.9457 
G01 X-42.1384 Y7.8906 
G01 X-42.1409 Y7.8880 
G01 X-42.1409 Y6.3096 
G01 X-42.0706 Y6.3096 
G01 X-42.0155 Y6.2867 
G01 X-41.9733 Y6.2445 
G01 X-41.9504 Y6.1894 
G01 X-41.9504 Y3.9706 
G01 X-41.9733 Y3.9155 
G01 X-42.0155 Y3.8733 
G01 X-42.0706 Y3.8504 
G01 X-44.2894 Y3.8504 
G01 X-44.3445 Y3.8733 
G01 X-44.3867 Y3.9155 
G01 X-44.4096 Y3.9706 
G01 X-44.4096 Y6.1894 
G01 X-44.3867 Y6.2445 
G01 X-44.3445 Y6.2867 
G01 X-44.2894 Y6.3096 
G01 X-44.2191 Y6.3096 
G01 X-44.2191 Y7.8880 
G01 X-44.2216 Y7.8906 
G01 X-44.2445 Y7.9457 
G01 X-44.2445 Y9.8343 
G01 X-44.2216 Y9.8894 
G01 X-44.1794 Y9.9316 
G01 X-44.1243 Y9.9545 
G00 Z1.0000 
G00 X-39.0443 Y9.9545 
G01 Z-0.1700 F250.00 
G01 X-37.1557 Y9.9545 F250.00 
G01 X-37.1006 Y9.9316 
G01 X-37.0584 Y9.8894 
G01 X-37.0355 Y9.8343 
G01 X-37.0355 Y7.9457 
G01 X-37.0584 Y7.8906 
G01 X-37.0609 Y7.8880 
G01 X-37.0609 Y6.3096 
G01 X-36.9906 Y6.3096 
G01 X-36.9355 Y6.2867 
G01 X-36.8933 Y6.2445 
G01 X-36.8704 Y6.1894 
G01 X-36.8704 Y3.9706 
G01 X-36.8933 Y3.9155 
G01 X-36.9355 Y3.8733 
G01 X-36.9906 Y3.8504 
G01 X-39.2094 Y3.8504 
G01 X-39.2645 Y3.8733 
G01 X-39.3067 Y3.9155 
G01 X-39.3296 Y3.9706 
G01 X-39.3296 Y6.1894 
G01 X-39.3067 Y6.2445 
G01 X-39.2645 Y6.2867 
G01 X-39.2094 Y6.3096 
G01 X-39.1391 Y6.3096 
G01 X-39.1391 Y7.8880 
G01 X-39.1416 Y7.8906 
G01 X-39.1645 Y7.9457 
G01 X-39.1645 Y9.8343 
G01 X-39.1416 Y9.8894 
G01 X-39.0994 Y9.9316 
G01 X-39.0443 Y9.9545 
G00 Z1.0000 
G00 X-9.1606 Y15.4684 
G01 Z-0.1700 F250.00 
G01 X-9.2157 Y15.4455 F250.00 
G01 X-9.8270 Y15.4455 
G01 X-9.8988 Y15.4222 
G01 X-10.0722 Y15.3947 
G01 X-10.2478 Y15.3947 
G01 X-10.4212 Y15.4222 
G01 X-10.4930 Y15.4455 
G01 X-11.1043 Y15.4455 
G01 X-11.1594 Y15.4684 
G01 X-11.2016 Y15.5106 
G01 X-11.2245 Y15.5657 
G01 X-11.2245 Y16.1770 
G01 X-11.2478 Y16.2488 
G01 X-11.2753 Y16.4222 
G01 X-11.2753 Y19.1378 
G01 X-11.2478 Y19.3112 
G01 X-11.1936 Y19.4781 
G01 X-11.1139 Y19.6345 
G01 X-11.0107 Y19.7766 
G01 X-10.8866 Y19.9007 
G01 X-10.7445 Y20.0039 
G01 X-10.5881 Y20.0836 
G01 X-10.4212 Y20.1378 
G01 X-10.2478 Y20.1653 
G01 X-10.0722 Y20.1653 
G01 X-9.8988 Y20.1378 
G01 X-9.7319 Y20.0836 
G01 X-9.5755 Y20.0039 
G01 X-9.4334 Y19.9007 
G01 X-9.3093 Y19.7766 
G01 X-9.2061 Y19.6345 
G01 X-9.1264 Y19.4781 
G01 X-9.0722 Y19.3112 
G01 X-9.0447 Y19.1378 
G01 X-9.0447 Y17.5491 
G01 X-8.6220 Y17.5491 
G01 X-8.6194 Y17.5516 
G01 X-8.5643 Y17.5745 
G01 X-6.6757 Y17.5745 
G01 X-6.6206 Y17.5516 
G01 X-6.5784 Y17.5094 
G01 X-6.5555 Y17.4543 
G01 X-6.5555 Y15.5657 
G01 X-6.5784 Y15.5106 
G01 X-6.6206 Y15.4684 
G01 X-6.6757 Y15.4455 
G01 X-8.5643 Y15.4455 
G01 X-8.6194 Y15.4684 
G01 X-8.6220 Y15.4709 
G01 X-9.1580 Y15.4709 
G01 X-9.1606 Y15.4684 
G00 Z1.0000 
G00 X-13.6443 Y17.5745 
G01 Z-0.1700 F250.00 
G01 X-11.7557 Y17.5745 F250.00 
G01 X-11.7006 Y17.5516 
G01 X-11.6584 Y17.5094 
G01 X-11.6355 Y17.4543 
G01 X-11.6355 Y15.5657 
G01 X-11.6584 Y15.5106 
G01 X-11.6609 Y15.5080 
G01 X-11.6609 Y13.7391 
G01 X-7.5382 Y13.7391 
G01 X-7.3767 Y13.7135 
G01 X-7.2211 Y13.6630 
G01 X-7.0754 Y13.5887 
G01 X-6.9431 Y13.4926 
G01 X-6.8274 Y13.3769 
G01 X-6.7313 Y13.2446 
G01 X-6.6570 Y13.0989 
G01 X-6.6065 Y12.9433 
G01 X-6.5809 Y12.7818 
G01 X-6.5809 Y6.3096 
G01 X-6.5106 Y6.3096 
G01 X-6.4555 Y6.2867 
G01 X-6.4133 Y6.2445 
G01 X-6.3904 Y6.1894 
G01 X-6.3904 Y3.9706 
G01 X-6.4133 Y3.9155 
G01 X-6.4555 Y3.8733 
G01 X-6.5106 Y3.8504 
G01 X-8.7294 Y3.8504 
G01 X-8.7845 Y3.8733 
G01 X-8.8267 Y3.9155 
G01 X-8.8496 Y3.9706 
G01 X-8.8496 Y6.1894 
G01 X-8.8267 Y6.2445 
G01 X-8.7845 Y6.2867 
G01 X-8.7294 Y6.3096 
G01 X-8.6591 Y6.3096 
G01 X-8.6591 Y11.6609 
G01 X-12.7818 Y11.6609 
G01 X-12.9433 Y11.6865 
G01 X-13.0989 Y11.7370 
G01 X-13.2446 Y11.8113 
G01 X-13.3769 Y11.9074 
G01 X-13.4926 Y12.0231 
G01 X-13.5887 Y12.1554 
G01 X-13.6630 Y12.3011 
G01 X-13.7135 Y12.4567 
G01 X-13.7391 Y12.6182 
G01 X-13.7391 Y15.5080 
G01 X-13.7416 Y15.5106 
G01 X-13.7645 Y15.5657 
G01 X-13.7645 Y17.4543 
G01 X-13.7416 Y17.5094 
G01 X-13.6994 Y17.5516 
G01 X-13.6443 Y17.5745 
G00 Z1.0000 
G00 X-14.1755 Y15.5657 
G01 Z-0.1700 F250.00 
G01 X-14.1984 Y15.5106 F250.00 
G01 X-14.2406 Y15.4684 
G01 X-14.2957 Y15.4455 
G01 X-14.9070 Y15.4455 
G01 X-14.9788 Y15.4222 
G01 X-15.1522 Y15.3947 
G01 X-15.3278 Y15.3947 
G01 X-15.5012 Y15.4222 
G01 X-15.5730 Y15.4455 
G01 X-16.1843 Y15.4455 
G01 X-16.2394 Y15.4684 
G01 X-16.2816 Y15.5106 
G01 X-16.3045 Y15.5657 
G01 X-16.3045 Y16.1770 
G01 X-16.3278 Y16.2488 
G01 X-16.3553 Y16.4222 
G01 X-16.3553 Y20.4747 
G01 X-17.8678 Y20.4747 
G01 X-18.0412 Y20.5022 
G01 X-18.2081 Y20.5564 
G01 X-18.3645 Y20.6361 
G01 X-18.5066 Y20.7393 
G01 X-18.6307 Y20.8634 
G01 X-18.7339 Y21.0055 
G01 X-18.8136 Y21.1619 
G01 X-18.8678 Y21.3288 
G01 X-18.8953 Y21.5022 
G01 X-18.8953 Y21.6778 
G01 X-18.8678 Y21.8512 
G01 X-18.8136 Y22.0181 
G01 X-18.7339 Y22.1745 
G01 X-18.6307 Y22.3166 
G01 X-18.5066 Y22.4407 
G01 X-18.3645 Y22.5439 
G01 X-18.2081 Y22.6236 
G01 X-18.0412 Y22.6778 
G01 X-17.8678 Y22.7053 
G01 X-7.5322 Y22.7053 
G01 X-7.3588 Y22.6778 
G01 X-7.1919 Y22.6236 
G01 X-7.0355 Y22.5439 
G01 X-6.8934 Y22.4407 
G01 X-6.7693 Y22.3166 
G01 X-6.6661 Y22.1745 
G01 X-6.5864 Y22.0181 
G01 X-6.5322 Y21.8512 
G01 X-6.5047 Y21.6778 
G01 X-6.5047 Y21.4353 
G01 X-5.0371 Y21.4353 
G01 X-5.0167 Y21.4845 
G01 X-4.9745 Y21.5267 
G01 X-4.9194 Y21.5496 
G01 X-2.7006 Y21.5496 
G01 X-2.6455 Y21.5267 
G01 X-2.6033 Y21.4845 
G01 X-2.5804 Y21.4294 
G01 X-2.5804 Y19.2106 
G01 X-2.6033 Y19.1555 
G01 X-2.6455 Y19.1133 
G01 X-2.7006 Y19.0904 
G01 X-4.9194 Y19.0904 
G01 X-4.9745 Y19.1133 
G01 X-5.0167 Y19.1555 
G01 X-5.0371 Y19.2047 
G01 X-7.7078 Y19.2047 
G01 X-7.8812 Y19.2322 
G01 X-8.0481 Y19.2864 
G01 X-8.2045 Y19.3661 
G01 X-8.3466 Y19.4693 
G01 X-8.4707 Y19.5934 
G01 X-8.5739 Y19.7355 
G01 X-8.6536 Y19.8919 
G01 X-8.7078 Y20.0588 
G01 X-8.7353 Y20.2322 
G01 X-8.7353 Y20.4747 
G01 X-14.1247 Y20.4747 
G01 X-14.1247 Y16.4222 
G01 X-14.1522 Y16.2488 
G01 X-14.1755 Y16.1770 
G01 X-14.1755 Y15.5657 
G00 Z1.0000 
G00 X-19.2555 Y15.5657 
G01 Z-0.1700 F250.00 
G01 X-19.2783 Y15.5106 F250.00 
G01 X-19.3206 Y15.4684 
G01 X-19.3757 Y15.4455 
G01 X-19.9870 Y15.4455 
G01 X-20.0588 Y15.4222 
G01 X-20.2322 Y15.3947 
G01 X-20.4078 Y15.3947 
G01 X-20.5812 Y15.4222 
G01 X-20.6530 Y15.4455 
G01 X-21.2643 Y15.4455 
G01 X-21.3194 Y15.4684 
G01 X-21.3616 Y15.5106 
G01 X-21.3845 Y15.5657 
G01 X-21.3845 Y16.1770 
G01 X-21.4078 Y16.2488 
G01 X-21.4353 Y16.4222 
G01 X-21.4353 Y19.1378 
G01 X-21.4078 Y19.3112 
G01 X-21.3536 Y19.4781 
G01 X-21.2739 Y19.6345 
G01 X-21.1707 Y19.7766 
G01 X-21.0466 Y19.9007 
G01 X-20.9045 Y20.0039 
G01 X-20.7481 Y20.0836 
G01 X-20.5812 Y20.1378 
G01 X-20.4078 Y20.1653 
G01 X-20.2322 Y20.1653 
G01 X-20.0588 Y20.1378 
G01 X-19.8919 Y20.0836 
G01 X-19.7355 Y20.0039 
G01 X-19.5934 Y19.9007 
G01 X-19.4693 Y19.7766 
G01 X-19.3661 Y19.6345 
G01 X-19.2864 Y19.4781 
G01 X-19.2322 Y19.3112 
G01 X-19.2047 Y19.1378 
G01 X-19.2047 Y16.4222 
G01 X-19.2322 Y16.2488 
G01 X-19.2555 Y16.1770 
G01 X-19.2555 Y15.5657 
G00 Z1.0000 
G00 X-24.3584 Y17.5094 
G01 Z-0.1700 F250.00 
G01 X-24.3355 Y17.4543 F250.00 
G01 X-24.3355 Y15.5657 
G01 X-24.3584 Y15.5106 
G01 X-24.4006 Y15.4684 
G01 X-24.4557 Y15.4455 
G01 X-26.3443 Y15.4455 
G01 X-26.3994 Y15.4684 
G01 X-26.4416 Y15.5106 
G01 X-26.4645 Y15.5657 
G01 X-26.4645 Y17.4543 
G01 X-26.4416 Y17.5094 
G01 X-26.4391 Y17.5120 
G01 X-26.4391 Y19.1318 
G01 X-26.4135 Y19.2933 
G01 X-26.3630 Y19.4489 
G01 X-26.2887 Y19.5946 
G01 X-26.1926 Y19.7269 
G01 X-26.0769 Y19.8426 
G01 X-25.9446 Y19.9387 
G01 X-25.7989 Y20.0130 
G01 X-25.6433 Y20.0635 
G01 X-25.4818 Y20.0891 
G01 X-25.3182 Y20.0891 
G01 X-25.1567 Y20.0635 
G01 X-25.0011 Y20.0130 
G01 X-24.8554 Y19.9387 
G01 X-24.7231 Y19.8426 
G01 X-24.6074 Y19.7269 
G01 X-24.5113 Y19.5946 
G01 X-24.4370 Y19.4489 
G01 X-24.3865 Y19.2933 
G01 X-24.3609 Y19.1318 
G01 X-24.3609 Y17.5120 
G01 X-24.3584 Y17.5094 
G00 Z1.0000 
G00 X-23.8043 Y9.9545 
G01 Z-0.1700 F250.00 
G01 X-21.9157 Y9.9545 F250.00 
G01 X-21.8606 Y9.9316 
G01 X-21.8184 Y9.8894 
G01 X-21.7955 Y9.8343 
G01 X-21.7955 Y7.9457 
G01 X-21.8184 Y7.8906 
G01 X-21.8209 Y7.8880 
G01 X-21.8209 Y6.3096 
G01 X-21.7506 Y6.3096 
G01 X-21.6955 Y6.2867 
G01 X-21.6532 Y6.2445 
G01 X-21.6304 Y6.1894 
G01 X-21.6304 Y3.9706 
G01 X-21.6532 Y3.9155 
G01 X-21.6955 Y3.8733 
G01 X-21.7506 Y3.8504 
G01 X-23.9694 Y3.8504 
G01 X-24.0245 Y3.8733 
G01 X-24.0667 Y3.9155 
G01 X-24.0896 Y3.9706 
G01 X-24.0896 Y6.1894 
G01 X-24.0667 Y6.2445 
G01 X-24.0245 Y6.2867 
G01 X-23.9694 Y6.3096 
G01 X-23.8991 Y6.3096 
G01 X-23.8991 Y7.8880 
G01 X-23.9016 Y7.8906 
G01 X-23.9245 Y7.9457 
G01 X-23.9245 Y9.8343 
G01 X-23.9016 Y9.8894 
G01 X-23.8594 Y9.9316 
G01 X-23.8043 Y9.9545 
G00 Z1.0000 
G00 X-16.1843 Y9.9545 
G01 Z-0.1700 F250.00 
G01 X-14.2957 Y9.9545 F250.00 
G01 X-14.2406 Y9.9316 
G01 X-14.1984 Y9.8894 
G01 X-14.1755 Y9.8343 
G01 X-14.1755 Y7.9457 
G01 X-14.1984 Y7.8906 
G01 X-14.2009 Y7.8880 
G01 X-14.2009 Y6.3096 
G01 X-14.1306 Y6.3096 
G01 X-14.0755 Y6.2867 
G01 X-14.0333 Y6.2445 
G01 X-14.0104 Y6.1894 
G01 X-14.0104 Y3.9706 
G01 X-14.0333 Y3.9155 
G01 X-14.0755 Y3.8733 
G01 X-14.1306 Y3.8504 
G01 X-16.3494 Y3.8504 
G01 X-16.4045 Y3.8733 
G01 X-16.4467 Y3.9155 
G01 X-16.4696 Y3.9706 
G01 X-16.4696 Y6.1894 
G01 X-16.4467 Y6.2445 
G01 X-16.4045 Y6.2867 
G01 X-16.3494 Y6.3096 
G01 X-16.2791 Y6.3096 
G01 X-16.2791 Y7.8880 
G01 X-16.2816 Y7.8906 
G01 X-16.3045 Y7.9457 
G01 X-16.3045 Y9.8343 
G01 X-16.2816 Y9.8894 
G01 X-16.2394 Y9.9316 
G01 X-16.1843 Y9.9545 
G00 Z1.0000 
G00 X-13.6443 Y9.9545 
G01 Z-0.1700 F250.00 
G01 X-11.7557 Y9.9545 F250.00 
G01 X-11.7006 Y9.9316 
G01 X-11.6584 Y9.8894 
G01 X-11.6355 Y9.8343 
G01 X-11.6355 Y7.9457 
G01 X-11.6584 Y7.8906 
G01 X-11.6609 Y7.8880 
G01 X-11.6609 Y6.3096 
G01 X-11.5906 Y6.3096 
G01 X-11.5355 Y6.2867 
G01 X-11.4932 Y6.2445 
G01 X-11.4704 Y6.1894 
G01 X-11.4704 Y3.9706 
G01 X-11.4932 Y3.9155 
G01 X-11.5355 Y3.8733 
G01 X-11.5906 Y3.8504 
G01 X-13.8094 Y3.8504 
G01 X-13.8645 Y3.8733 
G01 X-13.9067 Y3.9155 
G01 X-13.9296 Y3.9706 
G01 X-13.9296 Y6.1894 
G01 X-13.9067 Y6.2445 
G01 X-13.8645 Y6.2867 
G01 X-13.8094 Y6.3096 
G01 X-13.7391 Y6.3096 
G01 X-13.7391 Y7.8880 
G01 X-13.7416 Y7.8906 
G01 X-13.7645 Y7.9457 
G01 X-13.7645 Y9.8343 
G01 X-13.7416 Y9.8894 
G01 X-13.6994 Y9.9316 
G01 X-13.6443 Y9.9545 
G00 Z1.0000 
G00 X-63.6733 Y54.6631 
G01 Z-0.1700 F250.00 
G01 X-65.8667 Y54.6631 F250.00 
G01 X-65.9218 Y54.6860 
G01 X-65.9640 Y54.7282 
G01 X-65.9869 Y54.7833 
G01 X-65.9869 Y56.9767 
G01 X-65.9640 Y57.0318 
G01 X-65.9218 Y57.0740 
G01 X-65.8667 Y57.0969 
G01 X-65.8091 Y57.0969 
G01 X-65.8091 Y58.4604 
G01 X-65.8794 Y58.4604 
G01 X-65.9345 Y58.4833 
G01 X-65.9767 Y58.5255 
G01 X-65.9996 Y58.5806 
G01 X-65.9996 Y60.7994 
G01 X-65.9767 Y60.8545 
G01 X-65.9345 Y60.8967 
G01 X-65.8794 Y60.9196 
G01 X-63.6606 Y60.9196 
G01 X-63.6055 Y60.8967 
G01 X-63.5633 Y60.8545 
G01 X-63.5404 Y60.7994 
G01 X-63.5404 Y58.5806 
G01 X-63.5633 Y58.5255 
G01 X-63.6055 Y58.4833 
G01 X-63.6606 Y58.4604 
G01 X-63.7309 Y58.4604 
G01 X-63.7309 Y57.0969 
G01 X-63.6733 Y57.0969 
G01 X-63.6182 Y57.0740 
G01 X-63.5760 Y57.0318 
G01 X-63.5531 Y56.9767 
G01 X-63.5531 Y54.7833 
G01 X-63.5760 Y54.7282 
G01 X-63.6182 Y54.6860 
G01 X-63.6733 Y54.6631 
G00 Z1.0000 
G00 X-58.5933 Y54.6631 
G01 Z-0.1700 F250.00 
G01 X-60.7867 Y54.6631 F250.00 
G01 X-60.8418 Y54.6860 
G01 X-60.8840 Y54.7282 
G01 X-60.9069 Y54.7833 
G01 X-60.9069 Y56.9767 
G01 X-60.8840 Y57.0318 
G01 X-60.8418 Y57.0740 
G01 X-60.7867 Y57.0969 
G01 X-60.7291 Y57.0969 
G01 X-60.7291 Y58.4604 
G01 X-60.7994 Y58.4604 
G01 X-60.8545 Y58.4833 
G01 X-60.8967 Y58.5255 
G01 X-60.9196 Y58.5806 
G01 X-60.9196 Y60.7994 
G01 X-60.8967 Y60.8545 
G01 X-60.8545 Y60.8967 
G01 X-60.7994 Y60.9196 
G01 X-58.5806 Y60.9196 
G01 X-58.5255 Y60.8967 
G01 X-58.4833 Y60.8545 
G01 X-58.4604 Y60.7994 
G01 X-58.4604 Y58.5806 
G01 X-58.4833 Y58.5255 
G01 X-58.5255 Y58.4833 
G01 X-58.5806 Y58.4604 
G01 X-58.6509 Y58.4604 
G01 X-58.6509 Y57.0969 
G01 X-58.5933 Y57.0969 
G01 X-58.5382 Y57.0740 
G01 X-58.4960 Y57.0318 
G01 X-58.4731 Y56.9767 
G01 X-58.4731 Y54.7833 
G01 X-58.4960 Y54.7282 
G01 X-58.5382 Y54.6860 
G01 X-58.5933 Y54.6631 
G00 Z1.0000 
G00 X-53.5133 Y54.6631 
G01 Z-0.1700 F250.00 
G01 X-55.7067 Y54.6631 F250.00 
G01 X-55.7618 Y54.6860 
G01 X-55.8040 Y54.7282 
G01 X-55.8269 Y54.7833 
G01 X-55.8269 Y56.9767 
G01 X-55.8040 Y57.0318 
G01 X-55.7618 Y57.0740 
G01 X-55.7067 Y57.0969 
G01 X-55.6491 Y57.0969 
G01 X-55.6491 Y58.4604 
G01 X-55.7194 Y58.4604 
G01 X-55.7745 Y58.4833 
G01 X-55.8167 Y58.5255 
G01 X-55.8396 Y58.5806 
G01 X-55.8396 Y60.7994 
G01 X-55.8167 Y60.8545 
G01 X-55.7745 Y60.8967 
G01 X-55.7194 Y60.9196 
G01 X-53.5006 Y60.9196 
G01 X-53.4455 Y60.8967 
G01 X-53.4032 Y60.8545 
G01 X-53.3804 Y60.7994 
G01 X-53.3804 Y58.5806 
G01 X-53.4032 Y58.5255 
G01 X-53.4455 Y58.4833 
G01 X-53.5006 Y58.4604 
G01 X-53.5709 Y58.4604 
G01 X-53.5709 Y57.0969 
G01 X-53.5133 Y57.0969 
G01 X-53.4582 Y57.0740 
G01 X-53.4160 Y57.0318 
G01 X-53.3931 Y56.9767 
G01 X-53.3931 Y54.7833 
G01 X-53.4160 Y54.7282 
G01 X-53.4582 Y54.6860 
G01 X-53.5133 Y54.6631 
G00 Z1.0000 
G00 X-48.4333 Y54.6631 
G01 Z-0.1700 F250.00 
G01 X-50.6267 Y54.6631 F250.00 
G01 X-50.6818 Y54.6860 
G01 X-50.7240 Y54.7282 
G01 X-50.7469 Y54.7833 
G01 X-50.7469 Y56.9767 
G01 X-50.7240 Y57.0318 
G01 X-50.6818 Y57.0740 
G01 X-50.6267 Y57.0969 
G01 X-48.4333 Y57.0969 
G01 X-48.3782 Y57.0740 
G01 X-48.3360 Y57.0318 
G01 X-48.3131 Y56.9767 
G01 X-48.3131 Y54.7833 
G01 X-48.3360 Y54.7282 
G01 X-48.3782 Y54.6860 
G01 X-48.4333 Y54.6631 
G00 Z1.0000 
G00 X-43.3533 Y54.6631 
G01 Z-0.1700 F250.00 
G01 X-45.5467 Y54.6631 F250.00 
G01 X-45.6018 Y54.6860 
G01 X-45.6440 Y54.7282 
G01 X-45.6669 Y54.7833 
G01 X-45.6669 Y56.9767 
G01 X-45.6440 Y57.0318 
G01 X-45.6018 Y57.0740 
G01 X-45.5467 Y57.0969 
G01 X-45.4891 Y57.0969 
G01 X-45.4891 Y58.4604 
G01 X-45.5594 Y58.4604 
G01 X-45.6145 Y58.4833 
G01 X-45.6567 Y58.5255 
G01 X-45.6796 Y58.5806 
G01 X-45.6796 Y60.7994 
G01 X-45.6567 Y60.8545 
G01 X-45.6145 Y60.8967 
G01 X-45.5594 Y60.9196 
G01 X-43.3406 Y60.9196 
G01 X-43.2855 Y60.8967 
G01 X-43.2433 Y60.8545 
G01 X-43.2204 Y60.7994 
G01 X-43.2204 Y58.5806 
G01 X-43.2433 Y58.5255 
G01 X-43.2855 Y58.4833 
G01 X-43.3406 Y58.4604 
G01 X-43.4109 Y58.4604 
G01 X-43.4109 Y57.0969 
G01 X-43.3533 Y57.0969 
G01 X-43.2982 Y57.0740 
G01 X-43.2559 Y57.0318 
G01 X-43.2331 Y56.9767 
G01 X-43.2331 Y54.7833 
G01 X-43.2559 Y54.7282 
G01 X-43.2982 Y54.6860 
G01 X-43.3533 Y54.6631 
G00 Z1.0000 
G00 X-38.2733 Y54.6631 
G01 Z-0.1700 F250.00 
G01 X-40.4667 Y54.6631 F250.00 
G01 X-40.5218 Y54.6860 
G01 X-40.5640 Y54.7282 
G01 X-40.5869 Y54.7833 
G01 X-40.5869 Y56.9767 
G01 X-40.5640 Y57.0318 
G01 X-40.5218 Y57.0740 
G01 X-40.4667 Y57.0969 
G01 X-40.4091 Y57.0969 
G01 X-40.4091 Y58.4604 
G01 X-40.4794 Y58.4604 
G01 X-40.5345 Y58.4833 
G01 X-40.5767 Y58.5255 
G01 X-40.5996 Y58.5806 
G01 X-40.5996 Y60.7994 
G01 X-40.5767 Y60.8545 
G01 X-40.5345 Y60.8967 
G01 X-40.4794 Y60.9196 
G01 X-38.2606 Y60.9196 
G01 X-38.2055 Y60.8967 
G01 X-38.1633 Y60.8545 
G01 X-38.1404 Y60.7994 
G01 X-38.1404 Y58.5806 
G01 X-38.1633 Y58.5255 
G01 X-38.2055 Y58.4833 
G01 X-38.2606 Y58.4604 
G01 X-38.3309 Y58.4604 
G01 X-38.3309 Y57.0969 
G01 X-38.2733 Y57.0969 
G01 X-38.2182 Y57.0740 
G01 X-38.1760 Y57.0318 
G01 X-38.1531 Y56.9767 
G01 X-38.1531 Y54.7833 
G01 X-38.1760 Y54.7282 
G01 X-38.2182 Y54.6860 
G01 X-38.2733 Y54.6631 
G00 Z1.0000 
G00 X-33.1933 Y54.6631 
G01 Z-0.1700 F250.00 
G01 X-35.3867 Y54.6631 F250.00 
G01 X-35.4418 Y54.6860 
G01 X-35.4840 Y54.7282 
G01 X-35.5069 Y54.7833 
G01 X-35.5069 Y56.9767 
G01 X-35.4840 Y57.0318 
G01 X-35.4418 Y57.0740 
G01 X-35.3867 Y57.0969 
G01 X-33.1933 Y57.0969 
G01 X-33.1382 Y57.0740 
G01 X-33.0960 Y57.0318 
G01 X-33.0731 Y56.9767 
G01 X-33.0731 Y54.7833 
G01 X-33.0960 Y54.7282 
G01 X-33.1382 Y54.6860 
G01 X-33.1933 Y54.6631 
G00 Z1.0000 
G00 X-33.1933 Y47.0431 
G01 Z-0.1700 F250.00 
G01 X-35.3867 Y47.0431 F250.00 
G01 X-35.4418 Y47.0660 
G01 X-35.4840 Y47.1082 
G01 X-35.5069 Y47.1633 
G01 X-35.5069 Y49.3567 
G01 X-35.4840 Y49.4118 
G01 X-35.4418 Y49.4540 
G01 X-35.3867 Y49.4769 
G01 X-33.1933 Y49.4769 
G01 X-33.1382 Y49.4540 
G01 X-33.0960 Y49.4118 
G01 X-33.0731 Y49.3567 
G01 X-33.0731 Y49.2991 
G01 X-29.1282 Y49.2991 
G01 X-28.9667 Y49.2735 
G01 X-28.8111 Y49.2230 
G01 X-28.6654 Y49.1487 
G01 X-28.5331 Y49.0526 
G01 X-28.4174 Y48.9369 
G01 X-28.3213 Y48.8046 
G01 X-28.2470 Y48.6589 
G01 X-28.1965 Y48.5033 
G01 X-28.1709 Y48.3418 
G01 X-28.1709 Y45.6382 
G01 X-28.1965 Y45.4767 
G01 X-28.2470 Y45.3211 
G01 X-28.3213 Y45.1754 
G01 X-28.4174 Y45.0431 
G01 X-28.5331 Y44.9274 
G01 X-28.6654 Y44.8313 
G01 X-28.8111 Y44.7570 
G01 X-28.9667 Y44.7065 
G01 X-29.1282 Y44.6809 
G01 X-29.2918 Y44.6809 
G01 X-29.4533 Y44.7065 
G01 X-29.6089 Y44.7570 
G01 X-29.7546 Y44.8313 
G01 X-29.8869 Y44.9274 
G01 X-30.0026 Y45.0431 
G01 X-30.0987 Y45.1754 
G01 X-30.1730 Y45.3211 
G01 X-30.2235 Y45.4767 
G01 X-30.2491 Y45.6382 
G01 X-30.2491 Y47.2209 
G01 X-33.0731 Y47.2209 
G01 X-33.0731 Y47.1633 
G01 X-33.0960 Y47.1082 
G01 X-33.1382 Y47.0660 
G01 X-33.1933 Y47.0431 
G00 Z1.0000 
G00 X-35.7333 Y47.0431 
G01 Z-0.1700 F250.00 
G01 X-37.9267 Y47.0431 F250.00 
G01 X-37.9818 Y47.0660 
G01 X-38.0240 Y47.1082 
G01 X-38.0469 Y47.1633 
G01 X-38.0469 Y49.3567 
G01 X-38.0240 Y49.4118 
G01 X-37.9818 Y49.4540 
G01 X-37.9267 Y49.4769 
G01 X-35.7333 Y49.4769 
G01 X-35.6782 Y49.4540 
G01 X-35.6360 Y49.4118 
G01 X-35.6131 Y49.3567 
G01 X-35.6131 Y47.1633 
G01 X-35.6360 Y47.1082 
G01 X-35.6782 Y47.0660 
G01 X-35.7333 Y47.0431 
G00 Z1.0000 
G00 X-38.2733 Y47.0431 
G01 Z-0.1700 F250.00 
G01 X-40.4667 Y47.0431 F250.00 
G01 X-40.5218 Y47.0660 
G01 X-40.5640 Y47.1082 
G01 X-40.5869 Y47.1633 
G01 X-40.5869 Y49.3567 
G01 X-40.5640 Y49.4118 
G01 X-40.5218 Y49.4540 
G01 X-40.4667 Y49.4769 
G01 X-40.4091 Y49.4769 
G01 X-40.4091 Y50.8818 
G01 X-40.3835 Y51.0433 
G01 X-40.3330 Y51.1989 
G01 X-40.2587 Y51.3446 
G01 X-40.1626 Y51.4769 
G01 X-40.0469 Y51.5926 
G01 X-39.9146 Y51.6887 
G01 X-39.7689 Y51.7630 
G01 X-39.6133 Y51.8135 
G01 X-39.4518 Y51.8391 
G01 X-26.5882 Y51.8391 
G01 X-26.4267 Y51.8135 
G01 X-26.2711 Y51.7630 
G01 X-26.1254 Y51.6887 
G01 X-25.9931 Y51.5926 
G01 X-25.8774 Y51.4769 
G01 X-25.7813 Y51.3446 
G01 X-25.7070 Y51.1989 
G01 X-25.6565 Y51.0433 
G01 X-25.6309 Y50.8818 
G01 X-25.6309 Y45.6382 
G01 X-25.6565 Y45.4767 
G01 X-25.7070 Y45.3211 
G01 X-25.7813 Y45.1754 
G01 X-25.8774 Y45.0431 
G01 X-25.9931 Y44.9274 
G01 X-26.1254 Y44.8313 
G01 X-26.2711 Y44.7570 
G01 X-26.4267 Y44.7065 
G01 X-26.5882 Y44.6809 
G01 X-26.7518 Y44.6809 
G01 X-26.9133 Y44.7065 
G01 X-27.0689 Y44.7570 
G01 X-27.2146 Y44.8313 
G01 X-27.3469 Y44.9274 
G01 X-27.4626 Y45.0431 
G01 X-27.5587 Y45.1754 
G01 X-27.6330 Y45.3211 
G01 X-27.6835 Y45.4767 
G01 X-27.7091 Y45.6382 
G01 X-27.7091 Y49.7609 
G01 X-38.3309 Y49.7609 
G01 X-38.3309 Y49.4769 
G01 X-38.2733 Y49.4769 
G01 X-38.2182 Y49.4540 
G01 X-38.1760 Y49.4118 
G01 X-38.1531 Y49.3567 
G01 X-38.1531 Y47.1633 
G01 X-38.1760 Y47.1082 
G01 X-38.2182 Y47.0660 
G01 X-38.2733 Y47.0431 
G00 Z1.0000 
G00 X-45.8933 Y47.0431 
G01 Z-0.1700 F250.00 
G01 X-48.0867 Y47.0431 F250.00 
G01 X-48.1418 Y47.0660 
G01 X-48.1840 Y47.1082 
G01 X-48.2069 Y47.1633 
G01 X-48.2069 Y49.3567 
G01 X-48.1840 Y49.4118 
G01 X-48.1418 Y49.4540 
G01 X-48.0867 Y49.4769 
G01 X-45.8933 Y49.4769 
G01 X-45.8382 Y49.4540 
G01 X-45.7960 Y49.4118 
G01 X-45.7731 Y49.3567 
G01 X-45.7731 Y47.1633 
G01 X-45.7960 Y47.1082 
G01 X-45.8382 Y47.0660 
G01 X-45.8933 Y47.0431 
G00 Z1.0000 
G00 X-48.4333 Y47.0431 
G01 Z-0.1700 F250.00 
G01 X-50.6267 Y47.0431 F250.00 
G01 X-50.6818 Y47.0660 
G01 X-50.7240 Y47.1082 
G01 X-50.7469 Y47.1633 
G01 X-50.7469 Y49.3567 
G01 X-50.7240 Y49.4118 
G01 X-50.6818 Y49.4540 
G01 X-50.6267 Y49.4769 
G01 X-48.4333 Y49.4769 
G01 X-48.3782 Y49.4540 
G01 X-48.3360 Y49.4118 
G01 X-48.3131 Y49.3567 
G01 X-48.3131 Y47.1633 
G01 X-48.3360 Y47.1082 
G01 X-48.3782 Y47.0660 
G01 X-48.4333 Y47.0431 
G00 Z1.0000 
G00 X-50.9733 Y47.0431 
G01 Z-0.1700 F250.00 
G01 X-51.0309 Y47.0431 F250.00 
G01 X-51.0309 Y45.6382 
G01 X-51.0565 Y45.4767 
G01 X-51.1070 Y45.3211 
G01 X-51.1813 Y45.1754 
G01 X-51.2774 Y45.0431 
G01 X-51.3931 Y44.9274 
G01 X-51.5254 Y44.8313 
G01 X-51.6711 Y44.7570 
G01 X-51.8267 Y44.7065 
G01 X-51.9882 Y44.6809 
G01 X-52.1518 Y44.6809 
G01 X-52.3133 Y44.7065 
G01 X-52.4689 Y44.7570 
G01 X-52.6146 Y44.8313 
G01 X-52.7469 Y44.9274 
G01 X-52.8626 Y45.0431 
G01 X-52.9587 Y45.1754 
G01 X-53.0330 Y45.3211 
G01 X-53.0835 Y45.4767 
G01 X-53.1091 Y45.6382 
G01 X-53.1091 Y47.0431 
G01 X-53.1667 Y47.0431 
G01 X-53.2218 Y47.0660 
G01 X-53.2640 Y47.1082 
G01 X-53.2869 Y47.1633 
G01 X-53.2869 Y49.3567 
G01 X-53.2640 Y49.4118 
G01 X-53.2218 Y49.4540 
G01 X-53.1667 Y49.4769 
G01 X-50.9733 Y49.4769 
G01 X-50.9182 Y49.4540 
G01 X-50.8760 Y49.4118 
G01 X-50.8531 Y49.3567 
G01 X-50.8531 Y47.1633 
G01 X-50.8760 Y47.1082 
G01 X-50.9182 Y47.0660 
G01 X-50.9733 Y47.0431 
G00 Z1.0000 
G00 X-53.5133 Y47.0431 
G01 Z-0.1700 F250.00 
G01 X-53.5709 Y47.0431 F250.00 
G01 X-53.5709 Y45.6796 
G01 X-53.5006 Y45.6796 
G01 X-53.4455 Y45.6567 
G01 X-53.4032 Y45.6145 
G01 X-53.3804 Y45.5594 
G01 X-53.3804 Y43.3406 
G01 X-53.4032 Y43.2855 
G01 X-53.4455 Y43.2433 
G01 X-53.5006 Y43.2204 
G01 X-55.7194 Y43.2204 
G01 X-55.7745 Y43.2433 
G01 X-55.8167 Y43.2855 
G01 X-55.8396 Y43.3406 
G01 X-55.8396 Y45.5594 
G01 X-55.8167 Y45.6145 
G01 X-55.7745 Y45.6567 
G01 X-55.7194 Y45.6796 
G01 X-55.6491 Y45.6796 
G01 X-55.6491 Y47.0431 
G01 X-55.7067 Y47.0431 
G01 X-55.7618 Y47.0660 
G01 X-55.8040 Y47.1082 
G01 X-55.8269 Y47.1633 
G01 X-55.8269 Y49.3567 
G01 X-55.8040 Y49.4118 
G01 X-55.7618 Y49.4540 
G01 X-55.7067 Y49.4769 
G01 X-53.5133 Y49.4769 
G01 X-53.4582 Y49.4540 
G01 X-53.4160 Y49.4118 
G01 X-53.3931 Y49.3567 
G01 X-53.3931 Y47.1633 
G01 X-53.4160 Y47.1082 
G01 X-53.4582 Y47.0660 
G01 X-53.5133 Y47.0431 
G00 Z1.0000 
G00 X-58.5933 Y47.0431 
G01 Z-0.1700 F250.00 
G01 X-58.6509 Y47.0431 F250.00 
G01 X-58.6509 Y45.6796 
G01 X-58.5806 Y45.6796 
G01 X-58.5255 Y45.6567 
G01 X-58.4833 Y45.6145 
G01 X-58.4604 Y45.5594 
G01 X-58.4604 Y43.3406 
G01 X-58.4833 Y43.2855 
G01 X-58.5255 Y43.2433 
G01 X-58.5806 Y43.2204 
G01 X-60.7994 Y43.2204 
G01 X-60.8545 Y43.2433 
G01 X-60.8967 Y43.2855 
G01 X-60.9196 Y43.3406 
G01 X-60.9196 Y45.5594 
G01 X-60.8967 Y45.6145 
G01 X-60.8545 Y45.6567 
G01 X-60.7994 Y45.6796 
G01 X-60.7291 Y45.6796 
G01 X-60.7291 Y47.0431 
G01 X-60.7867 Y47.0431 
G01 X-60.8418 Y47.0660 
G01 X-60.8840 Y47.1082 
G01 X-60.9069 Y47.1633 
G01 X-60.9069 Y49.3567 
G01 X-60.8840 Y49.4118 
G01 X-60.8418 Y49.4540 
G01 X-60.7867 Y49.4769 
G01 X-58.5933 Y49.4769 
G01 X-58.5382 Y49.4540 
G01 X-58.4960 Y49.4118 
G01 X-58.4731 Y49.3567 
G01 X-58.4731 Y47.1633 
G01 X-58.4960 Y47.1082 
G01 X-58.5382 Y47.0660 
G01 X-58.5933 Y47.0431 
G00 Z1.0000 
G00 X-63.6733 Y47.0431 
G01 Z-0.1700 F250.00 
G01 X-63.7309 Y47.0431 F250.00 
G01 X-63.7309 Y45.6796 
G01 X-63.6606 Y45.6796 
G01 X-63.6055 Y45.6567 
G01 X-63.5633 Y45.6145 
G01 X-63.5404 Y45.5594 
G01 X-63.5404 Y43.3406 
G01 X-63.5633 Y43.2855 
G01 X-63.6055 Y43.2433 
G01 X-63.6606 Y43.2204 
G01 X-65.8794 Y43.2204 
G01 X-65.9345 Y43.2433 
G01 X-65.9767 Y43.2855 
G01 X-65.9996 Y43.3406 
G01 X-65.9996 Y45.5594 
G01 X-65.9767 Y45.6145 
G01 X-65.9345 Y45.6567 
G01 X-65.8794 Y45.6796 
G01 X-65.8091 Y45.6796 
G01 X-65.8091 Y47.0431 
G01 X-65.8667 Y47.0431 
G01 X-65.9218 Y47.0660 
G01 X-65.9640 Y47.1082 
G01 X-65.9869 Y47.1633 
G01 X-65.9869 Y49.3567 
G01 X-65.9640 Y49.4118 
G01 X-65.9218 Y49.4540 
G01 X-65.8667 Y49.4769 
G01 X-63.6733 Y49.4769 
G01 X-63.6182 Y49.4540 
G01 X-63.5760 Y49.4118 
G01 X-63.5531 Y49.3567 
G01 X-63.5531 Y47.1633 
G01 X-63.5760 Y47.1082 
G01 X-63.6182 Y47.0660 
G01 X-63.6733 Y47.0431 
G00 Z1.0000 
G00 X-39.4739 Y44.2259 
G01 Z-0.1700 F250.00 
G01 X-39.4739 Y42.1341 F250.00 
G01 X-39.4967 Y42.0790 
G01 X-39.5390 Y42.0368 
G01 X-39.5941 Y42.0139 
G01 X-41.6859 Y42.0139 
G01 X-41.7410 Y42.0368 
G01 X-41.7832 Y42.0790 
G01 X-41.8061 Y42.1341 
G01 X-41.8061 Y42.1409 
G01 X-51.0309 Y42.1409 
G01 X-51.0309 Y41.8282 
G01 X-51.0565 Y41.6667 
G01 X-51.1070 Y41.5111 
G01 X-51.1813 Y41.3654 
G01 X-51.2774 Y41.2331 
G01 X-51.3931 Y41.1174 
G01 X-51.5254 Y41.0213 
G01 X-51.6711 Y40.9470 
G01 X-51.8267 Y40.8965 
G01 X-51.9882 Y40.8709 
G01 X-69.9318 Y40.8709 
G01 X-70.0933 Y40.8965 
G01 X-70.2489 Y40.9470 
G01 X-70.3946 Y41.0213 
G01 X-70.5269 Y41.1174 
G01 X-70.6426 Y41.2331 
G01 X-70.7387 Y41.3654 
G01 X-70.8130 Y41.5111 
G01 X-70.8635 Y41.6667 
G01 X-70.8891 Y41.8282 
G01 X-70.8891 Y50.8818 
G01 X-70.8635 Y51.0433 
G01 X-70.8130 Y51.1989 
G01 X-70.7387 Y51.3446 
G01 X-70.6426 Y51.4769 
G01 X-70.5269 Y51.5926 
G01 X-70.3946 Y51.6887 
G01 X-70.2489 Y51.7630 
G01 X-70.0933 Y51.8135 
G01 X-69.9318 Y51.8391 
G01 X-41.8282 Y51.8391 
G01 X-41.6667 Y51.8135 
G01 X-41.5111 Y51.7630 
G01 X-41.3654 Y51.6887 
G01 X-41.2331 Y51.5926 
G01 X-41.1174 Y51.4769 
G01 X-41.0213 Y51.3446 
G01 X-40.9470 Y51.1989 
G01 X-40.8965 Y51.0433 
G01 X-40.8709 Y50.8818 
G01 X-40.8709 Y49.4769 
G01 X-40.8133 Y49.4769 
G01 X-40.7582 Y49.4540 
G01 X-40.7159 Y49.4118 
G01 X-40.6931 Y49.3567 
G01 X-40.6931 Y47.1633 
G01 X-40.7159 Y47.1082 
G01 X-40.7582 Y47.0660 
G01 X-40.8133 Y47.0431 
G01 X-43.0067 Y47.0431 
G01 X-43.0618 Y47.0660 
G01 X-43.1040 Y47.1082 
G01 X-43.1269 Y47.1633 
G01 X-43.1269 Y49.3567 
G01 X-43.1040 Y49.4118 
G01 X-43.0618 Y49.4540 
G01 X-43.0067 Y49.4769 
G01 X-42.9491 Y49.4769 
G01 X-42.9491 Y49.7609 
G01 X-68.8109 Y49.7609 
G01 X-68.8109 Y42.9491 
G01 X-53.1091 Y42.9491 
G01 X-53.1091 Y43.2618 
G01 X-53.0835 Y43.4233 
G01 X-53.0330 Y43.5789 
G01 X-52.9587 Y43.7246 
G01 X-52.8626 Y43.8569 
G01 X-52.7469 Y43.9726 
G01 X-52.6146 Y44.0687 
G01 X-52.4689 Y44.1430 
G01 X-52.3133 Y44.1935 
G01 X-52.1518 Y44.2191 
G01 X-41.8061 Y44.2191 
G01 X-41.8061 Y44.2259 
G01 X-41.7832 Y44.2810 
G01 X-41.7410 Y44.3232 
G01 X-41.6859 Y44.3461 
G01 X-39.5941 Y44.3461 
G01 X-39.5390 Y44.3232 
G01 X-39.4967 Y44.2810 
G01 X-39.4739 Y44.2259 
G00 Z1.0000 
G00 X-36.9339 Y44.2259 
G01 Z-0.1700 F250.00 
G01 X-36.9339 Y42.1341 F250.00 
G01 X-36.9567 Y42.0790 
G01 X-36.9990 Y42.0368 
G01 X-37.0541 Y42.0139 
G01 X-39.1459 Y42.0139 
G01 X-39.2010 Y42.0368 
G01 X-39.2432 Y42.0790 
G01 X-39.2661 Y42.1341 
G01 X-39.2661 Y44.2259 
G01 X-39.2432 Y44.2810 
G01 X-39.2010 Y44.3232 
G01 X-39.1459 Y44.3461 
G01 X-39.1391 Y44.3461 
G01 X-39.1391 Y44.6809 
G01 X-44.5318 Y44.6809 
G01 X-44.6933 Y44.7065 
G01 X-44.8489 Y44.7570 
G01 X-44.9946 Y44.8313 
G01 X-45.1269 Y44.9274 
G01 X-45.2426 Y45.0431 
G01 X-45.3387 Y45.1754 
G01 X-45.4130 Y45.3211 
G01 X-45.4635 Y45.4767 
G01 X-45.4891 Y45.6382 
G01 X-45.4891 Y47.0431 
G01 X-45.5467 Y47.0431 
G01 X-45.6018 Y47.0660 
G01 X-45.6440 Y47.1082 
G01 X-45.6669 Y47.1633 
G01 X-45.6669 Y49.3567 
G01 X-45.6440 Y49.4118 
G01 X-45.6018 Y49.4540 
G01 X-45.5467 Y49.4769 
G01 X-43.3533 Y49.4769 
G01 X-43.2982 Y49.4540 
G01 X-43.2559 Y49.4118 
G01 X-43.2331 Y49.3567 
G01 X-43.2331 Y47.1633 
G01 X-43.2559 Y47.1082 
G01 X-43.2982 Y47.0660 
G01 X-43.3533 Y47.0431 
G01 X-43.4109 Y47.0431 
G01 X-43.4109 Y46.7591 
G01 X-38.0182 Y46.7591 
G01 X-37.8567 Y46.7335 
G01 X-37.7011 Y46.6830 
G01 X-37.5554 Y46.6087 
G01 X-37.4231 Y46.5126 
G01 X-37.3074 Y46.3969 
G01 X-37.2113 Y46.2646 
G01 X-37.1370 Y46.1189 
G01 X-37.0865 Y45.9633 
G01 X-37.0609 Y45.8018 
G01 X-37.0609 Y44.3461 
G01 X-37.0541 Y44.3461 
G01 X-36.9990 Y44.3232 
G01 X-36.9567 Y44.2810 
G01 X-36.9339 Y44.2259 
G00 Z1.0000 
G00 X-34.3939 Y44.2259 
G01 Z-0.1700 F250.00 
G01 X-34.3939 Y44.2191 F250.00 
G01 X-21.3591 Y44.2191 
G01 X-21.3591 Y61.1909 
G01 X-66.2709 Y61.1909 
G01 X-66.2709 Y57.0969 
G01 X-66.2133 Y57.0969 
G01 X-66.1582 Y57.0740 
G01 X-66.1159 Y57.0318 
G01 X-66.0931 Y56.9767 
G01 X-66.0931 Y54.7833 
G01 X-66.1159 Y54.7282 
G01 X-66.1582 Y54.6860 
G01 X-66.2133 Y54.6631 
G01 X-68.4067 Y54.6631 
G01 X-68.4618 Y54.6860 
G01 X-68.5040 Y54.7282 
G01 X-68.5269 Y54.7833 
G01 X-68.5269 Y56.9767 
G01 X-68.5040 Y57.0318 
G01 X-68.4618 Y57.0740 
G01 X-68.4067 Y57.0969 
G01 X-68.3491 Y57.0969 
G01 X-68.3491 Y62.3118 
G01 X-68.3235 Y62.4733 
G01 X-68.2730 Y62.6289 
G01 X-68.1987 Y62.7746 
G01 X-68.1026 Y62.9069 
G01 X-67.9869 Y63.0226 
G01 X-67.8546 Y63.1187 
G01 X-67.7089 Y63.1930 
G01 X-67.5533 Y63.2435 
G01 X-67.3918 Y63.2691 
G01 X-20.2382 Y63.2691 
G01 X-20.0767 Y63.2435 
G01 X-19.9211 Y63.1930 
G01 X-19.7754 Y63.1187 
G01 X-19.6431 Y63.0226 
G01 X-19.5274 Y62.9069 
G01 X-19.4313 Y62.7746 
G01 X-19.3570 Y62.6289 
G01 X-19.3065 Y62.4733 
G01 X-19.2809 Y62.3118 
G01 X-19.2809 Y44.1820 
G01 X-19.2783 Y44.1794 
G01 X-19.2555 Y44.1243 
G01 X-19.2555 Y42.2357 
G01 X-19.2783 Y42.1806 
G01 X-19.3206 Y42.1384 
G01 X-19.3757 Y42.1155 
G01 X-21.2643 Y42.1155 
G01 X-21.3194 Y42.1384 
G01 X-21.3220 Y42.1409 
G01 X-34.3939 Y42.1409 
G01 X-34.3939 Y42.1341 
G01 X-34.4168 Y42.0790 
G01 X-34.4590 Y42.0368 
G01 X-34.5141 Y42.0139 
G01 X-36.6059 Y42.0139 
G01 X-36.6610 Y42.0368 
G01 X-36.7032 Y42.0790 
G01 X-36.7261 Y42.1341 
G01 X-36.7261 Y44.2259 
G01 X-36.7032 Y44.2810 
G01 X-36.6610 Y44.3232 
G01 X-36.6059 Y44.3461 
G01 X-34.5141 Y44.3461 
G01 X-34.4590 Y44.3232 
G01 X-34.4168 Y44.2810 
G01 X-34.3939 Y44.2259 
G00 Z1.0000 
G00 X-36.9339 Y41.6859 
G01 Z-0.1700 F250.00 
G01 X-36.9339 Y39.5941 F250.00 
G01 X-36.9567 Y39.5390 
G01 X-36.9990 Y39.4967 
G01 X-37.0541 Y39.4739 
G01 X-37.0609 Y39.4739 
G01 X-37.0609 Y39.1391 
G01 X-17.6982 Y39.1391 
G01 X-17.5367 Y39.1135 
G01 X-17.3811 Y39.0630 
G01 X-17.2354 Y38.9887 
G01 X-17.1031 Y38.8926 
G01 X-16.9874 Y38.7769 
G01 X-16.8913 Y38.6446 
G01 X-16.8170 Y38.4989 
G01 X-16.7665 Y38.3433 
G01 X-16.7409 Y38.1818 
G01 X-16.7409 Y38.0182 
G01 X-16.7665 Y37.8567 
G01 X-16.8170 Y37.7011 
G01 X-16.8913 Y37.5554 
G01 X-16.9874 Y37.4231 
G01 X-17.1031 Y37.3074 
G01 X-17.2354 Y37.2113 
G01 X-17.3811 Y37.1370 
G01 X-17.5367 Y37.0865 
G01 X-17.6982 Y37.0609 
G01 X-38.1818 Y37.0609 
G01 X-38.3433 Y37.0865 
G01 X-38.4989 Y37.1370 
G01 X-38.6446 Y37.2113 
G01 X-38.7769 Y37.3074 
G01 X-38.8926 Y37.4231 
G01 X-38.9887 Y37.5554 
G01 X-39.0630 Y37.7011 
G01 X-39.1135 Y37.8567 
G01 X-39.1391 Y38.0182 
G01 X-39.1391 Y39.4739 
G01 X-39.1459 Y39.4739 
G01 X-39.2010 Y39.4967 
G01 X-39.2432 Y39.5390 
G01 X-39.2661 Y39.5941 
G01 X-39.2661 Y41.6859 
G01 X-39.2432 Y41.7410 
G01 X-39.2010 Y41.7832 
G01 X-39.1459 Y41.8061 
G01 X-37.0541 Y41.8061 
G01 X-36.9990 Y41.7832 
G01 X-36.9567 Y41.7410 
G01 X-36.9339 Y41.6859 
G00 Z1.0000 
G00 X-34.3939 Y41.6859 
G01 Z-0.1700 F250.00 
G01 X-34.3939 Y41.6791 F250.00 
G01 X-31.6682 Y41.6791 
G01 X-31.5067 Y41.6535 
G01 X-31.3511 Y41.6030 
G01 X-31.2054 Y41.5287 
G01 X-31.0731 Y41.4326 
G01 X-30.9574 Y41.3169 
G01 X-30.8613 Y41.1846 
G01 X-30.7870 Y41.0389 
G01 X-30.7365 Y40.8833 
G01 X-30.7109 Y40.7218 
G01 X-30.7109 Y40.5582 
G01 X-30.7365 Y40.3967 
G01 X-30.7870 Y40.2411 
G01 X-30.8613 Y40.0954 
G01 X-30.9574 Y39.9631 
G01 X-31.0731 Y39.8474 
G01 X-31.2054 Y39.7513 
G01 X-31.3511 Y39.6770 
G01 X-31.5067 Y39.6265 
G01 X-31.6682 Y39.6009 
G01 X-34.3939 Y39.6009 
G01 X-34.3939 Y39.5941 
G01 X-34.4168 Y39.5390 
G01 X-34.4590 Y39.4967 
G01 X-34.5141 Y39.4739 
G01 X-36.6059 Y39.4739 
G01 X-36.6610 Y39.4967 
G01 X-36.7032 Y39.5390 
G01 X-36.7261 Y39.5941 
G01 X-36.7261 Y41.6859 
G01 X-36.7032 Y41.7410 
G01 X-36.6610 Y41.7832 
G01 X-36.6059 Y41.8061 
G01 X-34.5141 Y41.8061 
G01 X-34.4590 Y41.7832 
G01 X-34.4168 Y41.7410 
G01 X-34.3939 Y41.6859 
G00 Z1.0000 
G00 X-63.3394 Y45.6796 
G01 Z-0.1700 F250.00 
G01 X-63.2691 Y45.6796 F250.00 
G01 X-63.2691 Y47.0431 
G01 X-63.3267 Y47.0431 
G01 X-63.3818 Y47.0660 
G01 X-63.4240 Y47.1082 
G01 X-63.4469 Y47.1633 
G01 X-63.4469 Y49.3567 
G01 X-63.4240 Y49.4118 
G01 X-63.3818 Y49.4540 
G01 X-63.3267 Y49.4769 
G01 X-61.1333 Y49.4769 
G01 X-61.0782 Y49.4540 
G01 X-61.0359 Y49.4118 
G01 X-61.0131 Y49.3567 
G01 X-61.0131 Y47.1633 
G01 X-61.0359 Y47.1082 
G01 X-61.0782 Y47.0660 
G01 X-61.1333 Y47.0431 
G01 X-61.1909 Y47.0431 
G01 X-61.1909 Y45.6796 
G01 X-61.1206 Y45.6796 
G01 X-61.0655 Y45.6567 
G01 X-61.0233 Y45.6145 
G01 X-61.0004 Y45.5594 
G01 X-61.0004 Y43.3406 
G01 X-61.0233 Y43.2855 
G01 X-61.0655 Y43.2433 
G01 X-61.1206 Y43.2204 
G01 X-63.3394 Y43.2204 
G01 X-63.3945 Y43.2433 
G01 X-63.4367 Y43.2855 
G01 X-63.4596 Y43.3406 
G01 X-63.4596 Y45.5594 
G01 X-63.4367 Y45.6145 
G01 X-63.3945 Y45.6567 
G01 X-63.3394 Y45.6796 
G00 Z1.0000 
G00 X-48.0994 Y60.9196 
G01 Z-0.1700 F250.00 
G01 X-45.8806 Y60.9196 F250.00 
G01 X-45.8255 Y60.8967 
G01 X-45.7833 Y60.8545 
G01 X-45.7604 Y60.7994 
G01 X-45.7604 Y58.5806 
G01 X-45.7833 Y58.5255 
G01 X-45.8255 Y58.4833 
G01 X-45.8806 Y58.4604 
G01 X-45.9509 Y58.4604 
G01 X-45.9509 Y57.0969 
G01 X-45.8933 Y57.0969 
G01 X-45.8382 Y57.0740 
G01 X-45.7960 Y57.0318 
G01 X-45.7731 Y56.9767 
G01 X-45.7731 Y54.7833 
G01 X-45.7960 Y54.7282 
G01 X-45.8382 Y54.6860 
G01 X-45.8933 Y54.6631 
G01 X-48.0867 Y54.6631 
G01 X-48.1418 Y54.6860 
G01 X-48.1840 Y54.7282 
G01 X-48.2069 Y54.7833 
G01 X-48.2069 Y56.9767 
G01 X-48.1840 Y57.0318 
G01 X-48.1418 Y57.0740 
G01 X-48.0867 Y57.0969 
G01 X-48.0291 Y57.0969 
G01 X-48.0291 Y58.4604 
G01 X-48.0994 Y58.4604 
G01 X-48.1545 Y58.4833 
G01 X-48.1967 Y58.5255 
G01 X-48.2196 Y58.5806 
G01 X-48.2196 Y60.7994 
G01 X-48.1967 Y60.8545 
G01 X-48.1545 Y60.8967 
G01 X-48.0994 Y60.9196 
G00 Z1.0000 
G00 X-58.2594 Y45.6796 
G01 Z-0.1700 F250.00 
G01 X-58.1891 Y45.6796 F250.00 
G01 X-58.1891 Y47.0431 
G01 X-58.2467 Y47.0431 
G01 X-58.3018 Y47.0660 
G01 X-58.3440 Y47.1082 
G01 X-58.3669 Y47.1633 
G01 X-58.3669 Y49.3567 
G01 X-58.3440 Y49.4118 
G01 X-58.3018 Y49.4540 
G01 X-58.2467 Y49.4769 
G01 X-56.0533 Y49.4769 
G01 X-55.9982 Y49.4540 
G01 X-55.9560 Y49.4118 
G01 X-55.9331 Y49.3567 
G01 X-55.9331 Y47.1633 
G01 X-55.9560 Y47.1082 
G01 X-55.9982 Y47.0660 
G01 X-56.0533 Y47.0431 
G01 X-56.1109 Y47.0431 
G01 X-56.1109 Y45.6796 
G01 X-56.0406 Y45.6796 
G01 X-55.9855 Y45.6567 
G01 X-55.9433 Y45.6145 
G01 X-55.9204 Y45.5594 
G01 X-55.9204 Y43.3406 
G01 X-55.9433 Y43.2855 
G01 X-55.9855 Y43.2433 
G01 X-56.0406 Y43.2204 
G01 X-58.2594 Y43.2204 
G01 X-58.3145 Y43.2433 
G01 X-58.3567 Y43.2855 
G01 X-58.3796 Y43.3406 
G01 X-58.3796 Y45.5594 
G01 X-58.3567 Y45.6145 
G01 X-58.3145 Y45.6567 
G01 X-58.2594 Y45.6796 
G00 Z1.0000 
G00 X-68.4194 Y45.6796 
G01 Z-0.1700 F250.00 
G01 X-68.3491 Y45.6796 F250.00 
G01 X-68.3491 Y47.0431 
G01 X-68.4067 Y47.0431 
G01 X-68.4618 Y47.0660 
G01 X-68.5040 Y47.1082 
G01 X-68.5269 Y47.1633 
G01 X-68.5269 Y49.3567 
G01 X-68.5040 Y49.4118 
G01 X-68.4618 Y49.4540 
G01 X-68.4067 Y49.4769 
G01 X-66.2133 Y49.4769 
G01 X-66.1582 Y49.4540 
G01 X-66.1159 Y49.4118 
G01 X-66.0931 Y49.3567 
G01 X-66.0931 Y47.1633 
G01 X-66.1159 Y47.1082 
G01 X-66.1582 Y47.0660 
G01 X-66.2133 Y47.0431 
G01 X-66.2709 Y47.0431 
G01 X-66.2709 Y45.6796 
G01 X-66.2006 Y45.6796 
G01 X-66.1455 Y45.6567 
G01 X-66.1033 Y45.6145 
G01 X-66.0804 Y45.5594 
G01 X-66.0804 Y43.3406 
G01 X-66.1033 Y43.2855 
G01 X-66.1455 Y43.2433 
G01 X-66.2006 Y43.2204 
G01 X-68.4194 Y43.2204 
G01 X-68.4745 Y43.2433 
G01 X-68.5167 Y43.2855 
G01 X-68.5396 Y43.3406 
G01 X-68.5396 Y45.5594 
G01 X-68.5167 Y45.6145 
G01 X-68.4745 Y45.6567 
G01 X-68.4194 Y45.6796 
G00 Z1.0000 
G00 X-63.3394 Y60.9196 
G01 Z-0.1700 F250.00 
G01 X-61.1206 Y60.9196 F250.00 
G01 X-61.0655 Y60.8967 
G01 X-61.0233 Y60.8545 
G01 X-61.0004 Y60.7994 
G01 X-61.0004 Y58.5806 
G01 X-61.0233 Y58.5255 
G01 X-61.0655 Y58.4833 
G01 X-61.1206 Y58.4604 
G01 X-61.1909 Y58.4604 
G01 X-61.1909 Y57.0969 
G01 X-61.1333 Y57.0969 
G01 X-61.0782 Y57.0740 
G01 X-61.0359 Y57.0318 
G01 X-61.0131 Y56.9767 
G01 X-61.0131 Y54.7833 
G01 X-61.0359 Y54.7282 
G01 X-61.0782 Y54.6860 
G01 X-61.1333 Y54.6631 
G01 X-63.3267 Y54.6631 
G01 X-63.3818 Y54.6860 
G01 X-63.4240 Y54.7282 
G01 X-63.4469 Y54.7833 
G01 X-63.4469 Y56.9767 
G01 X-63.4240 Y57.0318 
G01 X-63.3818 Y57.0740 
G01 X-63.3267 Y57.0969 
G01 X-63.2691 Y57.0969 
G01 X-63.2691 Y58.4604 
G01 X-63.3394 Y58.4604 
G01 X-63.3945 Y58.4833 
G01 X-63.4367 Y58.5255 
G01 X-63.4596 Y58.5806 
G01 X-63.4596 Y60.7994 
G01 X-63.4367 Y60.8545 
G01 X-63.3945 Y60.8967 
G01 X-63.3394 Y60.9196 
G00 Z1.0000 
G00 X-58.2594 Y60.9196 
G01 Z-0.1700 F250.00 
G01 X-56.0406 Y60.9196 F250.00 
G01 X-55.9855 Y60.8967 
G01 X-55.9433 Y60.8545 
G01 X-55.9204 Y60.7994 
G01 X-55.9204 Y58.5806 
G01 X-55.9433 Y58.5255 
G01 X-55.9855 Y58.4833 
G01 X-56.0406 Y58.4604 
G01 X-56.1109 Y58.4604 
G01 X-56.1109 Y57.0969 
G01 X-56.0533 Y57.0969 
G01 X-55.9982 Y57.0740 
G01 X-55.9560 Y57.0318 
G01 X-55.9331 Y56.9767 
G01 X-55.9331 Y54.7833 
G01 X-55.9560 Y54.7282 
G01 X-55.9982 Y54.6860 
G01 X-56.0533 Y54.6631 
G01 X-58.2467 Y54.6631 
G01 X-58.3018 Y54.6860 
G01 X-58.3440 Y54.7282 
G01 X-58.3669 Y54.7833 
G01 X-58.3669 Y56.9767 
G01 X-58.3440 Y57.0318 
G01 X-58.3018 Y57.0740 
G01 X-58.2467 Y57.0969 
G01 X-58.1891 Y57.0969 
G01 X-58.1891 Y58.4604 
G01 X-58.2594 Y58.4604 
G01 X-58.3145 Y58.4833 
G01 X-58.3567 Y58.5255 
G01 X-58.3796 Y58.5806 
G01 X-58.3796 Y60.7994 
G01 X-58.3567 Y60.8545 
G01 X-58.3145 Y60.8967 
G01 X-58.2594 Y60.9196 
G00 Z1.0000 
G00 X-37.9394 Y60.9196 
G01 Z-0.1700 F250.00 
G01 X-35.7206 Y60.9196 F250.00 
G01 X-35.6655 Y60.8967 
G01 X-35.6232 Y60.8545 
G01 X-35.6004 Y60.7994 
G01 X-35.6004 Y58.5806 
G01 X-35.6232 Y58.5255 
G01 X-35.6655 Y58.4833 
G01 X-35.7206 Y58.4604 
G01 X-35.7909 Y58.4604 
G01 X-35.7909 Y57.0969 
G01 X-35.7333 Y57.0969 
G01 X-35.6782 Y57.0740 
G01 X-35.6360 Y57.0318 
G01 X-35.6131 Y56.9767 
G01 X-35.6131 Y54.7833 
G01 X-35.6360 Y54.7282 
G01 X-35.6782 Y54.6860 
G01 X-35.7333 Y54.6631 
G01 X-37.9267 Y54.6631 
G01 X-37.9818 Y54.6860 
G01 X-38.0240 Y54.7282 
G01 X-38.0469 Y54.7833 
G01 X-38.0469 Y56.9767 
G01 X-38.0240 Y57.0318 
G01 X-37.9818 Y57.0740 
G01 X-37.9267 Y57.0969 
G01 X-37.8691 Y57.0969 
G01 X-37.8691 Y58.4604 
G01 X-37.9394 Y58.4604 
G01 X-37.9945 Y58.4833 
G01 X-38.0367 Y58.5255 
G01 X-38.0596 Y58.5806 
G01 X-38.0596 Y60.7994 
G01 X-38.0367 Y60.8545 
G01 X-37.9945 Y60.8967 
G01 X-37.9394 Y60.9196 
G00 Z1.0000 
G00 X-43.0194 Y60.9196 
G01 Z-0.1700 F250.00 
G01 X-40.8006 Y60.9196 F250.00 
G01 X-40.7455 Y60.8967 
G01 X-40.7033 Y60.8545 
G01 X-40.6804 Y60.7994 
G01 X-40.6804 Y58.5806 
G01 X-40.7033 Y58.5255 
G01 X-40.7455 Y58.4833 
G01 X-40.8006 Y58.4604 
G01 X-40.8709 Y58.4604 
G01 X-40.8709 Y57.0969 
G01 X-40.8133 Y57.0969 
G01 X-40.7582 Y57.0740 
G01 X-40.7159 Y57.0318 
G01 X-40.6931 Y56.9767 
G01 X-40.6931 Y54.7833 
G01 X-40.7159 Y54.7282 
G01 X-40.7582 Y54.6860 
G01 X-40.8133 Y54.6631 
G01 X-43.0067 Y54.6631 
G01 X-43.0618 Y54.6860 
G01 X-43.1040 Y54.7282 
G01 X-43.1269 Y54.7833 
G01 X-43.1269 Y56.9767 
G01 X-43.1040 Y57.0318 
G01 X-43.0618 Y57.0740 
G01 X-43.0067 Y57.0969 
G01 X-42.9491 Y57.0969 
G01 X-42.9491 Y58.4604 
G01 X-43.0194 Y58.4604 
G01 X-43.0745 Y58.4833 
G01 X-43.1167 Y58.5255 
G01 X-43.1396 Y58.5806 
G01 X-43.1396 Y60.7994 
G01 X-43.1167 Y60.8545 
G01 X-43.0745 Y60.8967 
G01 X-43.0194 Y60.9196 
G00 Z1.0000 
G82 X-31.7500 Y40.6400 Z-0.2000 F250.00 R1.0000 P0.000000
G82 X-52.0700 Y45.7200 
G82 X-26.6700 Y45.7200 
G82 X-26.6700 Y38.1000 
G82 X-17.7800 Y38.1000 
G82 X-17.7800 Y21.5900 
G82 X-39.3700 Y24.1300 
G82 X-39.3700 Y24.1300 
G82 X-73.6600 Y24.1300 
G82 X-73.6600 Y24.1300 
G82 X-39.3700 Y24.1300 
G82 X-39.3700 Y24.1300 
G82 X-44.4500 Y45.7200 
G82 X-71.1200 Y26.6700 
G82 X-71.1200 Y19.0500 
G82 X-71.1200 Y26.6700 
G82 X-71.1200 Y26.6700 
G82 X-45.7200 Y19.0500 
G82 X-45.7200 Y26.6700 
G82 X-45.7200 Y26.6700 
G82 X-45.7200 Y26.6700 
G82 X-20.3200 Y19.0500 
G82 X-20.3200 Y26.6700 
G82 X-20.3200 Y26.6700 
G82 X-20.3200 Y26.6700 
G82 X-29.2100 Y45.7200 
G82 X-25.4000 Y19.0500 
G82 X-25.4000 Y29.2100 
G82 X-50.8000 Y19.0500 
G82 X-50.8000 Y29.2100 
G82 X-58.4200 Y19.0500 
G82 X-58.4200 Y29.2100 
G82 X-76.2000 Y29.2100 
G82 X-58.4200 Y29.2100 
G82 X-58.4200 Y29.2100 
G82 X-33.0200 Y19.0500 
G82 X-33.0200 Y29.2100 
G82 X-10.1600 Y19.0500 
G82 X-10.1600 Y29.2100 
G82 X-25.4000 Y29.2100 
G82 X-25.4000 Y29.2100 
G82 X-5.0800 Y16.5100 
G82 X-7.6200 Y16.5100 
G82 X-30.4800 Y16.5100 
G82 X-33.0200 Y16.5100 
G82 X-55.8800 Y16.5100 
G82 X-58.4200 Y16.5100 
G82 X-3.8100 Y36.8300 
G82 X-3.8100 Y39.3700 
G82 X-3.8100 Y24.1300 
G82 X-3.8100 Y20.3200 
G82 X-3.8100 Y44.4500 
G82 X-10.1600 Y8.8900 
G82 X-12.7000 Y8.8900 
G82 X-15.2400 Y8.8900 
G82 X-17.7800 Y8.8900 
G82 X-20.3200 Y8.8900 
G82 X-22.8600 Y8.8900 
G82 X-25.4000 Y8.8900 
G82 X-27.9400 Y8.8900 
G82 X-27.9400 Y16.5100 
G82 X-25.4000 Y16.5100 
G82 X-22.8600 Y16.5100 
G82 X-20.3200 Y16.5100 
G82 X-17.7800 Y16.5100 
G82 X-15.2400 Y16.5100 
G82 X-12.7000 Y16.5100 
G82 X-10.1600 Y16.5100 
G82 X-35.5600 Y8.8900 
G82 X-38.1000 Y8.8900 
G82 X-40.6400 Y8.8900 
G82 X-43.1800 Y8.8900 
G82 X-45.7200 Y8.8900 
G82 X-48.2600 Y8.8900 
G82 X-50.8000 Y8.8900 
G82 X-53.3400 Y8.8900 
G82 X-53.3400 Y16.5100 
G82 X-50.8000 Y16.5100 
G82 X-48.2600 Y16.5100 
G82 X-45.7200 Y16.5100 
G82 X-43.1800 Y16.5100 
G82 X-40.6400 Y16.5100 
G82 X-38.1000 Y16.5100 
G82 X-35.5600 Y16.5100 
G82 X-60.9600 Y8.8900 
G82 X-63.5000 Y8.8900 
G82 X-66.0400 Y8.8900 
G82 X-68.5800 Y8.8900 
G82 X-71.1200 Y8.8900 
G82 X-73.6600 Y8.8900 
G82 X-76.2000 Y8.8900 
G82 X-78.7400 Y8.8900 
G82 X-78.7400 Y16.5100 
G82 X-76.2000 Y16.5100 
G82 X-73.6600 Y16.5100 
G82 X-71.1200 Y16.5100 
G82 X-68.5800 Y16.5100 
G82 X-66.0400 Y16.5100 
G82 X-63.5000 Y16.5100 
G82 X-60.9600 Y16.5100 
G82 X-3.8100 Y27.9400 
G82 X-7.6200 Y5.0800 
G82 X-10.1600 Y5.0800 
G82 X-12.7000 Y5.0800 
G82 X-17.7800 Y5.0800 
G82 X-15.2400 Y5.0800 
G82 X-20.3200 Y5.0800 
G82 X-22.8600 Y5.0800 
G82 X-25.4000 Y5.0800 
G82 X-33.0200 Y5.0800 
G82 X-35.5600 Y5.0800 
G82 X-38.1000 Y5.0800 
G82 X-40.6400 Y5.0800 
G82 X-43.1800 Y5.0800 
G82 X-45.7200 Y5.0800 
G82 X-48.2600 Y5.0800 
G82 X-50.8000 Y5.0800 
G82 X-58.4200 Y5.0800 
G82 X-60.9600 Y5.0800 
G82 X-63.5000 Y5.0800 
G82 X-66.0400 Y5.0800 
G82 X-68.5800 Y5.0800 
G82 X-71.1200 Y5.0800 
G82 X-73.6600 Y5.0800 
G82 X-76.2000 Y5.0800 
G82 X-44.4500 Y59.6900 
G82 X-54.6100 Y44.4500 
G82 X-59.6900 Y44.4500 
G82 X-62.2300 Y44.4500 
G82 X-46.9900 Y59.6900 
G82 X-57.1500 Y44.4500 
G82 X-64.7700 Y44.4500 
G82 X-67.3100 Y44.4500 
G82 X-64.7700 Y59.6900 
G82 X-62.2300 Y59.6900 
G82 X-59.6900 Y59.6900 
G82 X-57.1500 Y59.6900 
G82 X-54.6100 Y59.6900 
G82 X-36.8300 Y59.6900 
G82 X-41.9100 Y59.6900 
G82 X-39.3700 Y59.6900 
G82 X-20.3200 Y43.1800 
G82 X-10.1600 Y43.1800 
G82 X-40.6400 Y43.1800 
G82 X-40.6400 Y40.6400 
G82 X-38.1000 Y43.1800 
G82 X-38.1000 Y40.6400 
G82 X-35.5600 Y43.1800 
G82 X-35.5600 Y40.6400 
G82 X-67.3100 Y55.8800 
G82 X-64.7700 Y55.8800 
G82 X-62.2300 Y55.8800 
G82 X-59.6900 Y55.8800 
G82 X-57.1500 Y55.8800 
G82 X-54.6100 Y55.8800 
G82 X-52.0700 Y55.8800 
G82 X-49.5300 Y55.8800 
G82 X-46.9900 Y55.8800 
G82 X-44.4500 Y55.8800 
G82 X-41.9100 Y55.8800 
G82 X-39.3700 Y55.8800 
G82 X-36.8300 Y55.8800 
G82 X-34.2900 Y55.8800 
G82 X-34.2900 Y48.2600 
G82 X-36.8300 Y48.2600 
G82 X-39.3700 Y48.2600 
G82 X-41.9100 Y48.2600 
G82 X-44.4500 Y48.2600 
G82 X-46.9900 Y48.2600 
G82 X-49.5300 Y48.2600 
G82 X-52.0700 Y48.2600 
G82 X-54.6100 Y48.2600 
G82 X-57.1500 Y48.2600 
G82 X-59.6900 Y48.2600 
G82 X-62.2300 Y48.2600 
G82 X-64.7700 Y48.2600 
G82 X-67.3100 Y48.2600 
G82 X-3.8100 Y33.0200 
M05
M02
