(.../pcb-gcode-3.6.0.4/pcb-gcode.ulp)
(Copyright 2005 - 2012 by John Johnson)
(See readme.txt for licensing terms.)
(This file generated from the board:)
(.../NC/eagle/shifter2-8rgb-atmel.brd)
(Current profile is .../pcb-gcode-3.6.0.4/profiles/emc.pp  )
(This file generated 06.08.14 21:21)
(Settings from pcb-machine.h)
(  Tool Size)
(0.3000 )
(Z Axis Settings)
(  High     Up        Down     Drill)
(1.0000 	1.0000 	-0.1700 	-0.2000 )
(spindle on time = 0.0000)
(milling depth = -0.1700)
(text depth = -0.1270)
(tool change at 12.7000 15.2400 25.4000 )
(feed rate xy = F250.00 )
(feed rate z  = F250.00 )
(Settings from pcb-defaults.h)
(isolate min = 0.0001)
(isolate max = 0.5080)
(isolate step = 0.1270)
(Generated bottom outlines, bottom drill, )
(Unit of measure: mm)
( Tool|       Size       |  Min Sub |  Max Sub |   Count )
( T01 | 0.600mm 0.0236in | 0.0000in | 0.0000in |       0 )
( T02 | 0.813mm 0.0320in | 0.0000in | 0.0000in |       0 )
( T03 | 1.016mm 0.0400in | 0.0000in | 0.0000in |       0 )
( T04 | 1.118mm 0.0440in | 0.0000in | 0.0000in |       0 )
(Metric Mode)
G21
(Absolute Coordinates)
G90
M05
G00 Z25.4000 
G00 X12.7000 Y15.2400 
M06 T01 (0.6000 )
G01 Z0.0000 F250.00 
M06 T01 (0.6000 )
G00 Z1.0000 
M03
G04 P0.000000
G82 X-31.7500 Y40.6400 Z-0.2000 F250.00 R1.0000 P0.000000
G82 X-33.0200 Y19.0500 
G82 X-33.0200 Y29.2100 
G82 X-39.3700 Y24.1300 
G82 X-39.3700 Y24.1300 
G82 X-39.3700 Y24.1300 
G82 X-39.3700 Y24.1300 
G82 X-44.4500 Y45.7200 
G82 X-45.7200 Y19.0500 
G82 X-45.7200 Y26.6700 
G82 X-45.7200 Y26.6700 
G82 X-45.7200 Y26.6700 
G82 X-50.8000 Y19.0500 
G82 X-50.8000 Y29.2100 
G82 X-52.0700 Y45.7200 
G82 X-58.4200 Y19.0500 
G82 X-58.4200 Y29.2100 
G82 X-58.4200 Y29.2100 
G82 X-58.4200 Y29.2100 
G82 X-71.1200 Y19.0500 
G82 X-71.1200 Y26.6700 
G82 X-71.1200 Y26.6700 
G82 X-71.1200 Y26.6700 
G82 X-73.6600 Y24.1300 
G82 X-73.6600 Y24.1300 
G82 X-76.2000 Y29.2100 
G82 X-10.1600 Y19.0500 
G82 X-10.1600 Y29.2100 
G82 X-17.7800 Y38.1000 
G82 X-17.7800 Y21.5900 
G82 X-20.3200 Y19.0500 
G82 X-20.3200 Y26.6700 
G82 X-20.3200 Y26.6700 
G82 X-20.3200 Y26.6700 
G82 X-25.4000 Y19.0500 
G82 X-25.4000 Y29.2100 
G82 X-25.4000 Y29.2100 
G82 X-25.4000 Y29.2100 
G82 X-26.6700 Y38.1000 
G82 X-26.6700 Y45.7200 
G82 X-29.2100 Y45.7200 
M05
G00 Z25.4000 
M06 T02 (0.8128 )
G01 Z0.0000 F250.00 
M06 T02 (0.8128 )
G00 Z1.0000 
M03
G04 P0.000000
G82 X-33.0200 Y16.5100 Z-0.2000 F250.00 R1.0000 P0.000000
G82 X-35.5600 Y8.8900 
G82 X-35.5600 Y16.5100 
G82 X-3.8100 Y36.8300 
G82 X-3.8100 Y39.3700 
G82 X-38.1000 Y8.8900 
G82 X-38.1000 Y16.5100 
G82 X-40.6400 Y8.8900 
G82 X-40.6400 Y16.5100 
G82 X-43.1800 Y8.8900 
G82 X-43.1800 Y16.5100 
G82 X-45.7200 Y8.8900 
G82 X-45.7200 Y16.5100 
G82 X-48.2600 Y8.8900 
G82 X-48.2600 Y16.5100 
G82 X-5.0800 Y16.5100 
G82 X-50.8000 Y8.8900 
G82 X-50.8000 Y16.5100 
G82 X-53.3400 Y8.8900 
G82 X-53.3400 Y16.5100 
G82 X-55.8800 Y16.5100 
G82 X-58.4200 Y16.5100 
G82 X-60.9600 Y8.8900 
G82 X-60.9600 Y16.5100 
G82 X-63.5000 Y8.8900 
G82 X-63.5000 Y16.5100 
G82 X-66.0400 Y8.8900 
G82 X-66.0400 Y16.5100 
G82 X-68.5800 Y8.8900 
G82 X-68.5800 Y16.5100 
G82 X-71.1200 Y8.8900 
G82 X-71.1200 Y16.5100 
G82 X-73.6600 Y8.8900 
G82 X-73.6600 Y16.5100 
G82 X-7.6200 Y16.5100 
G82 X-76.2000 Y8.8900 
G82 X-76.2000 Y16.5100 
G82 X-78.7400 Y8.8900 
G82 X-78.7400 Y16.5100 
G82 X-10.1600 Y43.1800 
G82 X-10.1600 Y8.8900 
G82 X-10.1600 Y16.5100 
G82 X-12.7000 Y8.8900 
G82 X-12.7000 Y16.5100 
G82 X-15.2400 Y8.8900 
G82 X-15.2400 Y16.5100 
G82 X-17.7800 Y8.8900 
G82 X-17.7800 Y16.5100 
G82 X-20.3200 Y43.1800 
G82 X-20.3200 Y8.8900 
G82 X-20.3200 Y16.5100 
G82 X-22.8600 Y8.8900 
G82 X-22.8600 Y16.5100 
G82 X-25.4000 Y8.8900 
G82 X-25.4000 Y16.5100 
G82 X-27.9400 Y8.8900 
G82 X-27.9400 Y16.5100 
G82 X-30.4800 Y16.5100 
M05
G00 Z25.4000 
M06 T03 (1.0160 )
G01 Z0.0000 F250.00 
M06 T03 (1.0160 )
G00 Z1.0000 
M03
G04 P0.000000
G82 X-33.0200 Y5.0800 Z-0.2000 F250.00 R1.0000 P0.000000
G82 X-35.5600 Y40.6400 
G82 X-35.5600 Y43.1800 
G82 X-35.5600 Y5.0800 
G82 X-36.8300 Y59.6900 
G82 X-3.8100 Y33.0200 
G82 X-3.8100 Y44.4500 
G82 X-3.8100 Y20.3200 
G82 X-3.8100 Y24.1300 
G82 X-3.8100 Y27.9400 
G82 X-38.1000 Y40.6400 
G82 X-38.1000 Y43.1800 
G82 X-38.1000 Y5.0800 
G82 X-39.3700 Y59.6900 
G82 X-40.6400 Y40.6400 
G82 X-40.6400 Y43.1800 
G82 X-40.6400 Y5.0800 
G82 X-41.9100 Y59.6900 
G82 X-43.1800 Y5.0800 
G82 X-44.4500 Y59.6900 
G82 X-45.7200 Y5.0800 
G82 X-46.9900 Y59.6900 
G82 X-48.2600 Y5.0800 
G82 X-50.8000 Y5.0800 
G82 X-54.6100 Y44.4500 
G82 X-54.6100 Y59.6900 
G82 X-57.1500 Y44.4500 
G82 X-57.1500 Y59.6900 
G82 X-58.4200 Y5.0800 
G82 X-59.6900 Y44.4500 
G82 X-59.6900 Y59.6900 
G82 X-60.9600 Y5.0800 
G82 X-62.2300 Y44.4500 
G82 X-62.2300 Y59.6900 
G82 X-63.5000 Y5.0800 
G82 X-64.7700 Y44.4500 
G82 X-64.7700 Y59.6900 
G82 X-66.0400 Y5.0800 
G82 X-67.3100 Y44.4500 
G82 X-68.5800 Y5.0800 
G82 X-71.1200 Y5.0800 
G82 X-73.6600 Y5.0800 
G82 X-7.6200 Y5.0800 
G82 X-76.2000 Y5.0800 
G82 X-10.1600 Y5.0800 
G82 X-12.7000 Y5.0800 
G82 X-15.2400 Y5.0800 
G82 X-17.7800 Y5.0800 
G82 X-20.3200 Y5.0800 
G82 X-22.8600 Y5.0800 
G82 X-25.4000 Y5.0800 
M05
G00 Z25.4000 
M06 T04 (1.1176 )
G01 Z0.0000 F250.00 
M06 T04 (1.1176 )
G00 Z1.0000 
M03
G04 P0.000000
G82 X-34.2900 Y48.2600 Z-0.2000 F250.00 R1.0000 P0.000000
G82 X-34.2900 Y55.8800 
G82 X-36.8300 Y48.2600 
G82 X-36.8300 Y55.8800 
G82 X-39.3700 Y48.2600 
G82 X-39.3700 Y55.8800 
G82 X-41.9100 Y48.2600 
G82 X-41.9100 Y55.8800 
G82 X-44.4500 Y48.2600 
G82 X-44.4500 Y55.8800 
G82 X-46.9900 Y48.2600 
G82 X-46.9900 Y55.8800 
G82 X-49.5300 Y48.2600 
G82 X-49.5300 Y55.8800 
G82 X-52.0700 Y48.2600 
G82 X-52.0700 Y55.8800 
G82 X-54.6100 Y48.2600 
G82 X-54.6100 Y55.8800 
G82 X-57.1500 Y48.2600 
G82 X-57.1500 Y55.8800 
G82 X-59.6900 Y48.2600 
G82 X-59.6900 Y55.8800 
G82 X-62.2300 Y48.2600 
G82 X-62.2300 Y55.8800 
G82 X-64.7700 Y48.2600 
G82 X-64.7700 Y55.8800 
G82 X-67.3100 Y48.2600 
G82 X-67.3100 Y55.8800 
T01 
M05
M02
