(.../pcb-gcode-3.6.0.4/pcb-gcode.ulp)
(Copyright 2005 - 2012 by John Johnson)
(See readme.txt for licensing terms.)
(This file generated from the board:)
(/home/mst/NC/eagle/shifter.brd)
(Current profile is .../pcb-gcode-3.6.0.4/profiles/emc.pp  )
(This file generated 08.06.13 00:48)
(Settings from pcb-machine.h)
(  Tool Size)
(0.3000 )
(Z Axis Settings)
(  High     Up        Down     Drill)
(1.0000 	1.0000 	-0.1500 	-0.2000 )
(spindle on time = 0.0000)
(milling depth = -0.1500)
(text depth = -0.1270)
(tool change at 12.7000 15.2400 25.4000 )
(feed rate xy = F250.00 )
(feed rate z  = F250.00 )
(Settings from pcb-defaults.h)
(isolate min = 0.0010)
(isolate max = 0.5080)
(isolate step = 0.1270)
(Generated bottom outlines, bottom drill, )
(Unit of measure: mm)
(Metric Mode)
G21
(Absolute Coordinates)
G90
G00 X0.0000 Y0.0000 
M03
G04 P0.000000
G00 Z1.0000 
G00 X-14.0095 Y33.7326 
G01 Z-0.1500 F250.00 
G01 X-14.0095 Y33.5774 F250.00 
G01 X-11.9874 Y33.5774 
G01 X-11.9874 Y33.7326 
G01 X-14.0095 Y33.7326 
G00 Z1.0000 
G00 X-19.7042 Y33.7568 
G01 Z-0.1500 F250.00 
G01 X-19.7042 Y34.8232 F250.00 
G01 X-19.6812 Y34.8787 
G01 X-19.6387 Y34.9212 
G01 X-19.6074 Y34.9342 
G01 X-19.6074 Y35.7646 
G01 X-19.9944 Y35.7646 
G01 X-20.0499 Y35.7876 
G01 X-20.0924 Y35.8301 
G01 X-20.1154 Y35.8856 
G01 X-20.1154 Y37.7744 
G01 X-20.0924 Y37.8299 
G01 X-20.0499 Y37.8724 
G01 X-19.9944 Y37.8954 
G01 X-18.1056 Y37.8954 
G01 X-18.0501 Y37.8724 
G01 X-18.0076 Y37.8299 
G01 X-17.9846 Y37.7744 
G01 X-17.9846 Y35.8856 
G01 X-18.0076 Y35.8301 
G01 X-18.0501 Y35.7876 
G01 X-18.1056 Y35.7646 
G01 X-18.4926 Y35.7646 
G01 X-18.4926 Y34.9342 
G01 X-18.4613 Y34.9212 
G01 X-18.4188 Y34.8787 
G01 X-18.3958 Y34.8232 
G01 X-18.3958 Y33.7568 
G01 X-18.4188 Y33.7013 
G01 X-18.4613 Y33.6588 
G01 X-18.5168 Y33.6358 
G01 X-19.5832 Y33.6358 
G01 X-19.6387 Y33.6588 
G01 X-19.6812 Y33.7013 
G01 X-19.7042 Y33.7568 
G00 Z1.0000 
G00 X-10.1205 Y34.4505 
G01 Z-0.1500 F250.00 
G01 X-10.1205 Y35.0026 F250.00 
G01 X-10.7858 Y35.0026 
G01 X-10.7988 Y34.9713 
G01 X-10.8413 Y34.9288 
G01 X-10.8726 Y34.9158 
G01 X-10.8726 Y32.9466 
G01 X-10.9106 Y32.8049 
G01 X-10.9840 Y32.6777 
G01 X-11.0877 Y32.5740 
G01 X-11.2149 Y32.5006 
G01 X-11.3566 Y32.4626 
G01 X-14.0095 Y32.4626 
G01 X-14.0095 Y31.9105 
G01 X-14.0325 Y31.8550 
G01 X-14.0750 Y31.8125 
G01 X-14.1305 Y31.7895 
G01 X-15.9526 Y31.7895 
G01 X-15.9526 Y30.4066 
G01 X-15.9906 Y30.2649 
G01 X-16.0640 Y30.1377 
G01 X-16.1677 Y30.0340 
G01 X-16.2949 Y29.9606 
G01 X-16.4366 Y29.9226 
G01 X-28.5658 Y29.9226 
G01 X-28.5788 Y29.8913 
G01 X-28.6213 Y29.8488 
G01 X-28.6768 Y29.8258 
G01 X-29.7432 Y29.8258 
G01 X-29.7987 Y29.8488 
G01 X-29.8412 Y29.8913 
G01 X-29.8542 Y29.9226 
G01 X-33.6458 Y29.9226 
G01 X-33.6588 Y29.8913 
G01 X-33.7013 Y29.8488 
G01 X-33.7568 Y29.8258 
G01 X-34.8232 Y29.8258 
G01 X-34.8787 Y29.8488 
G01 X-34.9212 Y29.8913 
G01 X-34.9342 Y29.9226 
G01 X-37.4558 Y29.9226 
G01 X-37.4688 Y29.8913 
G01 X-37.5113 Y29.8488 
G01 X-37.5668 Y29.8258 
G01 X-38.6332 Y29.8258 
G01 X-38.6887 Y29.8488 
G01 X-38.7312 Y29.8913 
G01 X-38.7442 Y29.9226 
G01 X-55.2358 Y29.9226 
G01 X-55.2488 Y29.8913 
G01 X-55.2913 Y29.8488 
G01 X-55.3468 Y29.8258 
G01 X-56.4132 Y29.8258 
G01 X-56.4687 Y29.8488 
G01 X-56.5112 Y29.8913 
G01 X-56.5242 Y29.9226 
G01 X-60.3158 Y29.9226 
G01 X-60.3288 Y29.8913 
G01 X-60.3713 Y29.8488 
G01 X-60.4268 Y29.8258 
G01 X-61.4932 Y29.8258 
G01 X-61.5487 Y29.8488 
G01 X-61.5912 Y29.8913 
G01 X-61.6042 Y29.9226 
G01 X-64.1258 Y29.9226 
G01 X-64.1388 Y29.8913 
G01 X-64.1813 Y29.8488 
G01 X-64.2368 Y29.8258 
G01 X-65.3032 Y29.8258 
G01 X-65.3587 Y29.8488 
G01 X-65.4012 Y29.8913 
G01 X-65.4142 Y29.9226 
G01 X-81.9926 Y29.9226 
G01 X-81.9926 Y22.6554 
G01 X-81.6056 Y22.6554 
G01 X-81.5501 Y22.6324 
G01 X-81.5076 Y22.5899 
G01 X-81.4846 Y22.5344 
G01 X-81.4846 Y20.6456 
G01 X-81.5076 Y20.5901 
G01 X-81.5501 Y20.5476 
G01 X-81.6056 Y20.5246 
G01 X-83.4944 Y20.5246 
G01 X-83.5499 Y20.5476 
G01 X-83.5924 Y20.5901 
G01 X-83.6154 Y20.6456 
G01 X-83.6154 Y22.5344 
G01 X-83.5924 Y22.5899 
G01 X-83.5499 Y22.6324 
G01 X-83.4944 Y22.6554 
G01 X-83.1074 Y22.6554 
G01 X-83.1074 Y29.9226 
G01 X-86.9858 Y29.9226 
G01 X-86.9988 Y29.8913 
G01 X-87.0413 Y29.8488 
G01 X-87.0968 Y29.8258 
G01 X-88.1632 Y29.8258 
G01 X-88.2187 Y29.8488 
G01 X-88.2612 Y29.8913 
G01 X-88.2842 Y29.9468 
G01 X-88.2842 Y31.0132 
G01 X-88.2612 Y31.0687 
G01 X-88.2187 Y31.1112 
G01 X-88.1632 Y31.1342 
G01 X-87.0968 Y31.1342 
G01 X-87.0413 Y31.1112 
G01 X-86.9988 Y31.0687 
G01 X-86.9858 Y31.0374 
G01 X-70.4074 Y31.0374 
G01 X-70.4074 Y35.7646 
G01 X-70.7944 Y35.7646 
G01 X-70.8499 Y35.7876 
G01 X-70.8924 Y35.8301 
G01 X-70.9154 Y35.8856 
G01 X-70.9154 Y37.7744 
G01 X-70.8924 Y37.8299 
G01 X-70.8499 Y37.8724 
G01 X-70.7944 Y37.8954 
G01 X-68.9056 Y37.8954 
G01 X-68.8501 Y37.8724 
G01 X-68.8076 Y37.8299 
G01 X-68.7846 Y37.7744 
G01 X-68.7846 Y35.8856 
G01 X-68.8076 Y35.8301 
G01 X-68.8501 Y35.7876 
G01 X-68.9056 Y35.7646 
G01 X-69.2926 Y35.7646 
G01 X-69.2926 Y31.0374 
G01 X-65.4142 Y31.0374 
G01 X-65.4012 Y31.0687 
G01 X-65.3587 Y31.1112 
G01 X-65.3032 Y31.1342 
G01 X-64.2368 Y31.1342 
G01 X-64.1813 Y31.1112 
G01 X-64.1388 Y31.0687 
G01 X-64.1258 Y31.0374 
G01 X-61.6042 Y31.0374 
G01 X-61.5912 Y31.0687 
G01 X-61.5487 Y31.1112 
G01 X-61.4932 Y31.1342 
G01 X-60.4268 Y31.1342 
G01 X-60.3713 Y31.1112 
G01 X-60.3288 Y31.0687 
G01 X-60.3158 Y31.0374 
G01 X-56.5242 Y31.0374 
G01 X-56.5112 Y31.0687 
G01 X-56.4687 Y31.1112 
G01 X-56.4132 Y31.1342 
G01 X-55.3468 Y31.1342 
G01 X-55.2913 Y31.1112 
G01 X-55.2488 Y31.0687 
G01 X-55.2358 Y31.0374 
G01 X-43.7374 Y31.0374 
G01 X-43.7374 Y35.7646 
G01 X-44.1244 Y35.7646 
G01 X-44.1799 Y35.7876 
G01 X-44.2224 Y35.8301 
G01 X-44.2454 Y35.8856 
G01 X-44.2454 Y37.7744 
G01 X-44.2224 Y37.8299 
G01 X-44.1799 Y37.8724 
G01 X-44.1244 Y37.8954 
G01 X-42.2356 Y37.8954 
G01 X-42.1801 Y37.8724 
G01 X-42.1376 Y37.8299 
G01 X-42.1146 Y37.7744 
G01 X-42.1146 Y35.8856 
G01 X-42.1376 Y35.8301 
G01 X-42.1801 Y35.7876 
G01 X-42.2356 Y35.7646 
G01 X-42.6226 Y35.7646 
G01 X-42.6226 Y31.0374 
G01 X-38.7442 Y31.0374 
G01 X-38.7312 Y31.0687 
G01 X-38.6887 Y31.1112 
G01 X-38.6332 Y31.1342 
G01 X-37.5668 Y31.1342 
G01 X-37.5113 Y31.1112 
G01 X-37.4688 Y31.0687 
G01 X-37.4558 Y31.0374 
G01 X-34.9342 Y31.0374 
G01 X-34.9212 Y31.0687 
G01 X-34.8787 Y31.1112 
G01 X-34.8232 Y31.1342 
G01 X-33.7568 Y31.1342 
G01 X-33.7013 Y31.1112 
G01 X-33.6588 Y31.0687 
G01 X-33.6458 Y31.0374 
G01 X-29.8542 Y31.0374 
G01 X-29.8412 Y31.0687 
G01 X-29.7987 Y31.1112 
G01 X-29.7432 Y31.1342 
G01 X-28.6768 Y31.1342 
G01 X-28.6213 Y31.1112 
G01 X-28.5788 Y31.0687 
G01 X-28.5658 Y31.0374 
G01 X-17.0674 Y31.0374 
G01 X-17.0674 Y35.7646 
G01 X-17.4544 Y35.7646 
G01 X-17.5099 Y35.7876 
G01 X-17.5524 Y35.8301 
G01 X-17.5754 Y35.8856 
G01 X-17.5754 Y37.7744 
G01 X-17.5524 Y37.8299 
G01 X-17.5099 Y37.8724 
G01 X-17.4544 Y37.8954 
G01 X-15.5656 Y37.8954 
G01 X-15.5101 Y37.8724 
G01 X-15.4676 Y37.8299 
G01 X-15.4446 Y37.7744 
G01 X-15.4446 Y35.8856 
G01 X-15.4676 Y35.8301 
G01 X-15.5101 Y35.7876 
G01 X-15.5656 Y35.7646 
G01 X-15.9526 Y35.7646 
G01 X-15.9526 Y34.8474 
G01 X-11.9874 Y34.8474 
G01 X-11.9874 Y34.9158 
G01 X-12.0187 Y34.9288 
G01 X-12.0612 Y34.9713 
G01 X-12.0842 Y35.0268 
G01 X-12.0842 Y36.0932 
G01 X-12.0612 Y36.1487 
G01 X-12.0187 Y36.1912 
G01 X-11.9632 Y36.2142 
G01 X-10.8968 Y36.2142 
G01 X-10.8413 Y36.1912 
G01 X-10.7988 Y36.1487 
G01 X-10.7858 Y36.1174 
G01 X-10.1205 Y36.1174 
G01 X-10.1205 Y36.6695 
G01 X-10.0975 Y36.7250 
G01 X-10.0550 Y36.7675 
G01 X-9.9995 Y36.7905 
G01 X-7.7805 Y36.7905 
G01 X-7.7250 Y36.7675 
G01 X-7.6825 Y36.7250 
G01 X-7.6595 Y36.6695 
G01 X-7.6595 Y34.4505 
G01 X-7.6825 Y34.3950 
G01 X-7.7250 Y34.3525 
G01 X-7.7805 Y34.3295 
G01 X-9.9995 Y34.3295 
G01 X-10.0550 Y34.3525 
G01 X-10.0975 Y34.3950 
G01 X-10.1205 Y34.4505 
G00 Z1.0000 
G00 X-15.4005 Y52.1095 
G01 Z-0.1500 F250.00 
G01 X-15.9526 Y52.1095 F250.00 
G01 X-15.9526 Y50.5954 
G01 X-15.5656 Y50.5954 
G01 X-15.5101 Y50.5724 
G01 X-15.4676 Y50.5299 
G01 X-15.4446 Y50.4744 
G01 X-15.4446 Y48.5856 
G01 X-15.4676 Y48.5301 
G01 X-15.5101 Y48.4876 
G01 X-15.5656 Y48.4646 
G01 X-17.4544 Y48.4646 
G01 X-17.5099 Y48.4876 
G01 X-17.5524 Y48.5301 
G01 X-17.5754 Y48.5856 
G01 X-17.5754 Y50.4744 
G01 X-17.5524 Y50.5299 
G01 X-17.5099 Y50.5724 
G01 X-17.4544 Y50.5954 
G01 X-17.0674 Y50.5954 
G01 X-17.0674 Y52.1095 
G01 X-17.6195 Y52.1095 
G01 X-17.6750 Y52.1325 
G01 X-17.7175 Y52.1750 
G01 X-17.7405 Y52.2305 
G01 X-17.7405 Y54.4495 
G01 X-17.7175 Y54.5050 
G01 X-17.6750 Y54.5475 
G01 X-17.6195 Y54.5705 
G01 X-15.4005 Y54.5705 
G01 X-15.3450 Y54.5475 
G01 X-15.3025 Y54.5050 
G01 X-15.2795 Y54.4495 
G01 X-15.2795 Y52.2305 
G01 X-15.3025 Y52.1750 
G01 X-15.3450 Y52.1325 
G01 X-15.4005 Y52.1095 
G00 Z1.0000 
G00 X-20.4805 Y52.1095 
G01 Z-0.1500 F250.00 
G01 X-21.0326 Y52.1095 F250.00 
G01 X-21.0326 Y50.5954 
G01 X-20.6456 Y50.5954 
G01 X-20.5901 Y50.5724 
G01 X-20.5476 Y50.5299 
G01 X-20.5246 Y50.4744 
G01 X-20.5246 Y48.5856 
G01 X-20.5476 Y48.5301 
G01 X-20.5901 Y48.4876 
G01 X-20.6456 Y48.4646 
G01 X-22.5344 Y48.4646 
G01 X-22.5899 Y48.4876 
G01 X-22.6324 Y48.5301 
G01 X-22.6554 Y48.5856 
G01 X-22.6554 Y50.4744 
G01 X-22.6324 Y50.5299 
G01 X-22.5899 Y50.5724 
G01 X-22.5344 Y50.5954 
G01 X-22.1474 Y50.5954 
G01 X-22.1474 Y52.1095 
G01 X-22.6995 Y52.1095 
G01 X-22.7550 Y52.1325 
G01 X-22.7975 Y52.1750 
G01 X-22.8205 Y52.2305 
G01 X-22.8205 Y54.4495 
G01 X-22.7975 Y54.5050 
G01 X-22.7550 Y54.5475 
G01 X-22.6995 Y54.5705 
G01 X-20.4805 Y54.5705 
G01 X-20.4250 Y54.5475 
G01 X-20.3825 Y54.5050 
G01 X-20.3595 Y54.4495 
G01 X-20.3595 Y52.2305 
G01 X-20.3825 Y52.1750 
G01 X-20.4250 Y52.1325 
G01 X-20.4805 Y52.1095 
G00 Z1.0000 
G00 X-23.0205 Y52.1095 
G01 Z-0.1500 F250.00 
G01 X-23.5726 Y52.1095 F250.00 
G01 X-23.5726 Y50.5954 
G01 X-23.1856 Y50.5954 
G01 X-23.1301 Y50.5724 
G01 X-23.0876 Y50.5299 
G01 X-23.0646 Y50.4744 
G01 X-23.0646 Y48.5856 
G01 X-23.0876 Y48.5301 
G01 X-23.1301 Y48.4876 
G01 X-23.1856 Y48.4646 
G01 X-25.0744 Y48.4646 
G01 X-25.1299 Y48.4876 
G01 X-25.1724 Y48.5301 
G01 X-25.1954 Y48.5856 
G01 X-25.1954 Y50.4744 
G01 X-25.1724 Y50.5299 
G01 X-25.1299 Y50.5724 
G01 X-25.0744 Y50.5954 
G01 X-24.6874 Y50.5954 
G01 X-24.6874 Y52.1095 
G01 X-25.2395 Y52.1095 
G01 X-25.2950 Y52.1325 
G01 X-25.3375 Y52.1750 
G01 X-25.3605 Y52.2305 
G01 X-25.3605 Y54.4495 
G01 X-25.3375 Y54.5050 
G01 X-25.2950 Y54.5475 
G01 X-25.2395 Y54.5705 
G01 X-23.0205 Y54.5705 
G01 X-22.9650 Y54.5475 
G01 X-22.9225 Y54.5050 
G01 X-22.8995 Y54.4495 
G01 X-22.8995 Y52.2305 
G01 X-22.9225 Y52.1750 
G01 X-22.9650 Y52.1325 
G01 X-23.0205 Y52.1095 
G00 Z1.0000 
G00 X-30.6405 Y52.1095 
G01 Z-0.1500 F250.00 
G01 X-31.1926 Y52.1095 F250.00 
G01 X-31.1926 Y50.5954 
G01 X-30.8056 Y50.5954 
G01 X-30.7501 Y50.5724 
G01 X-30.7076 Y50.5299 
G01 X-30.6846 Y50.4744 
G01 X-30.6846 Y48.5856 
G01 X-30.7076 Y48.5301 
G01 X-30.7501 Y48.4876 
G01 X-30.8056 Y48.4646 
G01 X-32.6944 Y48.4646 
G01 X-32.7499 Y48.4876 
G01 X-32.7924 Y48.5301 
G01 X-32.8154 Y48.5856 
G01 X-32.8154 Y50.4744 
G01 X-32.7924 Y50.5299 
G01 X-32.7499 Y50.5724 
G01 X-32.6944 Y50.5954 
G01 X-32.3074 Y50.5954 
G01 X-32.3074 Y52.1095 
G01 X-32.8595 Y52.1095 
G01 X-32.9150 Y52.1325 
G01 X-32.9575 Y52.1750 
G01 X-32.9805 Y52.2305 
G01 X-32.9805 Y54.4495 
G01 X-32.9575 Y54.5050 
G01 X-32.9150 Y54.5475 
G01 X-32.8595 Y54.5705 
G01 X-30.6405 Y54.5705 
G01 X-30.5850 Y54.5475 
G01 X-30.5425 Y54.5050 
G01 X-30.5195 Y54.4495 
G01 X-30.5195 Y52.2305 
G01 X-30.5425 Y52.1750 
G01 X-30.5850 Y52.1325 
G01 X-30.6405 Y52.1095 
G00 Z1.0000 
G00 X-42.0705 Y52.1095 
G01 Z-0.1500 F250.00 
G01 X-42.6226 Y52.1095 F250.00 
G01 X-42.6226 Y50.5954 
G01 X-42.2356 Y50.5954 
G01 X-42.1801 Y50.5724 
G01 X-42.1376 Y50.5299 
G01 X-42.1146 Y50.4744 
G01 X-42.1146 Y48.5856 
G01 X-42.1376 Y48.5301 
G01 X-42.1801 Y48.4876 
G01 X-42.2356 Y48.4646 
G01 X-44.1244 Y48.4646 
G01 X-44.1799 Y48.4876 
G01 X-44.2224 Y48.5301 
G01 X-44.2454 Y48.5856 
G01 X-44.2454 Y50.4744 
G01 X-44.2224 Y50.5299 
G01 X-44.1799 Y50.5724 
G01 X-44.1244 Y50.5954 
G01 X-43.7374 Y50.5954 
G01 X-43.7374 Y52.1095 
G01 X-44.2895 Y52.1095 
G01 X-44.3450 Y52.1325 
G01 X-44.3875 Y52.1750 
G01 X-44.4105 Y52.2305 
G01 X-44.4105 Y54.4495 
G01 X-44.3875 Y54.5050 
G01 X-44.3450 Y54.5475 
G01 X-44.2895 Y54.5705 
G01 X-42.0705 Y54.5705 
G01 X-42.0150 Y54.5475 
G01 X-41.9725 Y54.5050 
G01 X-41.9495 Y54.4495 
G01 X-41.9495 Y52.2305 
G01 X-41.9725 Y52.1750 
G01 X-42.0150 Y52.1325 
G01 X-42.0705 Y52.1095 
G00 Z1.0000 
G00 X-47.1505 Y52.1095 
G01 Z-0.1500 F250.00 
G01 X-47.7026 Y52.1095 F250.00 
G01 X-47.7026 Y50.5954 
G01 X-47.3156 Y50.5954 
G01 X-47.2601 Y50.5724 
G01 X-47.2176 Y50.5299 
G01 X-47.1946 Y50.4744 
G01 X-47.1946 Y48.5856 
G01 X-47.2176 Y48.5301 
G01 X-47.2601 Y48.4876 
G01 X-47.3156 Y48.4646 
G01 X-49.2044 Y48.4646 
G01 X-49.2599 Y48.4876 
G01 X-49.3024 Y48.5301 
G01 X-49.3254 Y48.5856 
G01 X-49.3254 Y50.4744 
G01 X-49.3024 Y50.5299 
G01 X-49.2599 Y50.5724 
G01 X-49.2044 Y50.5954 
G01 X-48.8174 Y50.5954 
G01 X-48.8174 Y52.1095 
G01 X-49.3695 Y52.1095 
G01 X-49.4250 Y52.1325 
G01 X-49.4675 Y52.1750 
G01 X-49.4905 Y52.2305 
G01 X-49.4905 Y54.4495 
G01 X-49.4675 Y54.5050 
G01 X-49.4250 Y54.5475 
G01 X-49.3695 Y54.5705 
G01 X-47.1505 Y54.5705 
G01 X-47.0950 Y54.5475 
G01 X-47.0525 Y54.5050 
G01 X-47.0295 Y54.4495 
G01 X-47.0295 Y52.2305 
G01 X-47.0525 Y52.1750 
G01 X-47.0950 Y52.1325 
G01 X-47.1505 Y52.1095 
G00 Z1.0000 
G00 X-52.2305 Y52.1095 
G01 Z-0.1500 F250.00 
G01 X-52.7826 Y52.1095 F250.00 
G01 X-52.7826 Y50.5954 
G01 X-52.3956 Y50.5954 
G01 X-52.3401 Y50.5724 
G01 X-52.2976 Y50.5299 
G01 X-52.2746 Y50.4744 
G01 X-52.2746 Y48.5856 
G01 X-52.2976 Y48.5301 
G01 X-52.3401 Y48.4876 
G01 X-52.3956 Y48.4646 
G01 X-54.2844 Y48.4646 
G01 X-54.3399 Y48.4876 
G01 X-54.3824 Y48.5301 
G01 X-54.4054 Y48.5856 
G01 X-54.4054 Y50.4744 
G01 X-54.3824 Y50.5299 
G01 X-54.3399 Y50.5724 
G01 X-54.2844 Y50.5954 
G01 X-53.8974 Y50.5954 
G01 X-53.8974 Y52.1095 
G01 X-54.4495 Y52.1095 
G01 X-54.5050 Y52.1325 
G01 X-54.5475 Y52.1750 
G01 X-54.5705 Y52.2305 
G01 X-54.5705 Y54.4495 
G01 X-54.5475 Y54.5050 
G01 X-54.5050 Y54.5475 
G01 X-54.4495 Y54.5705 
G01 X-52.2305 Y54.5705 
G01 X-52.1750 Y54.5475 
G01 X-52.1325 Y54.5050 
G01 X-52.1095 Y54.4495 
G01 X-52.1095 Y52.2305 
G01 X-52.1325 Y52.1750 
G01 X-52.1750 Y52.1325 
G01 X-52.2305 Y52.1095 
G00 Z1.0000 
G00 X-57.3105 Y52.1095 
G01 Z-0.1500 F250.00 
G01 X-57.8626 Y52.1095 F250.00 
G01 X-57.8626 Y50.5954 
G01 X-57.4756 Y50.5954 
G01 X-57.4201 Y50.5724 
G01 X-57.3776 Y50.5299 
G01 X-57.3546 Y50.4744 
G01 X-57.3546 Y48.5856 
G01 X-57.3776 Y48.5301 
G01 X-57.4201 Y48.4876 
G01 X-57.4756 Y48.4646 
G01 X-59.3644 Y48.4646 
G01 X-59.4199 Y48.4876 
G01 X-59.4624 Y48.5301 
G01 X-59.4854 Y48.5856 
G01 X-59.4854 Y50.4744 
G01 X-59.4624 Y50.5299 
G01 X-59.4199 Y50.5724 
G01 X-59.3644 Y50.5954 
G01 X-58.9774 Y50.5954 
G01 X-58.9774 Y52.1095 
G01 X-59.5295 Y52.1095 
G01 X-59.5850 Y52.1325 
G01 X-59.6275 Y52.1750 
G01 X-59.6505 Y52.2305 
G01 X-59.6505 Y54.4495 
G01 X-59.6275 Y54.5050 
G01 X-59.5850 Y54.5475 
G01 X-59.5295 Y54.5705 
G01 X-57.3105 Y54.5705 
G01 X-57.2550 Y54.5475 
G01 X-57.2125 Y54.5050 
G01 X-57.1895 Y54.4495 
G01 X-57.1895 Y52.2305 
G01 X-57.2125 Y52.1750 
G01 X-57.2550 Y52.1325 
G01 X-57.3105 Y52.1095 
G00 Z1.0000 
G00 X-68.7405 Y52.1095 
G01 Z-0.1500 F250.00 
G01 X-69.2926 Y52.1095 F250.00 
G01 X-69.2926 Y50.5954 
G01 X-68.9056 Y50.5954 
G01 X-68.8501 Y50.5724 
G01 X-68.8076 Y50.5299 
G01 X-68.7846 Y50.4744 
G01 X-68.7846 Y48.5856 
G01 X-68.8076 Y48.5301 
G01 X-68.8501 Y48.4876 
G01 X-68.9056 Y48.4646 
G01 X-70.7944 Y48.4646 
G01 X-70.8499 Y48.4876 
G01 X-70.8924 Y48.5301 
G01 X-70.9154 Y48.5856 
G01 X-70.9154 Y50.4744 
G01 X-70.8924 Y50.5299 
G01 X-70.8499 Y50.5724 
G01 X-70.7944 Y50.5954 
G01 X-70.4074 Y50.5954 
G01 X-70.4074 Y52.1095 
G01 X-70.9595 Y52.1095 
G01 X-71.0150 Y52.1325 
G01 X-71.0575 Y52.1750 
G01 X-71.0805 Y52.2305 
G01 X-71.0805 Y54.4495 
G01 X-71.0575 Y54.5050 
G01 X-71.0150 Y54.5475 
G01 X-70.9595 Y54.5705 
G01 X-68.7405 Y54.5705 
G01 X-68.6850 Y54.5475 
G01 X-68.6425 Y54.5050 
G01 X-68.6195 Y54.4495 
G01 X-68.6195 Y52.2305 
G01 X-68.6425 Y52.1750 
G01 X-68.6850 Y52.1325 
G01 X-68.7405 Y52.1095 
G00 Z1.0000 
G00 X-73.8205 Y52.1095 
G01 Z-0.1500 F250.00 
G01 X-74.3726 Y52.1095 F250.00 
G01 X-74.3726 Y50.5954 
G01 X-73.9856 Y50.5954 
G01 X-73.9301 Y50.5724 
G01 X-73.8876 Y50.5299 
G01 X-73.8646 Y50.4744 
G01 X-73.8646 Y48.5856 
G01 X-73.8876 Y48.5301 
G01 X-73.9301 Y48.4876 
G01 X-73.9856 Y48.4646 
G01 X-75.8744 Y48.4646 
G01 X-75.9299 Y48.4876 
G01 X-75.9724 Y48.5301 
G01 X-75.9954 Y48.5856 
G01 X-75.9954 Y50.4744 
G01 X-75.9724 Y50.5299 
G01 X-75.9299 Y50.5724 
G01 X-75.8744 Y50.5954 
G01 X-75.4874 Y50.5954 
G01 X-75.4874 Y52.1095 
G01 X-76.0395 Y52.1095 
G01 X-76.0950 Y52.1325 
G01 X-76.1375 Y52.1750 
G01 X-76.1605 Y52.2305 
G01 X-76.1605 Y54.4495 
G01 X-76.1375 Y54.5050 
G01 X-76.0950 Y54.5475 
G01 X-76.0395 Y54.5705 
G01 X-73.8205 Y54.5705 
G01 X-73.7650 Y54.5475 
G01 X-73.7225 Y54.5050 
G01 X-73.6995 Y54.4495 
G01 X-73.6995 Y52.2305 
G01 X-73.7225 Y52.1750 
G01 X-73.7650 Y52.1325 
G01 X-73.8205 Y52.1095 
G00 Z1.0000 
G00 X-78.9005 Y52.1095 
G01 Z-0.1500 F250.00 
G01 X-79.4526 Y52.1095 F250.00 
G01 X-79.4526 Y50.5954 
G01 X-79.0656 Y50.5954 
G01 X-79.0101 Y50.5724 
G01 X-78.9676 Y50.5299 
G01 X-78.9446 Y50.4744 
G01 X-78.9446 Y48.5856 
G01 X-78.9676 Y48.5301 
G01 X-79.0101 Y48.4876 
G01 X-79.0656 Y48.4646 
G01 X-80.9544 Y48.4646 
G01 X-81.0099 Y48.4876 
G01 X-81.0524 Y48.5301 
G01 X-81.0754 Y48.5856 
G01 X-81.0754 Y50.4744 
G01 X-81.0524 Y50.5299 
G01 X-81.0099 Y50.5724 
G01 X-80.9544 Y50.5954 
G01 X-80.5674 Y50.5954 
G01 X-80.5674 Y52.1095 
G01 X-81.1195 Y52.1095 
G01 X-81.1750 Y52.1325 
G01 X-81.2175 Y52.1750 
G01 X-81.2405 Y52.2305 
G01 X-81.2405 Y54.4495 
G01 X-81.2175 Y54.5050 
G01 X-81.1750 Y54.5475 
G01 X-81.1195 Y54.5705 
G01 X-78.9005 Y54.5705 
G01 X-78.8450 Y54.5475 
G01 X-78.8025 Y54.5050 
G01 X-78.7795 Y54.4495 
G01 X-78.7795 Y52.2305 
G01 X-78.8025 Y52.1750 
G01 X-78.8450 Y52.1325 
G01 X-78.9005 Y52.1095 
G00 Z1.0000 
G00 X-83.9805 Y52.1095 
G01 Z-0.1500 F250.00 
G01 X-84.5326 Y52.1095 F250.00 
G01 X-84.5326 Y50.5954 
G01 X-84.1456 Y50.5954 
G01 X-84.0901 Y50.5724 
G01 X-84.0476 Y50.5299 
G01 X-84.0246 Y50.4744 
G01 X-84.0246 Y48.5856 
G01 X-84.0476 Y48.5301 
G01 X-84.0901 Y48.4876 
G01 X-84.1456 Y48.4646 
G01 X-86.0344 Y48.4646 
G01 X-86.0899 Y48.4876 
G01 X-86.1324 Y48.5301 
G01 X-86.1554 Y48.5856 
G01 X-86.1554 Y50.4744 
G01 X-86.1324 Y50.5299 
G01 X-86.0899 Y50.5724 
G01 X-86.0344 Y50.5954 
G01 X-85.6474 Y50.5954 
G01 X-85.6474 Y52.1095 
G01 X-86.1995 Y52.1095 
G01 X-86.2550 Y52.1325 
G01 X-86.2975 Y52.1750 
G01 X-86.3205 Y52.2305 
G01 X-86.3205 Y54.4495 
G01 X-86.2975 Y54.5050 
G01 X-86.2550 Y54.5475 
G01 X-86.1995 Y54.5705 
G01 X-83.9805 Y54.5705 
G01 X-83.9250 Y54.5475 
G01 X-83.8825 Y54.5050 
G01 X-83.8595 Y54.4495 
G01 X-83.8595 Y52.2305 
G01 X-83.8825 Y52.1750 
G01 X-83.9250 Y52.1325 
G01 X-83.9805 Y52.1095 
G00 Z1.0000 
G00 X-81.1195 Y6.3105 
G01 Z-0.1500 F250.00 
G01 X-80.5674 Y6.3105 F250.00 
G01 X-80.5674 Y7.8246 
G01 X-80.9544 Y7.8246 
G01 X-81.0099 Y7.8476 
G01 X-81.0524 Y7.8901 
G01 X-81.0754 Y7.9456 
G01 X-81.0754 Y9.8344 
G01 X-81.0524 Y9.8899 
G01 X-81.0099 Y9.9324 
G01 X-80.9544 Y9.9554 
G01 X-79.0656 Y9.9554 
G01 X-79.0101 Y9.9324 
G01 X-78.9676 Y9.8899 
G01 X-78.9446 Y9.8344 
G01 X-78.9446 Y7.9456 
G01 X-78.9676 Y7.8901 
G01 X-79.0101 Y7.8476 
G01 X-79.0656 Y7.8246 
G01 X-79.4526 Y7.8246 
G01 X-79.4526 Y6.3105 
G01 X-78.9005 Y6.3105 
G01 X-78.8450 Y6.2875 
G01 X-78.8025 Y6.2450 
G01 X-78.7795 Y6.1895 
G01 X-78.7795 Y3.9705 
G01 X-78.8025 Y3.9150 
G01 X-78.8450 Y3.8725 
G01 X-78.9005 Y3.8495 
G01 X-81.1195 Y3.8495 
G01 X-81.1750 Y3.8725 
G01 X-81.2175 Y3.9150 
G01 X-81.2405 Y3.9705 
G01 X-81.2405 Y6.1895 
G01 X-81.2175 Y6.2450 
G01 X-81.1750 Y6.2875 
G01 X-81.1195 Y6.3105 
G00 Z1.0000 
G00 X-78.5795 Y6.3105 
G01 Z-0.1500 F250.00 
G01 X-78.0274 Y6.3105 F250.00 
G01 X-78.0274 Y7.8246 
G01 X-78.4144 Y7.8246 
G01 X-78.4699 Y7.8476 
G01 X-78.5124 Y7.8901 
G01 X-78.5354 Y7.9456 
G01 X-78.5354 Y9.8344 
G01 X-78.5124 Y9.8899 
G01 X-78.4699 Y9.9324 
G01 X-78.4144 Y9.9554 
G01 X-76.5256 Y9.9554 
G01 X-76.4701 Y9.9324 
G01 X-76.4276 Y9.8899 
G01 X-76.4046 Y9.8344 
G01 X-76.4046 Y7.9456 
G01 X-76.4276 Y7.8901 
G01 X-76.4701 Y7.8476 
G01 X-76.5256 Y7.8246 
G01 X-76.9126 Y7.8246 
G01 X-76.9126 Y6.3105 
G01 X-76.3605 Y6.3105 
G01 X-76.3050 Y6.2875 
G01 X-76.2625 Y6.2450 
G01 X-76.2395 Y6.1895 
G01 X-76.2395 Y3.9705 
G01 X-76.2625 Y3.9150 
G01 X-76.3050 Y3.8725 
G01 X-76.3605 Y3.8495 
G01 X-78.5795 Y3.8495 
G01 X-78.6350 Y3.8725 
G01 X-78.6775 Y3.9150 
G01 X-78.7005 Y3.9705 
G01 X-78.7005 Y6.1895 
G01 X-78.6775 Y6.2450 
G01 X-78.6350 Y6.2875 
G01 X-78.5795 Y6.3105 
G00 Z1.0000 
G00 X-73.4995 Y6.3105 
G01 Z-0.1500 F250.00 
G01 X-72.9474 Y6.3105 F250.00 
G01 X-72.9474 Y7.8246 
G01 X-73.3344 Y7.8246 
G01 X-73.3899 Y7.8476 
G01 X-73.4324 Y7.8901 
G01 X-73.4554 Y7.9456 
G01 X-73.4554 Y9.8344 
G01 X-73.4324 Y9.8899 
G01 X-73.3899 Y9.9324 
G01 X-73.3344 Y9.9554 
G01 X-71.4456 Y9.9554 
G01 X-71.3901 Y9.9324 
G01 X-71.3476 Y9.8899 
G01 X-71.3246 Y9.8344 
G01 X-71.3246 Y7.9456 
G01 X-71.3476 Y7.8901 
G01 X-71.3901 Y7.8476 
G01 X-71.4456 Y7.8246 
G01 X-71.8326 Y7.8246 
G01 X-71.8326 Y6.3105 
G01 X-71.2805 Y6.3105 
G01 X-71.2250 Y6.2875 
G01 X-71.1825 Y6.2450 
G01 X-71.1595 Y6.1895 
G01 X-71.1595 Y3.9705 
G01 X-71.1825 Y3.9150 
G01 X-71.2250 Y3.8725 
G01 X-71.2805 Y3.8495 
G01 X-73.4995 Y3.8495 
G01 X-73.5550 Y3.8725 
G01 X-73.5975 Y3.9150 
G01 X-73.6205 Y3.9705 
G01 X-73.6205 Y6.1895 
G01 X-73.5975 Y6.2450 
G01 X-73.5550 Y6.2875 
G01 X-73.4995 Y6.3105 
G00 Z1.0000 
G00 X-68.4195 Y6.3105 
G01 Z-0.1500 F250.00 
G01 X-67.8674 Y6.3105 F250.00 
G01 X-67.8674 Y7.8246 
G01 X-68.2544 Y7.8246 
G01 X-68.3099 Y7.8476 
G01 X-68.3524 Y7.8901 
G01 X-68.3754 Y7.9456 
G01 X-68.3754 Y9.8344 
G01 X-68.3524 Y9.8899 
G01 X-68.3099 Y9.9324 
G01 X-68.2544 Y9.9554 
G01 X-66.3656 Y9.9554 
G01 X-66.3101 Y9.9324 
G01 X-66.2676 Y9.8899 
G01 X-66.2446 Y9.8344 
G01 X-66.2446 Y7.9456 
G01 X-66.2676 Y7.8901 
G01 X-66.3101 Y7.8476 
G01 X-66.3656 Y7.8246 
G01 X-66.7526 Y7.8246 
G01 X-66.7526 Y6.3105 
G01 X-66.2005 Y6.3105 
G01 X-66.1450 Y6.2875 
G01 X-66.1025 Y6.2450 
G01 X-66.0795 Y6.1895 
G01 X-66.0795 Y3.9705 
G01 X-66.1025 Y3.9150 
G01 X-66.1450 Y3.8725 
G01 X-66.2005 Y3.8495 
G01 X-68.4195 Y3.8495 
G01 X-68.4750 Y3.8725 
G01 X-68.5175 Y3.9150 
G01 X-68.5405 Y3.9705 
G01 X-68.5405 Y6.1895 
G01 X-68.5175 Y6.2450 
G01 X-68.4750 Y6.2875 
G01 X-68.4195 Y6.3105 
G00 Z1.0000 
G00 X-56.9895 Y6.3105 
G01 Z-0.1500 F250.00 
G01 X-56.4374 Y6.3105 F250.00 
G01 X-56.4374 Y7.8246 
G01 X-56.8244 Y7.8246 
G01 X-56.8799 Y7.8476 
G01 X-56.9224 Y7.8901 
G01 X-56.9454 Y7.9456 
G01 X-56.9454 Y9.8344 
G01 X-56.9224 Y9.8899 
G01 X-56.8799 Y9.9324 
G01 X-56.8244 Y9.9554 
G01 X-54.9356 Y9.9554 
G01 X-54.8801 Y9.9324 
G01 X-54.8376 Y9.8899 
G01 X-54.8146 Y9.8344 
G01 X-54.8146 Y7.9456 
G01 X-54.8376 Y7.8901 
G01 X-54.8801 Y7.8476 
G01 X-54.9356 Y7.8246 
G01 X-55.3226 Y7.8246 
G01 X-55.3226 Y6.3105 
G01 X-54.7705 Y6.3105 
G01 X-54.7150 Y6.2875 
G01 X-54.6725 Y6.2450 
G01 X-54.6495 Y6.1895 
G01 X-54.6495 Y3.9705 
G01 X-54.6725 Y3.9150 
G01 X-54.7150 Y3.8725 
G01 X-54.7705 Y3.8495 
G01 X-56.9895 Y3.8495 
G01 X-57.0450 Y3.8725 
G01 X-57.0875 Y3.9150 
G01 X-57.1105 Y3.9705 
G01 X-57.1105 Y6.1895 
G01 X-57.0875 Y6.2450 
G01 X-57.0450 Y6.2875 
G01 X-56.9895 Y6.3105 
G00 Z1.0000 
G00 X-54.4495 Y6.3105 
G01 Z-0.1500 F250.00 
G01 X-53.8974 Y6.3105 F250.00 
G01 X-53.8974 Y7.8246 
G01 X-54.2844 Y7.8246 
G01 X-54.3399 Y7.8476 
G01 X-54.3824 Y7.8901 
G01 X-54.4054 Y7.9456 
G01 X-54.4054 Y9.8344 
G01 X-54.3824 Y9.8899 
G01 X-54.3399 Y9.9324 
G01 X-54.2844 Y9.9554 
G01 X-52.3956 Y9.9554 
G01 X-52.3401 Y9.9324 
G01 X-52.2976 Y9.8899 
G01 X-52.2746 Y9.8344 
G01 X-52.2746 Y7.9456 
G01 X-52.2976 Y7.8901 
G01 X-52.3401 Y7.8476 
G01 X-52.3956 Y7.8246 
G01 X-52.7826 Y7.8246 
G01 X-52.7826 Y6.3105 
G01 X-52.2305 Y6.3105 
G01 X-52.1750 Y6.2875 
G01 X-52.1325 Y6.2450 
G01 X-52.1095 Y6.1895 
G01 X-52.1095 Y3.9705 
G01 X-52.1325 Y3.9150 
G01 X-52.1750 Y3.8725 
G01 X-52.2305 Y3.8495 
G01 X-54.4495 Y3.8495 
G01 X-54.5050 Y3.8725 
G01 X-54.5475 Y3.9150 
G01 X-54.5705 Y3.9705 
G01 X-54.5705 Y6.1895 
G01 X-54.5475 Y6.2450 
G01 X-54.5050 Y6.2875 
G01 X-54.4495 Y6.3105 
G00 Z1.0000 
G00 X-49.3695 Y6.3105 
G01 Z-0.1500 F250.00 
G01 X-48.8174 Y6.3105 F250.00 
G01 X-48.8174 Y7.8246 
G01 X-49.2044 Y7.8246 
G01 X-49.2599 Y7.8476 
G01 X-49.3024 Y7.8901 
G01 X-49.3254 Y7.9456 
G01 X-49.3254 Y9.8344 
G01 X-49.3024 Y9.8899 
G01 X-49.2599 Y9.9324 
G01 X-49.2044 Y9.9554 
G01 X-47.3156 Y9.9554 
G01 X-47.2601 Y9.9324 
G01 X-47.2176 Y9.8899 
G01 X-47.1946 Y9.8344 
G01 X-47.1946 Y7.9456 
G01 X-47.2176 Y7.8901 
G01 X-47.2601 Y7.8476 
G01 X-47.3156 Y7.8246 
G01 X-47.7026 Y7.8246 
G01 X-47.7026 Y6.3105 
G01 X-47.1505 Y6.3105 
G01 X-47.0950 Y6.2875 
G01 X-47.0525 Y6.2450 
G01 X-47.0295 Y6.1895 
G01 X-47.0295 Y3.9705 
G01 X-47.0525 Y3.9150 
G01 X-47.0950 Y3.8725 
G01 X-47.1505 Y3.8495 
G01 X-49.3695 Y3.8495 
G01 X-49.4250 Y3.8725 
G01 X-49.4675 Y3.9150 
G01 X-49.4905 Y3.9705 
G01 X-49.4905 Y6.1895 
G01 X-49.4675 Y6.2450 
G01 X-49.4250 Y6.2875 
G01 X-49.3695 Y6.3105 
G00 Z1.0000 
G00 X-41.7495 Y6.3105 
G01 Z-0.1500 F250.00 
G01 X-41.1974 Y6.3105 F250.00 
G01 X-41.1974 Y7.8246 
G01 X-41.5844 Y7.8246 
G01 X-41.6399 Y7.8476 
G01 X-41.6824 Y7.8901 
G01 X-41.7054 Y7.9456 
G01 X-41.7054 Y9.8344 
G01 X-41.6824 Y9.8899 
G01 X-41.6399 Y9.9324 
G01 X-41.5844 Y9.9554 
G01 X-39.6956 Y9.9554 
G01 X-39.6401 Y9.9324 
G01 X-39.5976 Y9.8899 
G01 X-39.5746 Y9.8344 
G01 X-39.5746 Y7.9456 
G01 X-39.5976 Y7.8901 
G01 X-39.6401 Y7.8476 
G01 X-39.6956 Y7.8246 
G01 X-40.0826 Y7.8246 
G01 X-40.0826 Y6.3105 
G01 X-39.5305 Y6.3105 
G01 X-39.4750 Y6.2875 
G01 X-39.4325 Y6.2450 
G01 X-39.4095 Y6.1895 
G01 X-39.4095 Y3.9705 
G01 X-39.4325 Y3.9150 
G01 X-39.4750 Y3.8725 
G01 X-39.5305 Y3.8495 
G01 X-41.7495 Y3.8495 
G01 X-41.8050 Y3.8725 
G01 X-41.8475 Y3.9150 
G01 X-41.8705 Y3.9705 
G01 X-41.8705 Y6.1895 
G01 X-41.8475 Y6.2450 
G01 X-41.8050 Y6.2875 
G01 X-41.7495 Y6.3105 
G00 Z1.0000 
G00 X-30.3195 Y6.3105 
G01 Z-0.1500 F250.00 
G01 X-29.7674 Y6.3105 F250.00 
G01 X-29.7674 Y7.8246 
G01 X-30.1544 Y7.8246 
G01 X-30.2099 Y7.8476 
G01 X-30.2524 Y7.8901 
G01 X-30.2754 Y7.9456 
G01 X-30.2754 Y9.8344 
G01 X-30.2524 Y9.8899 
G01 X-30.2099 Y9.9324 
G01 X-30.1544 Y9.9554 
G01 X-28.2656 Y9.9554 
G01 X-28.2101 Y9.9324 
G01 X-28.1676 Y9.8899 
G01 X-28.1446 Y9.8344 
G01 X-28.1446 Y7.9456 
G01 X-28.1676 Y7.8901 
G01 X-28.2101 Y7.8476 
G01 X-28.2656 Y7.8246 
G01 X-28.6526 Y7.8246 
G01 X-28.6526 Y6.3105 
G01 X-28.1005 Y6.3105 
G01 X-28.0450 Y6.2875 
G01 X-28.0025 Y6.2450 
G01 X-27.9795 Y6.1895 
G01 X-27.9795 Y3.9705 
G01 X-28.0025 Y3.9150 
G01 X-28.0450 Y3.8725 
G01 X-28.1005 Y3.8495 
G01 X-30.3195 Y3.8495 
G01 X-30.3750 Y3.8725 
G01 X-30.4175 Y3.9150 
G01 X-30.4405 Y3.9705 
G01 X-30.4405 Y6.1895 
G01 X-30.4175 Y6.2450 
G01 X-30.3750 Y6.2875 
G01 X-30.3195 Y6.3105 
G00 Z1.0000 
G00 X-25.2395 Y6.3105 
G01 Z-0.1500 F250.00 
G01 X-24.6874 Y6.3105 F250.00 
G01 X-24.6874 Y7.8246 
G01 X-25.0744 Y7.8246 
G01 X-25.1299 Y7.8476 
G01 X-25.1724 Y7.8901 
G01 X-25.1954 Y7.9456 
G01 X-25.1954 Y9.8344 
G01 X-25.1724 Y9.8899 
G01 X-25.1299 Y9.9324 
G01 X-25.0744 Y9.9554 
G01 X-23.1856 Y9.9554 
G01 X-23.1301 Y9.9324 
G01 X-23.0876 Y9.8899 
G01 X-23.0646 Y9.8344 
G01 X-23.0646 Y7.9456 
G01 X-23.0876 Y7.8901 
G01 X-23.1301 Y7.8476 
G01 X-23.1856 Y7.8246 
G01 X-23.5726 Y7.8246 
G01 X-23.5726 Y6.3105 
G01 X-23.0205 Y6.3105 
G01 X-22.9650 Y6.2875 
G01 X-22.9225 Y6.2450 
G01 X-22.8995 Y6.1895 
G01 X-22.8995 Y3.9705 
G01 X-22.9225 Y3.9150 
G01 X-22.9650 Y3.8725 
G01 X-23.0205 Y3.8495 
G01 X-25.2395 Y3.8495 
G01 X-25.2950 Y3.8725 
G01 X-25.3375 Y3.9150 
G01 X-25.3605 Y3.9705 
G01 X-25.3605 Y6.1895 
G01 X-25.3375 Y6.2450 
G01 X-25.2950 Y6.2875 
G01 X-25.2395 Y6.3105 
G00 Z1.0000 
G00 X-22.6995 Y6.3105 
G01 Z-0.1500 F250.00 
G01 X-22.1474 Y6.3105 F250.00 
G01 X-22.1474 Y7.8246 
G01 X-22.5344 Y7.8246 
G01 X-22.5899 Y7.8476 
G01 X-22.6324 Y7.8901 
G01 X-22.6554 Y7.9456 
G01 X-22.6554 Y9.8344 
G01 X-22.6324 Y9.8899 
G01 X-22.5899 Y9.9324 
G01 X-22.5344 Y9.9554 
G01 X-20.6456 Y9.9554 
G01 X-20.5901 Y9.9324 
G01 X-20.5476 Y9.8899 
G01 X-20.5246 Y9.8344 
G01 X-20.5246 Y7.9456 
G01 X-20.5476 Y7.8901 
G01 X-20.5901 Y7.8476 
G01 X-20.6456 Y7.8246 
G01 X-21.0326 Y7.8246 
G01 X-21.0326 Y6.3105 
G01 X-20.4805 Y6.3105 
G01 X-20.4250 Y6.2875 
G01 X-20.3825 Y6.2450 
G01 X-20.3595 Y6.1895 
G01 X-20.3595 Y3.9705 
G01 X-20.3825 Y3.9150 
G01 X-20.4250 Y3.8725 
G01 X-20.4805 Y3.8495 
G01 X-22.6995 Y3.8495 
G01 X-22.7550 Y3.8725 
G01 X-22.7975 Y3.9150 
G01 X-22.8205 Y3.9705 
G01 X-22.8205 Y6.1895 
G01 X-22.7975 Y6.2450 
G01 X-22.7550 Y6.2875 
G01 X-22.6995 Y6.3105 
G00 Z1.0000 
G00 X-15.0795 Y6.3105 
G01 Z-0.1500 F250.00 
G01 X-14.5274 Y6.3105 F250.00 
G01 X-14.5274 Y7.8246 
G01 X-14.9144 Y7.8246 
G01 X-14.9699 Y7.8476 
G01 X-15.0124 Y7.8901 
G01 X-15.0354 Y7.9456 
G01 X-15.0354 Y9.8344 
G01 X-15.0124 Y9.8899 
G01 X-14.9699 Y9.9324 
G01 X-14.9144 Y9.9554 
G01 X-13.0256 Y9.9554 
G01 X-12.9701 Y9.9324 
G01 X-12.9276 Y9.8899 
G01 X-12.9046 Y9.8344 
G01 X-12.9046 Y7.9456 
G01 X-12.9276 Y7.8901 
G01 X-12.9701 Y7.8476 
G01 X-13.0256 Y7.8246 
G01 X-13.4126 Y7.8246 
G01 X-13.4126 Y6.3105 
G01 X-12.8605 Y6.3105 
G01 X-12.8050 Y6.2875 
G01 X-12.7625 Y6.2450 
G01 X-12.7395 Y6.1895 
G01 X-12.7395 Y3.9705 
G01 X-12.7625 Y3.9150 
G01 X-12.8050 Y3.8725 
G01 X-12.8605 Y3.8495 
G01 X-15.0795 Y3.8495 
G01 X-15.1350 Y3.8725 
G01 X-15.1775 Y3.9150 
G01 X-15.2005 Y3.9705 
G01 X-15.2005 Y6.1895 
G01 X-15.1775 Y6.2450 
G01 X-15.1350 Y6.2875 
G01 X-15.0795 Y6.3105 
G00 Z1.0000 
G00 X-17.4544 Y48.0554 
G01 Z-0.1500 F250.00 
G01 X-15.5656 Y48.0554 F250.00 
G01 X-15.5101 Y48.0324 
G01 X-15.4676 Y47.9899 
G01 X-15.4446 Y47.9344 
G01 X-15.4446 Y46.0456 
G01 X-15.4676 Y45.9901 
G01 X-15.5101 Y45.9476 
G01 X-15.5656 Y45.9246 
G01 X-15.9526 Y45.9246 
G01 X-15.9526 Y45.5154 
G01 X-15.5656 Y45.5154 
G01 X-15.5101 Y45.4924 
G01 X-15.4676 Y45.4499 
G01 X-15.4446 Y45.3944 
G01 X-15.4446 Y43.5056 
G01 X-15.4676 Y43.4501 
G01 X-15.5101 Y43.4076 
G01 X-15.5656 Y43.3846 
G01 X-17.4544 Y43.3846 
G01 X-17.5099 Y43.4076 
G01 X-17.5524 Y43.4501 
G01 X-17.5754 Y43.5056 
G01 X-17.5754 Y45.3944 
G01 X-17.5524 Y45.4499 
G01 X-17.5099 Y45.4924 
G01 X-17.4544 Y45.5154 
G01 X-17.0674 Y45.5154 
G01 X-17.0674 Y45.9246 
G01 X-17.4544 Y45.9246 
G01 X-17.5099 Y45.9476 
G01 X-17.5524 Y45.9901 
G01 X-17.5754 Y46.0456 
G01 X-17.5754 Y47.9344 
G01 X-17.5524 Y47.9899 
G01 X-17.5099 Y48.0324 
G01 X-17.4544 Y48.0554 
G00 Z1.0000 
G00 X-19.9944 Y50.5954 
G01 Z-0.1500 F250.00 
G01 X-19.6074 Y50.5954 F250.00 
G01 X-19.6074 Y52.1095 
G01 X-20.1595 Y52.1095 
G01 X-20.2150 Y52.1325 
G01 X-20.2575 Y52.1750 
G01 X-20.2805 Y52.2305 
G01 X-20.2805 Y54.4495 
G01 X-20.2575 Y54.5050 
G01 X-20.2150 Y54.5475 
G01 X-20.1595 Y54.5705 
G01 X-17.9405 Y54.5705 
G01 X-17.8850 Y54.5475 
G01 X-17.8425 Y54.5050 
G01 X-17.8195 Y54.4495 
G01 X-17.8195 Y52.2305 
G01 X-17.8425 Y52.1750 
G01 X-17.8850 Y52.1325 
G01 X-17.9405 Y52.1095 
G01 X-18.4926 Y52.1095 
G01 X-18.4926 Y50.5954 
G01 X-18.1056 Y50.5954 
G01 X-18.0501 Y50.5724 
G01 X-18.0076 Y50.5299 
G01 X-17.9846 Y50.4744 
G01 X-17.9846 Y48.5856 
G01 X-18.0076 Y48.5301 
G01 X-18.0501 Y48.4876 
G01 X-18.1056 Y48.4646 
G01 X-19.9944 Y48.4646 
G01 X-20.0499 Y48.4876 
G01 X-20.0924 Y48.5301 
G01 X-20.1154 Y48.5856 
G01 X-20.1154 Y50.4744 
G01 X-20.0924 Y50.5299 
G01 X-20.0499 Y50.5724 
G01 X-19.9944 Y50.5954 
G00 Z1.0000 
G00 X-22.5344 Y48.0554 
G01 Z-0.1500 F250.00 
G01 X-20.6456 Y48.0554 F250.00 
G01 X-20.5901 Y48.0324 
G01 X-20.5476 Y47.9899 
G01 X-20.5246 Y47.9344 
G01 X-20.5246 Y46.0456 
G01 X-20.5476 Y45.9901 
G01 X-20.5901 Y45.9476 
G01 X-20.6456 Y45.9246 
G01 X-21.0326 Y45.9246 
G01 X-21.0326 Y45.5154 
G01 X-20.6456 Y45.5154 
G01 X-20.5901 Y45.4924 
G01 X-20.5476 Y45.4499 
G01 X-20.5246 Y45.3944 
G01 X-20.5246 Y43.5056 
G01 X-20.5476 Y43.4501 
G01 X-20.5901 Y43.4076 
G01 X-20.6456 Y43.3846 
G01 X-22.5344 Y43.3846 
G01 X-22.5899 Y43.4076 
G01 X-22.6324 Y43.4501 
G01 X-22.6554 Y43.5056 
G01 X-22.6554 Y45.3944 
G01 X-22.6324 Y45.4499 
G01 X-22.5899 Y45.4924 
G01 X-22.5344 Y45.5154 
G01 X-22.1474 Y45.5154 
G01 X-22.1474 Y45.9246 
G01 X-22.5344 Y45.9246 
G01 X-22.5899 Y45.9476 
G01 X-22.6324 Y45.9901 
G01 X-22.6554 Y46.0456 
G01 X-22.6554 Y47.9344 
G01 X-22.6324 Y47.9899 
G01 X-22.5899 Y48.0324 
G01 X-22.5344 Y48.0554 
G00 Z1.0000 
G00 X-30.1544 Y50.5954 
G01 Z-0.1500 F250.00 
G01 X-29.7674 Y50.5954 F250.00 
G01 X-29.7674 Y52.1095 
G01 X-30.3195 Y52.1095 
G01 X-30.3750 Y52.1325 
G01 X-30.4175 Y52.1750 
G01 X-30.4405 Y52.2305 
G01 X-30.4405 Y54.4495 
G01 X-30.4175 Y54.5050 
G01 X-30.3750 Y54.5475 
G01 X-30.3195 Y54.5705 
G01 X-28.1005 Y54.5705 
G01 X-28.0450 Y54.5475 
G01 X-28.0025 Y54.5050 
G01 X-27.9795 Y54.4495 
G01 X-27.9795 Y52.2305 
G01 X-28.0025 Y52.1750 
G01 X-28.0450 Y52.1325 
G01 X-28.1005 Y52.1095 
G01 X-28.6526 Y52.1095 
G01 X-28.6526 Y50.5954 
G01 X-28.2656 Y50.5954 
G01 X-28.2101 Y50.5724 
G01 X-28.1676 Y50.5299 
G01 X-28.1446 Y50.4744 
G01 X-28.1446 Y48.5856 
G01 X-28.1676 Y48.5301 
G01 X-28.2101 Y48.4876 
G01 X-28.2656 Y48.4646 
G01 X-30.1544 Y48.4646 
G01 X-30.2099 Y48.4876 
G01 X-30.2524 Y48.5301 
G01 X-30.2754 Y48.5856 
G01 X-30.2754 Y50.4744 
G01 X-30.2524 Y50.5299 
G01 X-30.2099 Y50.5724 
G01 X-30.1544 Y50.5954 
G00 Z1.0000 
G00 X-27.6144 Y50.5954 
G01 Z-0.1500 F250.00 
G01 X-27.2274 Y50.5954 F250.00 
G01 X-27.2274 Y52.1095 
G01 X-27.7795 Y52.1095 
G01 X-27.8350 Y52.1325 
G01 X-27.8775 Y52.1750 
G01 X-27.9005 Y52.2305 
G01 X-27.9005 Y54.4495 
G01 X-27.8775 Y54.5050 
G01 X-27.8350 Y54.5475 
G01 X-27.7795 Y54.5705 
G01 X-25.5605 Y54.5705 
G01 X-25.5050 Y54.5475 
G01 X-25.4625 Y54.5050 
G01 X-25.4395 Y54.4495 
G01 X-25.4395 Y52.2305 
G01 X-25.4625 Y52.1750 
G01 X-25.5050 Y52.1325 
G01 X-25.5605 Y52.1095 
G01 X-26.1126 Y52.1095 
G01 X-26.1126 Y50.5954 
G01 X-25.7256 Y50.5954 
G01 X-25.6701 Y50.5724 
G01 X-25.6276 Y50.5299 
G01 X-25.6046 Y50.4744 
G01 X-25.6046 Y48.5856 
G01 X-25.6276 Y48.5301 
G01 X-25.6701 Y48.4876 
G01 X-25.7256 Y48.4646 
G01 X-27.6144 Y48.4646 
G01 X-27.6699 Y48.4876 
G01 X-27.7124 Y48.5301 
G01 X-27.7354 Y48.5856 
G01 X-27.7354 Y50.4744 
G01 X-27.7124 Y50.5299 
G01 X-27.6699 Y50.5724 
G01 X-27.6144 Y50.5954 
G00 Z1.0000 
G00 X-27.6144 Y48.0554 
G01 Z-0.1500 F250.00 
G01 X-25.7256 Y48.0554 F250.00 
G01 X-25.6701 Y48.0324 
G01 X-25.6276 Y47.9899 
G01 X-25.6046 Y47.9344 
G01 X-25.6046 Y46.0456 
G01 X-25.6276 Y45.9901 
G01 X-25.6701 Y45.9476 
G01 X-25.7256 Y45.9246 
G01 X-26.1126 Y45.9246 
G01 X-26.1126 Y45.5154 
G01 X-25.7256 Y45.5154 
G01 X-25.6701 Y45.4924 
G01 X-25.6276 Y45.4499 
G01 X-25.6046 Y45.3944 
G01 X-25.6046 Y43.5056 
G01 X-25.6276 Y43.4501 
G01 X-25.6701 Y43.4076 
G01 X-25.7256 Y43.3846 
G01 X-27.6144 Y43.3846 
G01 X-27.6699 Y43.4076 
G01 X-27.7124 Y43.4501 
G01 X-27.7354 Y43.5056 
G01 X-27.7354 Y45.3944 
G01 X-27.7124 Y45.4499 
G01 X-27.6699 Y45.4924 
G01 X-27.6144 Y45.5154 
G01 X-27.2274 Y45.5154 
G01 X-27.2274 Y45.9246 
G01 X-27.6144 Y45.9246 
G01 X-27.6699 Y45.9476 
G01 X-27.7124 Y45.9901 
G01 X-27.7354 Y46.0456 
G01 X-27.7354 Y47.9344 
G01 X-27.7124 Y47.9899 
G01 X-27.6699 Y48.0324 
G01 X-27.6144 Y48.0554 
G00 Z1.0000 
G00 X-32.6944 Y48.0554 
G01 Z-0.1500 F250.00 
G01 X-30.8056 Y48.0554 F250.00 
G01 X-30.7501 Y48.0324 
G01 X-30.7076 Y47.9899 
G01 X-30.6846 Y47.9344 
G01 X-30.6846 Y46.0456 
G01 X-30.7076 Y45.9901 
G01 X-30.7501 Y45.9476 
G01 X-30.8056 Y45.9246 
G01 X-31.1926 Y45.9246 
G01 X-31.1926 Y45.5154 
G01 X-30.8056 Y45.5154 
G01 X-30.7501 Y45.4924 
G01 X-30.7076 Y45.4499 
G01 X-30.6846 Y45.3944 
G01 X-30.6846 Y43.5056 
G01 X-30.7076 Y43.4501 
G01 X-30.7501 Y43.4076 
G01 X-30.8056 Y43.3846 
G01 X-32.6944 Y43.3846 
G01 X-32.7499 Y43.4076 
G01 X-32.7924 Y43.4501 
G01 X-32.8154 Y43.5056 
G01 X-32.8154 Y45.3944 
G01 X-32.7924 Y45.4499 
G01 X-32.7499 Y45.4924 
G01 X-32.6944 Y45.5154 
G01 X-32.3074 Y45.5154 
G01 X-32.3074 Y45.9246 
G01 X-32.6944 Y45.9246 
G01 X-32.7499 Y45.9476 
G01 X-32.7924 Y45.9901 
G01 X-32.8154 Y46.0456 
G01 X-32.8154 Y47.9344 
G01 X-32.7924 Y47.9899 
G01 X-32.7499 Y48.0324 
G01 X-32.6944 Y48.0554 
G00 Z1.0000 
G00 X-35.2344 Y50.5954 
G01 Z-0.1500 F250.00 
G01 X-34.8474 Y50.5954 F250.00 
G01 X-34.8474 Y52.1095 
G01 X-35.3995 Y52.1095 
G01 X-35.4550 Y52.1325 
G01 X-35.4975 Y52.1750 
G01 X-35.5205 Y52.2305 
G01 X-35.5205 Y54.4495 
G01 X-35.4975 Y54.5050 
G01 X-35.4550 Y54.5475 
G01 X-35.3995 Y54.5705 
G01 X-33.1805 Y54.5705 
G01 X-33.1250 Y54.5475 
G01 X-33.0825 Y54.5050 
G01 X-33.0595 Y54.4495 
G01 X-33.0595 Y52.2305 
G01 X-33.0825 Y52.1750 
G01 X-33.1250 Y52.1325 
G01 X-33.1805 Y52.1095 
G01 X-33.7326 Y52.1095 
G01 X-33.7326 Y50.5954 
G01 X-33.3456 Y50.5954 
G01 X-33.2901 Y50.5724 
G01 X-33.2476 Y50.5299 
G01 X-33.2246 Y50.4744 
G01 X-33.2246 Y48.5856 
G01 X-33.2476 Y48.5301 
G01 X-33.2901 Y48.4876 
G01 X-33.3456 Y48.4646 
G01 X-35.2344 Y48.4646 
G01 X-35.2899 Y48.4876 
G01 X-35.3324 Y48.5301 
G01 X-35.3554 Y48.5856 
G01 X-35.3554 Y50.4744 
G01 X-35.3324 Y50.5299 
G01 X-35.2899 Y50.5724 
G01 X-35.2344 Y50.5954 
G00 Z1.0000 
G00 X-44.1244 Y48.0554 
G01 Z-0.1500 F250.00 
G01 X-42.2356 Y48.0554 F250.00 
G01 X-42.1801 Y48.0324 
G01 X-42.1376 Y47.9899 
G01 X-42.1146 Y47.9344 
G01 X-42.1146 Y46.0456 
G01 X-42.1376 Y45.9901 
G01 X-42.1801 Y45.9476 
G01 X-42.2356 Y45.9246 
G01 X-42.6226 Y45.9246 
G01 X-42.6226 Y45.5154 
G01 X-42.2356 Y45.5154 
G01 X-42.1801 Y45.4924 
G01 X-42.1376 Y45.4499 
G01 X-42.1146 Y45.3944 
G01 X-42.1146 Y43.5056 
G01 X-42.1376 Y43.4501 
G01 X-42.1801 Y43.4076 
G01 X-42.2356 Y43.3846 
G01 X-44.1244 Y43.3846 
G01 X-44.1799 Y43.4076 
G01 X-44.2224 Y43.4501 
G01 X-44.2454 Y43.5056 
G01 X-44.2454 Y45.3944 
G01 X-44.2224 Y45.4499 
G01 X-44.1799 Y45.4924 
G01 X-44.1244 Y45.5154 
G01 X-43.7374 Y45.5154 
G01 X-43.7374 Y45.9246 
G01 X-44.1244 Y45.9246 
G01 X-44.1799 Y45.9476 
G01 X-44.2224 Y45.9901 
G01 X-44.2454 Y46.0456 
G01 X-44.2454 Y47.9344 
G01 X-44.2224 Y47.9899 
G01 X-44.1799 Y48.0324 
G01 X-44.1244 Y48.0554 
G00 Z1.0000 
G00 X-46.6644 Y50.5954 
G01 Z-0.1500 F250.00 
G01 X-46.2774 Y50.5954 F250.00 
G01 X-46.2774 Y52.1095 
G01 X-46.8295 Y52.1095 
G01 X-46.8850 Y52.1325 
G01 X-46.9275 Y52.1750 
G01 X-46.9505 Y52.2305 
G01 X-46.9505 Y54.4495 
G01 X-46.9275 Y54.5050 
G01 X-46.8850 Y54.5475 
G01 X-46.8295 Y54.5705 
G01 X-44.6105 Y54.5705 
G01 X-44.5550 Y54.5475 
G01 X-44.5125 Y54.5050 
G01 X-44.4895 Y54.4495 
G01 X-44.4895 Y52.2305 
G01 X-44.5125 Y52.1750 
G01 X-44.5550 Y52.1325 
G01 X-44.6105 Y52.1095 
G01 X-45.1626 Y52.1095 
G01 X-45.1626 Y50.5954 
G01 X-44.7756 Y50.5954 
G01 X-44.7201 Y50.5724 
G01 X-44.6776 Y50.5299 
G01 X-44.6546 Y50.4744 
G01 X-44.6546 Y48.5856 
G01 X-44.6776 Y48.5301 
G01 X-44.7201 Y48.4876 
G01 X-44.7756 Y48.4646 
G01 X-46.6644 Y48.4646 
G01 X-46.7199 Y48.4876 
G01 X-46.7624 Y48.5301 
G01 X-46.7854 Y48.5856 
G01 X-46.7854 Y50.4744 
G01 X-46.7624 Y50.5299 
G01 X-46.7199 Y50.5724 
G01 X-46.6644 Y50.5954 
G00 Z1.0000 
G00 X-49.2044 Y48.0554 
G01 Z-0.1500 F250.00 
G01 X-47.3156 Y48.0554 F250.00 
G01 X-47.2601 Y48.0324 
G01 X-47.2176 Y47.9899 
G01 X-47.1946 Y47.9344 
G01 X-47.1946 Y46.0456 
G01 X-47.2176 Y45.9901 
G01 X-47.2601 Y45.9476 
G01 X-47.3156 Y45.9246 
G01 X-47.7026 Y45.9246 
G01 X-47.7026 Y45.5154 
G01 X-47.3156 Y45.5154 
G01 X-47.2601 Y45.4924 
G01 X-47.2176 Y45.4499 
G01 X-47.1946 Y45.3944 
G01 X-47.1946 Y43.5056 
G01 X-47.2176 Y43.4501 
G01 X-47.2601 Y43.4076 
G01 X-47.3156 Y43.3846 
G01 X-49.2044 Y43.3846 
G01 X-49.2599 Y43.4076 
G01 X-49.3024 Y43.4501 
G01 X-49.3254 Y43.5056 
G01 X-49.3254 Y45.3944 
G01 X-49.3024 Y45.4499 
G01 X-49.2599 Y45.4924 
G01 X-49.2044 Y45.5154 
G01 X-48.8174 Y45.5154 
G01 X-48.8174 Y45.9246 
G01 X-49.2044 Y45.9246 
G01 X-49.2599 Y45.9476 
G01 X-49.3024 Y45.9901 
G01 X-49.3254 Y46.0456 
G01 X-49.3254 Y47.9344 
G01 X-49.3024 Y47.9899 
G01 X-49.2599 Y48.0324 
G01 X-49.2044 Y48.0554 
G00 Z1.0000 
G00 X-51.7444 Y50.5954 
G01 Z-0.1500 F250.00 
G01 X-51.3574 Y50.5954 F250.00 
G01 X-51.3574 Y52.1095 
G01 X-51.9095 Y52.1095 
G01 X-51.9650 Y52.1325 
G01 X-52.0075 Y52.1750 
G01 X-52.0305 Y52.2305 
G01 X-52.0305 Y54.4495 
G01 X-52.0075 Y54.5050 
G01 X-51.9650 Y54.5475 
G01 X-51.9095 Y54.5705 
G01 X-49.6905 Y54.5705 
G01 X-49.6350 Y54.5475 
G01 X-49.5925 Y54.5050 
G01 X-49.5695 Y54.4495 
G01 X-49.5695 Y52.2305 
G01 X-49.5925 Y52.1750 
G01 X-49.6350 Y52.1325 
G01 X-49.6905 Y52.1095 
G01 X-50.2426 Y52.1095 
G01 X-50.2426 Y50.5954 
G01 X-49.8556 Y50.5954 
G01 X-49.8001 Y50.5724 
G01 X-49.7576 Y50.5299 
G01 X-49.7346 Y50.4744 
G01 X-49.7346 Y48.5856 
G01 X-49.7576 Y48.5301 
G01 X-49.8001 Y48.4876 
G01 X-49.8556 Y48.4646 
G01 X-51.7444 Y48.4646 
G01 X-51.7999 Y48.4876 
G01 X-51.8424 Y48.5301 
G01 X-51.8654 Y48.5856 
G01 X-51.8654 Y50.4744 
G01 X-51.8424 Y50.5299 
G01 X-51.7999 Y50.5724 
G01 X-51.7444 Y50.5954 
G00 Z1.0000 
G00 X-56.8244 Y50.5954 
G01 Z-0.1500 F250.00 
G01 X-56.4374 Y50.5954 F250.00 
G01 X-56.4374 Y52.1095 
G01 X-56.9895 Y52.1095 
G01 X-57.0450 Y52.1325 
G01 X-57.0875 Y52.1750 
G01 X-57.1105 Y52.2305 
G01 X-57.1105 Y54.4495 
G01 X-57.0875 Y54.5050 
G01 X-57.0450 Y54.5475 
G01 X-56.9895 Y54.5705 
G01 X-54.7705 Y54.5705 
G01 X-54.7150 Y54.5475 
G01 X-54.6725 Y54.5050 
G01 X-54.6495 Y54.4495 
G01 X-54.6495 Y52.2305 
G01 X-54.6725 Y52.1750 
G01 X-54.7150 Y52.1325 
G01 X-54.7705 Y52.1095 
G01 X-55.3226 Y52.1095 
G01 X-55.3226 Y50.5954 
G01 X-54.9356 Y50.5954 
G01 X-54.8801 Y50.5724 
G01 X-54.8376 Y50.5299 
G01 X-54.8146 Y50.4744 
G01 X-54.8146 Y48.5856 
G01 X-54.8376 Y48.5301 
G01 X-54.8801 Y48.4876 
G01 X-54.9356 Y48.4646 
G01 X-56.8244 Y48.4646 
G01 X-56.8799 Y48.4876 
G01 X-56.9224 Y48.5301 
G01 X-56.9454 Y48.5856 
G01 X-56.9454 Y50.4744 
G01 X-56.9224 Y50.5299 
G01 X-56.8799 Y50.5724 
G01 X-56.8244 Y50.5954 
G00 Z1.0000 
G00 X-54.2844 Y48.0554 
G01 Z-0.1500 F250.00 
G01 X-52.3956 Y48.0554 F250.00 
G01 X-52.3401 Y48.0324 
G01 X-52.2976 Y47.9899 
G01 X-52.2746 Y47.9344 
G01 X-52.2746 Y46.0456 
G01 X-52.2976 Y45.9901 
G01 X-52.3401 Y45.9476 
G01 X-52.3956 Y45.9246 
G01 X-52.7826 Y45.9246 
G01 X-52.7826 Y45.5154 
G01 X-52.3956 Y45.5154 
G01 X-52.3401 Y45.4924 
G01 X-52.2976 Y45.4499 
G01 X-52.2746 Y45.3944 
G01 X-52.2746 Y43.5056 
G01 X-52.2976 Y43.4501 
G01 X-52.3401 Y43.4076 
G01 X-52.3956 Y43.3846 
G01 X-54.2844 Y43.3846 
G01 X-54.3399 Y43.4076 
G01 X-54.3824 Y43.4501 
G01 X-54.4054 Y43.5056 
G01 X-54.4054 Y45.3944 
G01 X-54.3824 Y45.4499 
G01 X-54.3399 Y45.4924 
G01 X-54.2844 Y45.5154 
G01 X-53.8974 Y45.5154 
G01 X-53.8974 Y45.9246 
G01 X-54.2844 Y45.9246 
G01 X-54.3399 Y45.9476 
G01 X-54.3824 Y45.9901 
G01 X-54.4054 Y46.0456 
G01 X-54.4054 Y47.9344 
G01 X-54.3824 Y47.9899 
G01 X-54.3399 Y48.0324 
G01 X-54.2844 Y48.0554 
G00 Z1.0000 
G00 X-59.3644 Y48.0554 
G01 Z-0.1500 F250.00 
G01 X-57.4756 Y48.0554 F250.00 
G01 X-57.4201 Y48.0324 
G01 X-57.3776 Y47.9899 
G01 X-57.3546 Y47.9344 
G01 X-57.3546 Y46.0456 
G01 X-57.3776 Y45.9901 
G01 X-57.4201 Y45.9476 
G01 X-57.4756 Y45.9246 
G01 X-57.8626 Y45.9246 
G01 X-57.8626 Y45.5154 
G01 X-57.4756 Y45.5154 
G01 X-57.4201 Y45.4924 
G01 X-57.3776 Y45.4499 
G01 X-57.3546 Y45.3944 
G01 X-57.3546 Y43.5056 
G01 X-57.3776 Y43.4501 
G01 X-57.4201 Y43.4076 
G01 X-57.4756 Y43.3846 
G01 X-59.3644 Y43.3846 
G01 X-59.4199 Y43.4076 
G01 X-59.4624 Y43.4501 
G01 X-59.4854 Y43.5056 
G01 X-59.4854 Y45.3944 
G01 X-59.4624 Y45.4499 
G01 X-59.4199 Y45.4924 
G01 X-59.3644 Y45.5154 
G01 X-58.9774 Y45.5154 
G01 X-58.9774 Y45.9246 
G01 X-59.3644 Y45.9246 
G01 X-59.4199 Y45.9476 
G01 X-59.4624 Y45.9901 
G01 X-59.4854 Y46.0456 
G01 X-59.4854 Y47.9344 
G01 X-59.4624 Y47.9899 
G01 X-59.4199 Y48.0324 
G01 X-59.3644 Y48.0554 
G00 Z1.0000 
G00 X-61.9044 Y50.5954 
G01 Z-0.1500 F250.00 
G01 X-61.5174 Y50.5954 F250.00 
G01 X-61.5174 Y52.1095 
G01 X-62.0695 Y52.1095 
G01 X-62.1250 Y52.1325 
G01 X-62.1675 Y52.1750 
G01 X-62.1905 Y52.2305 
G01 X-62.1905 Y54.4495 
G01 X-62.1675 Y54.5050 
G01 X-62.1250 Y54.5475 
G01 X-62.0695 Y54.5705 
G01 X-59.8505 Y54.5705 
G01 X-59.7950 Y54.5475 
G01 X-59.7525 Y54.5050 
G01 X-59.7295 Y54.4495 
G01 X-59.7295 Y52.2305 
G01 X-59.7525 Y52.1750 
G01 X-59.7950 Y52.1325 
G01 X-59.8505 Y52.1095 
G01 X-60.4026 Y52.1095 
G01 X-60.4026 Y50.5954 
G01 X-60.0156 Y50.5954 
G01 X-59.9601 Y50.5724 
G01 X-59.9176 Y50.5299 
G01 X-59.8946 Y50.4744 
G01 X-59.8946 Y48.5856 
G01 X-59.9176 Y48.5301 
G01 X-59.9601 Y48.4876 
G01 X-60.0156 Y48.4646 
G01 X-61.9044 Y48.4646 
G01 X-61.9599 Y48.4876 
G01 X-62.0024 Y48.5301 
G01 X-62.0254 Y48.5856 
G01 X-62.0254 Y50.4744 
G01 X-62.0024 Y50.5299 
G01 X-61.9599 Y50.5724 
G01 X-61.9044 Y50.5954 
G00 Z1.0000 
G00 X-70.7944 Y48.0554 
G01 Z-0.1500 F250.00 
G01 X-68.9056 Y48.0554 F250.00 
G01 X-68.8501 Y48.0324 
G01 X-68.8076 Y47.9899 
G01 X-68.7846 Y47.9344 
G01 X-68.7846 Y46.0456 
G01 X-68.8076 Y45.9901 
G01 X-68.8501 Y45.9476 
G01 X-68.9056 Y45.9246 
G01 X-69.2926 Y45.9246 
G01 X-69.2926 Y45.5154 
G01 X-68.9056 Y45.5154 
G01 X-68.8501 Y45.4924 
G01 X-68.8076 Y45.4499 
G01 X-68.7846 Y45.3944 
G01 X-68.7846 Y43.5056 
G01 X-68.8076 Y43.4501 
G01 X-68.8501 Y43.4076 
G01 X-68.9056 Y43.3846 
G01 X-70.7944 Y43.3846 
G01 X-70.8499 Y43.4076 
G01 X-70.8924 Y43.4501 
G01 X-70.9154 Y43.5056 
G01 X-70.9154 Y45.3944 
G01 X-70.8924 Y45.4499 
G01 X-70.8499 Y45.4924 
G01 X-70.7944 Y45.5154 
G01 X-70.4074 Y45.5154 
G01 X-70.4074 Y45.9246 
G01 X-70.7944 Y45.9246 
G01 X-70.8499 Y45.9476 
G01 X-70.8924 Y45.9901 
G01 X-70.9154 Y46.0456 
G01 X-70.9154 Y47.9344 
G01 X-70.8924 Y47.9899 
G01 X-70.8499 Y48.0324 
G01 X-70.7944 Y48.0554 
G00 Z1.0000 
G00 X-73.3344 Y50.5954 
G01 Z-0.1500 F250.00 
G01 X-72.9474 Y50.5954 F250.00 
G01 X-72.9474 Y52.1095 
G01 X-73.4995 Y52.1095 
G01 X-73.5550 Y52.1325 
G01 X-73.5975 Y52.1750 
G01 X-73.6205 Y52.2305 
G01 X-73.6205 Y54.4495 
G01 X-73.5975 Y54.5050 
G01 X-73.5550 Y54.5475 
G01 X-73.4995 Y54.5705 
G01 X-71.2805 Y54.5705 
G01 X-71.2250 Y54.5475 
G01 X-71.1825 Y54.5050 
G01 X-71.1595 Y54.4495 
G01 X-71.1595 Y52.2305 
G01 X-71.1825 Y52.1750 
G01 X-71.2250 Y52.1325 
G01 X-71.2805 Y52.1095 
G01 X-71.8326 Y52.1095 
G01 X-71.8326 Y50.5954 
G01 X-71.4456 Y50.5954 
G01 X-71.3901 Y50.5724 
G01 X-71.3476 Y50.5299 
G01 X-71.3246 Y50.4744 
G01 X-71.3246 Y48.5856 
G01 X-71.3476 Y48.5301 
G01 X-71.3901 Y48.4876 
G01 X-71.4456 Y48.4646 
G01 X-73.3344 Y48.4646 
G01 X-73.3899 Y48.4876 
G01 X-73.4324 Y48.5301 
G01 X-73.4554 Y48.5856 
G01 X-73.4554 Y50.4744 
G01 X-73.4324 Y50.5299 
G01 X-73.3899 Y50.5724 
G01 X-73.3344 Y50.5954 
G00 Z1.0000 
G00 X-75.8744 Y48.0554 
G01 Z-0.1500 F250.00 
G01 X-73.9856 Y48.0554 F250.00 
G01 X-73.9301 Y48.0324 
G01 X-73.8876 Y47.9899 
G01 X-73.8646 Y47.9344 
G01 X-73.8646 Y46.0456 
G01 X-73.8876 Y45.9901 
G01 X-73.9301 Y45.9476 
G01 X-73.9856 Y45.9246 
G01 X-74.3726 Y45.9246 
G01 X-74.3726 Y45.5154 
G01 X-73.9856 Y45.5154 
G01 X-73.9301 Y45.4924 
G01 X-73.8876 Y45.4499 
G01 X-73.8646 Y45.3944 
G01 X-73.8646 Y43.5056 
G01 X-73.8876 Y43.4501 
G01 X-73.9301 Y43.4076 
G01 X-73.9856 Y43.3846 
G01 X-75.8744 Y43.3846 
G01 X-75.9299 Y43.4076 
G01 X-75.9724 Y43.4501 
G01 X-75.9954 Y43.5056 
G01 X-75.9954 Y45.3944 
G01 X-75.9724 Y45.4499 
G01 X-75.9299 Y45.4924 
G01 X-75.8744 Y45.5154 
G01 X-75.4874 Y45.5154 
G01 X-75.4874 Y45.9246 
G01 X-75.8744 Y45.9246 
G01 X-75.9299 Y45.9476 
G01 X-75.9724 Y45.9901 
G01 X-75.9954 Y46.0456 
G01 X-75.9954 Y47.9344 
G01 X-75.9724 Y47.9899 
G01 X-75.9299 Y48.0324 
G01 X-75.8744 Y48.0554 
G00 Z1.0000 
G00 X-78.4144 Y50.5954 
G01 Z-0.1500 F250.00 
G01 X-78.0274 Y50.5954 F250.00 
G01 X-78.0274 Y52.1095 
G01 X-78.5795 Y52.1095 
G01 X-78.6350 Y52.1325 
G01 X-78.6775 Y52.1750 
G01 X-78.7005 Y52.2305 
G01 X-78.7005 Y54.4495 
G01 X-78.6775 Y54.5050 
G01 X-78.6350 Y54.5475 
G01 X-78.5795 Y54.5705 
G01 X-76.3605 Y54.5705 
G01 X-76.3050 Y54.5475 
G01 X-76.2625 Y54.5050 
G01 X-76.2395 Y54.4495 
G01 X-76.2395 Y52.2305 
G01 X-76.2625 Y52.1750 
G01 X-76.3050 Y52.1325 
G01 X-76.3605 Y52.1095 
G01 X-76.9126 Y52.1095 
G01 X-76.9126 Y50.5954 
G01 X-76.5256 Y50.5954 
G01 X-76.4701 Y50.5724 
G01 X-76.4276 Y50.5299 
G01 X-76.4046 Y50.4744 
G01 X-76.4046 Y48.5856 
G01 X-76.4276 Y48.5301 
G01 X-76.4701 Y48.4876 
G01 X-76.5256 Y48.4646 
G01 X-78.4144 Y48.4646 
G01 X-78.4699 Y48.4876 
G01 X-78.5124 Y48.5301 
G01 X-78.5354 Y48.5856 
G01 X-78.5354 Y50.4744 
G01 X-78.5124 Y50.5299 
G01 X-78.4699 Y50.5724 
G01 X-78.4144 Y50.5954 
G00 Z1.0000 
G00 X-80.9544 Y48.0554 
G01 Z-0.1500 F250.00 
G01 X-79.0656 Y48.0554 F250.00 
G01 X-79.0101 Y48.0324 
G01 X-78.9676 Y47.9899 
G01 X-78.9446 Y47.9344 
G01 X-78.9446 Y46.0456 
G01 X-78.9676 Y45.9901 
G01 X-79.0101 Y45.9476 
G01 X-79.0656 Y45.9246 
G01 X-79.4526 Y45.9246 
G01 X-79.4526 Y45.5154 
G01 X-79.0656 Y45.5154 
G01 X-79.0101 Y45.4924 
G01 X-78.9676 Y45.4499 
G01 X-78.9446 Y45.3944 
G01 X-78.9446 Y43.5056 
G01 X-78.9676 Y43.4501 
G01 X-79.0101 Y43.4076 
G01 X-79.0656 Y43.3846 
G01 X-80.9544 Y43.3846 
G01 X-81.0099 Y43.4076 
G01 X-81.0524 Y43.4501 
G01 X-81.0754 Y43.5056 
G01 X-81.0754 Y45.3944 
G01 X-81.0524 Y45.4499 
G01 X-81.0099 Y45.4924 
G01 X-80.9544 Y45.5154 
G01 X-80.5674 Y45.5154 
G01 X-80.5674 Y45.9246 
G01 X-80.9544 Y45.9246 
G01 X-81.0099 Y45.9476 
G01 X-81.0524 Y45.9901 
G01 X-81.0754 Y46.0456 
G01 X-81.0754 Y47.9344 
G01 X-81.0524 Y47.9899 
G01 X-81.0099 Y48.0324 
G01 X-80.9544 Y48.0554 
G00 Z1.0000 
G00 X-83.4944 Y50.5954 
G01 Z-0.1500 F250.00 
G01 X-83.1074 Y50.5954 F250.00 
G01 X-83.1074 Y52.1095 
G01 X-83.6595 Y52.1095 
G01 X-83.7150 Y52.1325 
G01 X-83.7575 Y52.1750 
G01 X-83.7805 Y52.2305 
G01 X-83.7805 Y54.4495 
G01 X-83.7575 Y54.5050 
G01 X-83.7150 Y54.5475 
G01 X-83.6595 Y54.5705 
G01 X-81.4405 Y54.5705 
G01 X-81.3850 Y54.5475 
G01 X-81.3425 Y54.5050 
G01 X-81.3195 Y54.4495 
G01 X-81.3195 Y52.2305 
G01 X-81.3425 Y52.1750 
G01 X-81.3850 Y52.1325 
G01 X-81.4405 Y52.1095 
G01 X-81.9926 Y52.1095 
G01 X-81.9926 Y50.5954 
G01 X-81.6056 Y50.5954 
G01 X-81.5501 Y50.5724 
G01 X-81.5076 Y50.5299 
G01 X-81.4846 Y50.4744 
G01 X-81.4846 Y48.5856 
G01 X-81.5076 Y48.5301 
G01 X-81.5501 Y48.4876 
G01 X-81.6056 Y48.4646 
G01 X-83.4944 Y48.4646 
G01 X-83.5499 Y48.4876 
G01 X-83.5924 Y48.5301 
G01 X-83.6154 Y48.5856 
G01 X-83.6154 Y50.4744 
G01 X-83.5924 Y50.5299 
G01 X-83.5499 Y50.5724 
G01 X-83.4944 Y50.5954 
G00 Z1.0000 
G00 X-86.0344 Y48.0554 
G01 Z-0.1500 F250.00 
G01 X-84.1456 Y48.0554 F250.00 
G01 X-84.0901 Y48.0324 
G01 X-84.0476 Y47.9899 
G01 X-84.0246 Y47.9344 
G01 X-84.0246 Y46.0456 
G01 X-84.0476 Y45.9901 
G01 X-84.0901 Y45.9476 
G01 X-84.1456 Y45.9246 
G01 X-84.5326 Y45.9246 
G01 X-84.5326 Y45.5154 
G01 X-84.1456 Y45.5154 
G01 X-84.0901 Y45.4924 
G01 X-84.0476 Y45.4499 
G01 X-84.0246 Y45.3944 
G01 X-84.0246 Y43.5056 
G01 X-84.0476 Y43.4501 
G01 X-84.0901 Y43.4076 
G01 X-84.1456 Y43.3846 
G01 X-86.0344 Y43.3846 
G01 X-86.0899 Y43.4076 
G01 X-86.1324 Y43.4501 
G01 X-86.1554 Y43.5056 
G01 X-86.1554 Y45.3944 
G01 X-86.1324 Y45.4499 
G01 X-86.0899 Y45.4924 
G01 X-86.0344 Y45.5154 
G01 X-85.6474 Y45.5154 
G01 X-85.6474 Y45.9246 
G01 X-86.0344 Y45.9246 
G01 X-86.0899 Y45.9476 
G01 X-86.1324 Y45.9901 
G01 X-86.1554 Y46.0456 
G01 X-86.1554 Y47.9344 
G01 X-86.1324 Y47.9899 
G01 X-86.0899 Y48.0324 
G01 X-86.0344 Y48.0554 
G00 Z1.0000 
G00 X-88.5744 Y50.5954 
G01 Z-0.1500 F250.00 
G01 X-88.1874 Y50.5954 F250.00 
G01 X-88.1874 Y52.1095 
G01 X-88.7395 Y52.1095 
G01 X-88.7950 Y52.1325 
G01 X-88.8375 Y52.1750 
G01 X-88.8605 Y52.2305 
G01 X-88.8605 Y54.4495 
G01 X-88.8375 Y54.5050 
G01 X-88.7950 Y54.5475 
G01 X-88.7395 Y54.5705 
G01 X-86.5205 Y54.5705 
G01 X-86.4650 Y54.5475 
G01 X-86.4225 Y54.5050 
G01 X-86.3995 Y54.4495 
G01 X-86.3995 Y52.2305 
G01 X-86.4225 Y52.1750 
G01 X-86.4650 Y52.1325 
G01 X-86.5205 Y52.1095 
G01 X-87.0726 Y52.1095 
G01 X-87.0726 Y50.5954 
G01 X-86.6856 Y50.5954 
G01 X-86.6301 Y50.5724 
G01 X-86.5876 Y50.5299 
G01 X-86.5646 Y50.4744 
G01 X-86.5646 Y48.5856 
G01 X-86.5876 Y48.5301 
G01 X-86.6301 Y48.4876 
G01 X-86.6856 Y48.4646 
G01 X-88.5744 Y48.4646 
G01 X-88.6299 Y48.4876 
G01 X-88.6724 Y48.5301 
G01 X-88.6954 Y48.5856 
G01 X-88.6954 Y50.4744 
G01 X-88.6724 Y50.5299 
G01 X-88.6299 Y50.5724 
G01 X-88.5744 Y50.5954 
G00 Z1.0000 
G00 X-81.6056 Y7.8246 
G01 Z-0.1500 F250.00 
G01 X-81.9926 Y7.8246 F250.00 
G01 X-81.9926 Y6.3105 
G01 X-81.4405 Y6.3105 
G01 X-81.3850 Y6.2875 
G01 X-81.3425 Y6.2450 
G01 X-81.3195 Y6.1895 
G01 X-81.3195 Y3.9705 
G01 X-81.3425 Y3.9150 
G01 X-81.3850 Y3.8725 
G01 X-81.4405 Y3.8495 
G01 X-83.6595 Y3.8495 
G01 X-83.7150 Y3.8725 
G01 X-83.7575 Y3.9150 
G01 X-83.7805 Y3.9705 
G01 X-83.7805 Y6.1895 
G01 X-83.7575 Y6.2450 
G01 X-83.7150 Y6.2875 
G01 X-83.6595 Y6.3105 
G01 X-83.1074 Y6.3105 
G01 X-83.1074 Y7.8246 
G01 X-83.4944 Y7.8246 
G01 X-83.5499 Y7.8476 
G01 X-83.5924 Y7.8901 
G01 X-83.6154 Y7.9456 
G01 X-83.6154 Y9.8344 
G01 X-83.5924 Y9.8899 
G01 X-83.5499 Y9.9324 
G01 X-83.4944 Y9.9554 
G01 X-81.6056 Y9.9554 
G01 X-81.5501 Y9.9324 
G01 X-81.5076 Y9.8899 
G01 X-81.4846 Y9.8344 
G01 X-81.4846 Y7.9456 
G01 X-81.5076 Y7.8901 
G01 X-81.5501 Y7.8476 
G01 X-81.6056 Y7.8246 
G00 Z1.0000 
G00 X-81.6056 Y10.3646 
G01 Z-0.1500 F250.00 
G01 X-83.4944 Y10.3646 F250.00 
G01 X-83.5499 Y10.3876 
G01 X-83.5924 Y10.4301 
G01 X-83.6154 Y10.4856 
G01 X-83.6154 Y12.3744 
G01 X-83.5924 Y12.4299 
G01 X-83.5499 Y12.4724 
G01 X-83.4944 Y12.4954 
G01 X-83.1074 Y12.4954 
G01 X-83.1074 Y12.9046 
G01 X-83.4944 Y12.9046 
G01 X-83.5499 Y12.9276 
G01 X-83.5924 Y12.9701 
G01 X-83.6154 Y13.0256 
G01 X-83.6154 Y14.9144 
G01 X-83.5924 Y14.9699 
G01 X-83.5499 Y15.0124 
G01 X-83.4944 Y15.0354 
G01 X-81.6056 Y15.0354 
G01 X-81.5501 Y15.0124 
G01 X-81.5076 Y14.9699 
G01 X-81.4846 Y14.9144 
G01 X-81.4846 Y13.0256 
G01 X-81.5076 Y12.9701 
G01 X-81.5501 Y12.9276 
G01 X-81.6056 Y12.9046 
G01 X-81.9926 Y12.9046 
G01 X-81.9926 Y12.4954 
G01 X-81.6056 Y12.4954 
G01 X-81.5501 Y12.4724 
G01 X-81.5076 Y12.4299 
G01 X-81.4846 Y12.3744 
G01 X-81.4846 Y10.4856 
G01 X-81.5076 Y10.4301 
G01 X-81.5501 Y10.3876 
G01 X-81.6056 Y10.3646 
G00 Z1.0000 
G00 X-76.5256 Y10.3646 
G01 Z-0.1500 F250.00 
G01 X-78.4144 Y10.3646 F250.00 
G01 X-78.4699 Y10.3876 
G01 X-78.5124 Y10.4301 
G01 X-78.5354 Y10.4856 
G01 X-78.5354 Y12.3744 
G01 X-78.5124 Y12.4299 
G01 X-78.4699 Y12.4724 
G01 X-78.4144 Y12.4954 
G01 X-78.0274 Y12.4954 
G01 X-78.0274 Y12.9046 
G01 X-78.4144 Y12.9046 
G01 X-78.4699 Y12.9276 
G01 X-78.5124 Y12.9701 
G01 X-78.5354 Y13.0256 
G01 X-78.5354 Y14.9144 
G01 X-78.5124 Y14.9699 
G01 X-78.4699 Y15.0124 
G01 X-78.4144 Y15.0354 
G01 X-76.5256 Y15.0354 
G01 X-76.4701 Y15.0124 
G01 X-76.4276 Y14.9699 
G01 X-76.4046 Y14.9144 
G01 X-76.4046 Y13.0256 
G01 X-76.4276 Y12.9701 
G01 X-76.4701 Y12.9276 
G01 X-76.5256 Y12.9046 
G01 X-76.9126 Y12.9046 
G01 X-76.9126 Y12.4954 
G01 X-76.5256 Y12.4954 
G01 X-76.4701 Y12.4724 
G01 X-76.4276 Y12.4299 
G01 X-76.4046 Y12.3744 
G01 X-76.4046 Y10.4856 
G01 X-76.4276 Y10.4301 
G01 X-76.4701 Y10.3876 
G01 X-76.5256 Y10.3646 
G00 Z1.0000 
G00 X-73.9856 Y7.8246 
G01 Z-0.1500 F250.00 
G01 X-74.3726 Y7.8246 F250.00 
G01 X-74.3726 Y6.3105 
G01 X-73.8205 Y6.3105 
G01 X-73.7650 Y6.2875 
G01 X-73.7225 Y6.2450 
G01 X-73.6995 Y6.1895 
G01 X-73.6995 Y3.9705 
G01 X-73.7225 Y3.9150 
G01 X-73.7650 Y3.8725 
G01 X-73.8205 Y3.8495 
G01 X-76.0395 Y3.8495 
G01 X-76.0950 Y3.8725 
G01 X-76.1375 Y3.9150 
G01 X-76.1605 Y3.9705 
G01 X-76.1605 Y6.1895 
G01 X-76.1375 Y6.2450 
G01 X-76.0950 Y6.2875 
G01 X-76.0395 Y6.3105 
G01 X-75.4874 Y6.3105 
G01 X-75.4874 Y7.8246 
G01 X-75.8744 Y7.8246 
G01 X-75.9299 Y7.8476 
G01 X-75.9724 Y7.8901 
G01 X-75.9954 Y7.9456 
G01 X-75.9954 Y9.8344 
G01 X-75.9724 Y9.8899 
G01 X-75.9299 Y9.9324 
G01 X-75.8744 Y9.9554 
G01 X-73.9856 Y9.9554 
G01 X-73.9301 Y9.9324 
G01 X-73.8876 Y9.8899 
G01 X-73.8646 Y9.8344 
G01 X-73.8646 Y7.9456 
G01 X-73.8876 Y7.8901 
G01 X-73.9301 Y7.8476 
G01 X-73.9856 Y7.8246 
G00 Z1.0000 
G00 X-71.4456 Y10.3646 
G01 Z-0.1500 F250.00 
G01 X-73.3344 Y10.3646 F250.00 
G01 X-73.3899 Y10.3876 
G01 X-73.4324 Y10.4301 
G01 X-73.4554 Y10.4856 
G01 X-73.4554 Y12.3744 
G01 X-73.4324 Y12.4299 
G01 X-73.3899 Y12.4724 
G01 X-73.3344 Y12.4954 
G01 X-72.9474 Y12.4954 
G01 X-72.9474 Y12.9046 
G01 X-73.3344 Y12.9046 
G01 X-73.3899 Y12.9276 
G01 X-73.4324 Y12.9701 
G01 X-73.4554 Y13.0256 
G01 X-73.4554 Y14.9144 
G01 X-73.4324 Y14.9699 
G01 X-73.3899 Y15.0124 
G01 X-73.3344 Y15.0354 
G01 X-71.4456 Y15.0354 
G01 X-71.3901 Y15.0124 
G01 X-71.3476 Y14.9699 
G01 X-71.3246 Y14.9144 
G01 X-71.3246 Y13.0256 
G01 X-71.3476 Y12.9701 
G01 X-71.3901 Y12.9276 
G01 X-71.4456 Y12.9046 
G01 X-71.8326 Y12.9046 
G01 X-71.8326 Y12.4954 
G01 X-71.4456 Y12.4954 
G01 X-71.3901 Y12.4724 
G01 X-71.3476 Y12.4299 
G01 X-71.3246 Y12.3744 
G01 X-71.3246 Y10.4856 
G01 X-71.3476 Y10.4301 
G01 X-71.3901 Y10.3876 
G01 X-71.4456 Y10.3646 
G00 Z1.0000 
G00 X-68.9056 Y7.8246 
G01 Z-0.1500 F250.00 
G01 X-69.2926 Y7.8246 F250.00 
G01 X-69.2926 Y6.3105 
G01 X-68.7405 Y6.3105 
G01 X-68.6850 Y6.2875 
G01 X-68.6425 Y6.2450 
G01 X-68.6195 Y6.1895 
G01 X-68.6195 Y3.9705 
G01 X-68.6425 Y3.9150 
G01 X-68.6850 Y3.8725 
G01 X-68.7405 Y3.8495 
G01 X-70.9595 Y3.8495 
G01 X-71.0150 Y3.8725 
G01 X-71.0575 Y3.9150 
G01 X-71.0805 Y3.9705 
G01 X-71.0805 Y6.1895 
G01 X-71.0575 Y6.2450 
G01 X-71.0150 Y6.2875 
G01 X-70.9595 Y6.3105 
G01 X-70.4074 Y6.3105 
G01 X-70.4074 Y7.8246 
G01 X-70.7944 Y7.8246 
G01 X-70.8499 Y7.8476 
G01 X-70.8924 Y7.8901 
G01 X-70.9154 Y7.9456 
G01 X-70.9154 Y9.8344 
G01 X-70.8924 Y9.8899 
G01 X-70.8499 Y9.9324 
G01 X-70.7944 Y9.9554 
G01 X-68.9056 Y9.9554 
G01 X-68.8501 Y9.9324 
G01 X-68.8076 Y9.8899 
G01 X-68.7846 Y9.8344 
G01 X-68.7846 Y7.9456 
G01 X-68.8076 Y7.8901 
G01 X-68.8501 Y7.8476 
G01 X-68.9056 Y7.8246 
G00 Z1.0000 
G00 X-66.3656 Y10.3646 
G01 Z-0.1500 F250.00 
G01 X-68.2544 Y10.3646 F250.00 
G01 X-68.3099 Y10.3876 
G01 X-68.3524 Y10.4301 
G01 X-68.3754 Y10.4856 
G01 X-68.3754 Y12.3744 
G01 X-68.3524 Y12.4299 
G01 X-68.3099 Y12.4724 
G01 X-68.2544 Y12.4954 
G01 X-67.8674 Y12.4954 
G01 X-67.8674 Y12.9046 
G01 X-68.2544 Y12.9046 
G01 X-68.3099 Y12.9276 
G01 X-68.3524 Y12.9701 
G01 X-68.3754 Y13.0256 
G01 X-68.3754 Y14.9144 
G01 X-68.3524 Y14.9699 
G01 X-68.3099 Y15.0124 
G01 X-68.2544 Y15.0354 
G01 X-66.3656 Y15.0354 
G01 X-66.3101 Y15.0124 
G01 X-66.2676 Y14.9699 
G01 X-66.2446 Y14.9144 
G01 X-66.2446 Y13.0256 
G01 X-66.2676 Y12.9701 
G01 X-66.3101 Y12.9276 
G01 X-66.3656 Y12.9046 
G01 X-66.7526 Y12.9046 
G01 X-66.7526 Y12.4954 
G01 X-66.3656 Y12.4954 
G01 X-66.3101 Y12.4724 
G01 X-66.2676 Y12.4299 
G01 X-66.2446 Y12.3744 
G01 X-66.2446 Y10.4856 
G01 X-66.2676 Y10.4301 
G01 X-66.3101 Y10.3876 
G01 X-66.3656 Y10.3646 
G00 Z1.0000 
G00 X-63.8256 Y7.8246 
G01 Z-0.1500 F250.00 
G01 X-64.2126 Y7.8246 F250.00 
G01 X-64.2126 Y6.3105 
G01 X-63.6605 Y6.3105 
G01 X-63.6050 Y6.2875 
G01 X-63.5625 Y6.2450 
G01 X-63.5395 Y6.1895 
G01 X-63.5395 Y3.9705 
G01 X-63.5625 Y3.9150 
G01 X-63.6050 Y3.8725 
G01 X-63.6605 Y3.8495 
G01 X-65.8795 Y3.8495 
G01 X-65.9350 Y3.8725 
G01 X-65.9775 Y3.9150 
G01 X-66.0005 Y3.9705 
G01 X-66.0005 Y6.1895 
G01 X-65.9775 Y6.2450 
G01 X-65.9350 Y6.2875 
G01 X-65.8795 Y6.3105 
G01 X-65.3274 Y6.3105 
G01 X-65.3274 Y7.8246 
G01 X-65.7144 Y7.8246 
G01 X-65.7699 Y7.8476 
G01 X-65.8124 Y7.8901 
G01 X-65.8354 Y7.9456 
G01 X-65.8354 Y9.8344 
G01 X-65.8124 Y9.8899 
G01 X-65.7699 Y9.9324 
G01 X-65.7144 Y9.9554 
G01 X-63.8256 Y9.9554 
G01 X-63.7701 Y9.9324 
G01 X-63.7276 Y9.8899 
G01 X-63.7046 Y9.8344 
G01 X-63.7046 Y7.9456 
G01 X-63.7276 Y7.8901 
G01 X-63.7701 Y7.8476 
G01 X-63.8256 Y7.8246 
G00 Z1.0000 
G00 X-54.9356 Y10.3646 
G01 Z-0.1500 F250.00 
G01 X-56.8244 Y10.3646 F250.00 
G01 X-56.8799 Y10.3876 
G01 X-56.9224 Y10.4301 
G01 X-56.9454 Y10.4856 
G01 X-56.9454 Y12.3744 
G01 X-56.9224 Y12.4299 
G01 X-56.8799 Y12.4724 
G01 X-56.8244 Y12.4954 
G01 X-56.4374 Y12.4954 
G01 X-56.4374 Y12.9046 
G01 X-56.8244 Y12.9046 
G01 X-56.8799 Y12.9276 
G01 X-56.9224 Y12.9701 
G01 X-56.9454 Y13.0256 
G01 X-56.9454 Y14.9144 
G01 X-56.9224 Y14.9699 
G01 X-56.8799 Y15.0124 
G01 X-56.8244 Y15.0354 
G01 X-54.9356 Y15.0354 
G01 X-54.8801 Y15.0124 
G01 X-54.8376 Y14.9699 
G01 X-54.8146 Y14.9144 
G01 X-54.8146 Y13.0256 
G01 X-54.8376 Y12.9701 
G01 X-54.8801 Y12.9276 
G01 X-54.9356 Y12.9046 
G01 X-55.3226 Y12.9046 
G01 X-55.3226 Y12.4954 
G01 X-54.9356 Y12.4954 
G01 X-54.8801 Y12.4724 
G01 X-54.8376 Y12.4299 
G01 X-54.8146 Y12.3744 
G01 X-54.8146 Y10.4856 
G01 X-54.8376 Y10.4301 
G01 X-54.8801 Y10.3876 
G01 X-54.9356 Y10.3646 
G00 Z1.0000 
G00 X-49.8556 Y7.8246 
G01 Z-0.1500 F250.00 
G01 X-50.2426 Y7.8246 F250.00 
G01 X-50.2426 Y6.3105 
G01 X-49.6905 Y6.3105 
G01 X-49.6350 Y6.2875 
G01 X-49.5925 Y6.2450 
G01 X-49.5695 Y6.1895 
G01 X-49.5695 Y3.9705 
G01 X-49.5925 Y3.9150 
G01 X-49.6350 Y3.8725 
G01 X-49.6905 Y3.8495 
G01 X-51.9095 Y3.8495 
G01 X-51.9650 Y3.8725 
G01 X-52.0075 Y3.9150 
G01 X-52.0305 Y3.9705 
G01 X-52.0305 Y6.1895 
G01 X-52.0075 Y6.2450 
G01 X-51.9650 Y6.2875 
G01 X-51.9095 Y6.3105 
G01 X-51.3574 Y6.3105 
G01 X-51.3574 Y7.8246 
G01 X-51.7444 Y7.8246 
G01 X-51.7999 Y7.8476 
G01 X-51.8424 Y7.8901 
G01 X-51.8654 Y7.9456 
G01 X-51.8654 Y9.8344 
G01 X-51.8424 Y9.8899 
G01 X-51.7999 Y9.9324 
G01 X-51.7444 Y9.9554 
G01 X-49.8556 Y9.9554 
G01 X-49.8001 Y9.9324 
G01 X-49.7576 Y9.8899 
G01 X-49.7346 Y9.8344 
G01 X-49.7346 Y7.9456 
G01 X-49.7576 Y7.8901 
G01 X-49.8001 Y7.8476 
G01 X-49.8556 Y7.8246 
G00 Z1.0000 
G00 X-49.8556 Y10.3646 
G01 Z-0.1500 F250.00 
G01 X-51.7444 Y10.3646 F250.00 
G01 X-51.7999 Y10.3876 
G01 X-51.8424 Y10.4301 
G01 X-51.8654 Y10.4856 
G01 X-51.8654 Y12.3744 
G01 X-51.8424 Y12.4299 
G01 X-51.7999 Y12.4724 
G01 X-51.7444 Y12.4954 
G01 X-51.3574 Y12.4954 
G01 X-51.3574 Y12.9046 
G01 X-51.7444 Y12.9046 
G01 X-51.7999 Y12.9276 
G01 X-51.8424 Y12.9701 
G01 X-51.8654 Y13.0256 
G01 X-51.8654 Y14.9144 
G01 X-51.8424 Y14.9699 
G01 X-51.7999 Y15.0124 
G01 X-51.7444 Y15.0354 
G01 X-49.8556 Y15.0354 
G01 X-49.8001 Y15.0124 
G01 X-49.7576 Y14.9699 
G01 X-49.7346 Y14.9144 
G01 X-49.7346 Y13.0256 
G01 X-49.7576 Y12.9701 
G01 X-49.8001 Y12.9276 
G01 X-49.8556 Y12.9046 
G01 X-50.2426 Y12.9046 
G01 X-50.2426 Y12.4954 
G01 X-49.8556 Y12.4954 
G01 X-49.8001 Y12.4724 
G01 X-49.7576 Y12.4299 
G01 X-49.7346 Y12.3744 
G01 X-49.7346 Y10.4856 
G01 X-49.7576 Y10.4301 
G01 X-49.8001 Y10.3876 
G01 X-49.8556 Y10.3646 
G00 Z1.0000 
G00 X-44.7756 Y7.8246 
G01 Z-0.1500 F250.00 
G01 X-45.1626 Y7.8246 F250.00 
G01 X-45.1626 Y6.3105 
G01 X-44.6105 Y6.3105 
G01 X-44.5550 Y6.2875 
G01 X-44.5125 Y6.2450 
G01 X-44.4895 Y6.1895 
G01 X-44.4895 Y3.9705 
G01 X-44.5125 Y3.9150 
G01 X-44.5550 Y3.8725 
G01 X-44.6105 Y3.8495 
G01 X-46.8295 Y3.8495 
G01 X-46.8850 Y3.8725 
G01 X-46.9275 Y3.9150 
G01 X-46.9505 Y3.9705 
G01 X-46.9505 Y6.1895 
G01 X-46.9275 Y6.2450 
G01 X-46.8850 Y6.2875 
G01 X-46.8295 Y6.3105 
G01 X-46.2774 Y6.3105 
G01 X-46.2774 Y7.8246 
G01 X-46.6644 Y7.8246 
G01 X-46.7199 Y7.8476 
G01 X-46.7624 Y7.8901 
G01 X-46.7854 Y7.9456 
G01 X-46.7854 Y9.8344 
G01 X-46.7624 Y9.8899 
G01 X-46.7199 Y9.9324 
G01 X-46.6644 Y9.9554 
G01 X-44.7756 Y9.9554 
G01 X-44.7201 Y9.9324 
G01 X-44.6776 Y9.8899 
G01 X-44.6546 Y9.8344 
G01 X-44.6546 Y7.9456 
G01 X-44.6776 Y7.8901 
G01 X-44.7201 Y7.8476 
G01 X-44.7756 Y7.8246 
G00 Z1.0000 
G00 X-44.7756 Y10.3646 
G01 Z-0.1500 F250.00 
G01 X-46.6644 Y10.3646 F250.00 
G01 X-46.7199 Y10.3876 
G01 X-46.7624 Y10.4301 
G01 X-46.7854 Y10.4856 
G01 X-46.7854 Y12.3744 
G01 X-46.7624 Y12.4299 
G01 X-46.7199 Y12.4724 
G01 X-46.6644 Y12.4954 
G01 X-46.2774 Y12.4954 
G01 X-46.2774 Y12.9046 
G01 X-46.6644 Y12.9046 
G01 X-46.7199 Y12.9276 
G01 X-46.7624 Y12.9701 
G01 X-46.7854 Y13.0256 
G01 X-46.7854 Y14.9144 
G01 X-46.7624 Y14.9699 
G01 X-46.7199 Y15.0124 
G01 X-46.6644 Y15.0354 
G01 X-44.7756 Y15.0354 
G01 X-44.7201 Y15.0124 
G01 X-44.6776 Y14.9699 
G01 X-44.6546 Y14.9144 
G01 X-44.6546 Y13.0256 
G01 X-44.6776 Y12.9701 
G01 X-44.7201 Y12.9276 
G01 X-44.7756 Y12.9046 
G01 X-45.1626 Y12.9046 
G01 X-45.1626 Y12.4954 
G01 X-44.7756 Y12.4954 
G01 X-44.7201 Y12.4724 
G01 X-44.6776 Y12.4299 
G01 X-44.6546 Y12.3744 
G01 X-44.6546 Y10.4856 
G01 X-44.6776 Y10.4301 
G01 X-44.7201 Y10.3876 
G01 X-44.7756 Y10.3646 
G00 Z1.0000 
G00 X-42.2356 Y7.8246 
G01 Z-0.1500 F250.00 
G01 X-42.6226 Y7.8246 F250.00 
G01 X-42.6226 Y6.3105 
G01 X-42.0705 Y6.3105 
G01 X-42.0150 Y6.2875 
G01 X-41.9725 Y6.2450 
G01 X-41.9495 Y6.1895 
G01 X-41.9495 Y3.9705 
G01 X-41.9725 Y3.9150 
G01 X-42.0150 Y3.8725 
G01 X-42.0705 Y3.8495 
G01 X-44.2895 Y3.8495 
G01 X-44.3450 Y3.8725 
G01 X-44.3875 Y3.9150 
G01 X-44.4105 Y3.9705 
G01 X-44.4105 Y6.1895 
G01 X-44.3875 Y6.2450 
G01 X-44.3450 Y6.2875 
G01 X-44.2895 Y6.3105 
G01 X-43.7374 Y6.3105 
G01 X-43.7374 Y7.8246 
G01 X-44.1244 Y7.8246 
G01 X-44.1799 Y7.8476 
G01 X-44.2224 Y7.8901 
G01 X-44.2454 Y7.9456 
G01 X-44.2454 Y9.8344 
G01 X-44.2224 Y9.8899 
G01 X-44.1799 Y9.9324 
G01 X-44.1244 Y9.9554 
G01 X-42.2356 Y9.9554 
G01 X-42.1801 Y9.9324 
G01 X-42.1376 Y9.8899 
G01 X-42.1146 Y9.8344 
G01 X-42.1146 Y7.9456 
G01 X-42.1376 Y7.8901 
G01 X-42.1801 Y7.8476 
G01 X-42.2356 Y7.8246 
G00 Z1.0000 
G00 X-39.6956 Y10.3646 
G01 Z-0.1500 F250.00 
G01 X-41.5844 Y10.3646 F250.00 
G01 X-41.6399 Y10.3876 
G01 X-41.6824 Y10.4301 
G01 X-41.7054 Y10.4856 
G01 X-41.7054 Y12.3744 
G01 X-41.6824 Y12.4299 
G01 X-41.6399 Y12.4724 
G01 X-41.5844 Y12.4954 
G01 X-41.1974 Y12.4954 
G01 X-41.1974 Y12.9046 
G01 X-41.5844 Y12.9046 
G01 X-41.6399 Y12.9276 
G01 X-41.6824 Y12.9701 
G01 X-41.7054 Y13.0256 
G01 X-41.7054 Y14.9144 
G01 X-41.6824 Y14.9699 
G01 X-41.6399 Y15.0124 
G01 X-41.5844 Y15.0354 
G01 X-39.6956 Y15.0354 
G01 X-39.6401 Y15.0124 
G01 X-39.5976 Y14.9699 
G01 X-39.5746 Y14.9144 
G01 X-39.5746 Y13.0256 
G01 X-39.5976 Y12.9701 
G01 X-39.6401 Y12.9276 
G01 X-39.6956 Y12.9046 
G01 X-40.0826 Y12.9046 
G01 X-40.0826 Y12.4954 
G01 X-39.6956 Y12.4954 
G01 X-39.6401 Y12.4724 
G01 X-39.5976 Y12.4299 
G01 X-39.5746 Y12.3744 
G01 X-39.5746 Y10.4856 
G01 X-39.5976 Y10.4301 
G01 X-39.6401 Y10.3876 
G01 X-39.6956 Y10.3646 
G00 Z1.0000 
G00 X-37.1556 Y7.8246 
G01 Z-0.1500 F250.00 
G01 X-37.5426 Y7.8246 F250.00 
G01 X-37.5426 Y6.3105 
G01 X-36.9905 Y6.3105 
G01 X-36.9350 Y6.2875 
G01 X-36.8925 Y6.2450 
G01 X-36.8695 Y6.1895 
G01 X-36.8695 Y3.9705 
G01 X-36.8925 Y3.9150 
G01 X-36.9350 Y3.8725 
G01 X-36.9905 Y3.8495 
G01 X-39.2095 Y3.8495 
G01 X-39.2650 Y3.8725 
G01 X-39.3075 Y3.9150 
G01 X-39.3305 Y3.9705 
G01 X-39.3305 Y6.1895 
G01 X-39.3075 Y6.2450 
G01 X-39.2650 Y6.2875 
G01 X-39.2095 Y6.3105 
G01 X-38.6574 Y6.3105 
G01 X-38.6574 Y7.8246 
G01 X-39.0444 Y7.8246 
G01 X-39.0999 Y7.8476 
G01 X-39.1424 Y7.8901 
G01 X-39.1654 Y7.9456 
G01 X-39.1654 Y9.8344 
G01 X-39.1424 Y9.8899 
G01 X-39.0999 Y9.9324 
G01 X-39.0444 Y9.9554 
G01 X-37.1556 Y9.9554 
G01 X-37.1001 Y9.9324 
G01 X-37.0576 Y9.8899 
G01 X-37.0346 Y9.8344 
G01 X-37.0346 Y7.9456 
G01 X-37.0576 Y7.8901 
G01 X-37.1001 Y7.8476 
G01 X-37.1556 Y7.8246 
G00 Z1.0000 
G00 X-28.2656 Y10.3646 
G01 Z-0.1500 F250.00 
G01 X-30.1544 Y10.3646 F250.00 
G01 X-30.2099 Y10.3876 
G01 X-30.2524 Y10.4301 
G01 X-30.2754 Y10.4856 
G01 X-30.2754 Y12.3744 
G01 X-30.2524 Y12.4299 
G01 X-30.2099 Y12.4724 
G01 X-30.1544 Y12.4954 
G01 X-29.7674 Y12.4954 
G01 X-29.7674 Y12.9046 
G01 X-30.1544 Y12.9046 
G01 X-30.2099 Y12.9276 
G01 X-30.2524 Y12.9701 
G01 X-30.2754 Y13.0256 
G01 X-30.2754 Y14.9144 
G01 X-30.2524 Y14.9699 
G01 X-30.2099 Y15.0124 
G01 X-30.1544 Y15.0354 
G01 X-28.2656 Y15.0354 
G01 X-28.2101 Y15.0124 
G01 X-28.1676 Y14.9699 
G01 X-28.1446 Y14.9144 
G01 X-28.1446 Y13.0256 
G01 X-28.1676 Y12.9701 
G01 X-28.2101 Y12.9276 
G01 X-28.2656 Y12.9046 
G01 X-28.6526 Y12.9046 
G01 X-28.6526 Y12.4954 
G01 X-28.2656 Y12.4954 
G01 X-28.2101 Y12.4724 
G01 X-28.1676 Y12.4299 
G01 X-28.1446 Y12.3744 
G01 X-28.1446 Y10.4856 
G01 X-28.1676 Y10.4301 
G01 X-28.2101 Y10.3876 
G01 X-28.2656 Y10.3646 
G00 Z1.0000 
G00 X-25.7256 Y7.8246 
G01 Z-0.1500 F250.00 
G01 X-26.1126 Y7.8246 F250.00 
G01 X-26.1126 Y6.3105 
G01 X-25.5605 Y6.3105 
G01 X-25.5050 Y6.2875 
G01 X-25.4625 Y6.2450 
G01 X-25.4395 Y6.1895 
G01 X-25.4395 Y3.9705 
G01 X-25.4625 Y3.9150 
G01 X-25.5050 Y3.8725 
G01 X-25.5605 Y3.8495 
G01 X-27.7795 Y3.8495 
G01 X-27.8350 Y3.8725 
G01 X-27.8775 Y3.9150 
G01 X-27.9005 Y3.9705 
G01 X-27.9005 Y6.1895 
G01 X-27.8775 Y6.2450 
G01 X-27.8350 Y6.2875 
G01 X-27.7795 Y6.3105 
G01 X-27.2274 Y6.3105 
G01 X-27.2274 Y7.8246 
G01 X-27.6144 Y7.8246 
G01 X-27.6699 Y7.8476 
G01 X-27.7124 Y7.8901 
G01 X-27.7354 Y7.9456 
G01 X-27.7354 Y9.8344 
G01 X-27.7124 Y9.8899 
G01 X-27.6699 Y9.9324 
G01 X-27.6144 Y9.9554 
G01 X-25.7256 Y9.9554 
G01 X-25.6701 Y9.9324 
G01 X-25.6276 Y9.8899 
G01 X-25.6046 Y9.8344 
G01 X-25.6046 Y7.9456 
G01 X-25.6276 Y7.8901 
G01 X-25.6701 Y7.8476 
G01 X-25.7256 Y7.8246 
G00 Z1.0000 
G00 X-23.1856 Y10.3646 
G01 Z-0.1500 F250.00 
G01 X-25.0744 Y10.3646 F250.00 
G01 X-25.1299 Y10.3876 
G01 X-25.1724 Y10.4301 
G01 X-25.1954 Y10.4856 
G01 X-25.1954 Y12.3744 
G01 X-25.1724 Y12.4299 
G01 X-25.1299 Y12.4724 
G01 X-25.0744 Y12.4954 
G01 X-24.6874 Y12.4954 
G01 X-24.6874 Y12.9046 
G01 X-25.0744 Y12.9046 
G01 X-25.1299 Y12.9276 
G01 X-25.1724 Y12.9701 
G01 X-25.1954 Y13.0256 
G01 X-25.1954 Y14.9144 
G01 X-25.1724 Y14.9699 
G01 X-25.1299 Y15.0124 
G01 X-25.0744 Y15.0354 
G01 X-23.1856 Y15.0354 
G01 X-23.1301 Y15.0124 
G01 X-23.0876 Y14.9699 
G01 X-23.0646 Y14.9144 
G01 X-23.0646 Y13.0256 
G01 X-23.0876 Y12.9701 
G01 X-23.1301 Y12.9276 
G01 X-23.1856 Y12.9046 
G01 X-23.5726 Y12.9046 
G01 X-23.5726 Y12.4954 
G01 X-23.1856 Y12.4954 
G01 X-23.1301 Y12.4724 
G01 X-23.0876 Y12.4299 
G01 X-23.0646 Y12.3744 
G01 X-23.0646 Y10.4856 
G01 X-23.0876 Y10.4301 
G01 X-23.1301 Y10.3876 
G01 X-23.1856 Y10.3646 
G00 Z1.0000 
G00 X-18.1056 Y7.8246 
G01 Z-0.1500 F250.00 
G01 X-18.4926 Y7.8246 F250.00 
G01 X-18.4926 Y6.3105 
G01 X-17.9405 Y6.3105 
G01 X-17.8850 Y6.2875 
G01 X-17.8425 Y6.2450 
G01 X-17.8195 Y6.1895 
G01 X-17.8195 Y3.9705 
G01 X-17.8425 Y3.9150 
G01 X-17.8850 Y3.8725 
G01 X-17.9405 Y3.8495 
G01 X-20.1595 Y3.8495 
G01 X-20.2150 Y3.8725 
G01 X-20.2575 Y3.9150 
G01 X-20.2805 Y3.9705 
G01 X-20.2805 Y6.1895 
G01 X-20.2575 Y6.2450 
G01 X-20.2150 Y6.2875 
G01 X-20.1595 Y6.3105 
G01 X-19.6074 Y6.3105 
G01 X-19.6074 Y7.8246 
G01 X-19.9944 Y7.8246 
G01 X-20.0499 Y7.8476 
G01 X-20.0924 Y7.8901 
G01 X-20.1154 Y7.9456 
G01 X-20.1154 Y9.8344 
G01 X-20.0924 Y9.8899 
G01 X-20.0499 Y9.9324 
G01 X-19.9944 Y9.9554 
G01 X-18.1056 Y9.9554 
G01 X-18.0501 Y9.9324 
G01 X-18.0076 Y9.8899 
G01 X-17.9846 Y9.8344 
G01 X-17.9846 Y7.9456 
G01 X-18.0076 Y7.8901 
G01 X-18.0501 Y7.8476 
G01 X-18.1056 Y7.8246 
G00 Z1.0000 
G00 X-18.1056 Y10.3646 
G01 Z-0.1500 F250.00 
G01 X-19.9944 Y10.3646 F250.00 
G01 X-20.0499 Y10.3876 
G01 X-20.0924 Y10.4301 
G01 X-20.1154 Y10.4856 
G01 X-20.1154 Y12.3744 
G01 X-20.0924 Y12.4299 
G01 X-20.0499 Y12.4724 
G01 X-19.9944 Y12.4954 
G01 X-19.6074 Y12.4954 
G01 X-19.6074 Y12.9046 
G01 X-19.9944 Y12.9046 
G01 X-20.0499 Y12.9276 
G01 X-20.0924 Y12.9701 
G01 X-20.1154 Y13.0256 
G01 X-20.1154 Y14.9144 
G01 X-20.0924 Y14.9699 
G01 X-20.0499 Y15.0124 
G01 X-19.9944 Y15.0354 
G01 X-18.1056 Y15.0354 
G01 X-18.0501 Y15.0124 
G01 X-18.0076 Y14.9699 
G01 X-17.9846 Y14.9144 
G01 X-17.9846 Y13.0256 
G01 X-18.0076 Y12.9701 
G01 X-18.0501 Y12.9276 
G01 X-18.1056 Y12.9046 
G01 X-18.4926 Y12.9046 
G01 X-18.4926 Y12.4954 
G01 X-18.1056 Y12.4954 
G01 X-18.0501 Y12.4724 
G01 X-18.0076 Y12.4299 
G01 X-17.9846 Y12.3744 
G01 X-17.9846 Y10.4856 
G01 X-18.0076 Y10.4301 
G01 X-18.0501 Y10.3876 
G01 X-18.1056 Y10.3646 
G00 Z1.0000 
G00 X-15.5656 Y7.8246 
G01 Z-0.1500 F250.00 
G01 X-15.9526 Y7.8246 F250.00 
G01 X-15.9526 Y6.3105 
G01 X-15.4005 Y6.3105 
G01 X-15.3450 Y6.2875 
G01 X-15.3025 Y6.2450 
G01 X-15.2795 Y6.1895 
G01 X-15.2795 Y3.9705 
G01 X-15.3025 Y3.9150 
G01 X-15.3450 Y3.8725 
G01 X-15.4005 Y3.8495 
G01 X-17.6195 Y3.8495 
G01 X-17.6750 Y3.8725 
G01 X-17.7175 Y3.9150 
G01 X-17.7405 Y3.9705 
G01 X-17.7405 Y6.1895 
G01 X-17.7175 Y6.2450 
G01 X-17.6750 Y6.2875 
G01 X-17.6195 Y6.3105 
G01 X-17.0674 Y6.3105 
G01 X-17.0674 Y7.8246 
G01 X-17.4544 Y7.8246 
G01 X-17.5099 Y7.8476 
G01 X-17.5524 Y7.8901 
G01 X-17.5754 Y7.9456 
G01 X-17.5754 Y9.8344 
G01 X-17.5524 Y9.8899 
G01 X-17.5099 Y9.9324 
G01 X-17.4544 Y9.9554 
G01 X-15.5656 Y9.9554 
G01 X-15.5101 Y9.9324 
G01 X-15.4676 Y9.8899 
G01 X-15.4446 Y9.8344 
G01 X-15.4446 Y7.9456 
G01 X-15.4676 Y7.8901 
G01 X-15.5101 Y7.8476 
G01 X-15.5656 Y7.8246 
G00 Z1.0000 
G00 X-13.0256 Y10.3646 
G01 Z-0.1500 F250.00 
G01 X-14.9144 Y10.3646 F250.00 
G01 X-14.9699 Y10.3876 
G01 X-15.0124 Y10.4301 
G01 X-15.0354 Y10.4856 
G01 X-15.0354 Y12.3744 
G01 X-15.0124 Y12.4299 
G01 X-14.9699 Y12.4724 
G01 X-14.9144 Y12.4954 
G01 X-14.5274 Y12.4954 
G01 X-14.5274 Y12.9046 
G01 X-14.9144 Y12.9046 
G01 X-14.9699 Y12.9276 
G01 X-15.0124 Y12.9701 
G01 X-15.0354 Y13.0256 
G01 X-15.0354 Y14.9144 
G01 X-15.0124 Y14.9699 
G01 X-14.9699 Y15.0124 
G01 X-14.9144 Y15.0354 
G01 X-13.0256 Y15.0354 
G01 X-12.9701 Y15.0124 
G01 X-12.9276 Y14.9699 
G01 X-12.9046 Y14.9144 
G01 X-12.9046 Y13.0256 
G01 X-12.9276 Y12.9701 
G01 X-12.9701 Y12.9276 
G01 X-13.0256 Y12.9046 
G01 X-13.4126 Y12.9046 
G01 X-13.4126 Y12.4954 
G01 X-13.0256 Y12.4954 
G01 X-12.9701 Y12.4724 
G01 X-12.9276 Y12.4299 
G01 X-12.9046 Y12.3744 
G01 X-12.9046 Y10.4856 
G01 X-12.9276 Y10.4301 
G01 X-12.9701 Y10.3876 
G01 X-13.0256 Y10.3646 
G00 Z1.0000 
G00 X-10.4856 Y7.8246 
G01 Z-0.1500 F250.00 
G01 X-10.8726 Y7.8246 F250.00 
G01 X-10.8726 Y6.3105 
G01 X-10.3205 Y6.3105 
G01 X-10.2650 Y6.2875 
G01 X-10.2225 Y6.2450 
G01 X-10.1995 Y6.1895 
G01 X-10.1995 Y3.9705 
G01 X-10.2225 Y3.9150 
G01 X-10.2650 Y3.8725 
G01 X-10.3205 Y3.8495 
G01 X-12.5395 Y3.8495 
G01 X-12.5950 Y3.8725 
G01 X-12.6375 Y3.9150 
G01 X-12.6605 Y3.9705 
G01 X-12.6605 Y6.1895 
G01 X-12.6375 Y6.2450 
G01 X-12.5950 Y6.2875 
G01 X-12.5395 Y6.3105 
G01 X-11.9874 Y6.3105 
G01 X-11.9874 Y7.8246 
G01 X-12.3744 Y7.8246 
G01 X-12.4299 Y7.8476 
G01 X-12.4724 Y7.8901 
G01 X-12.4954 Y7.9456 
G01 X-12.4954 Y9.8344 
G01 X-12.4724 Y9.8899 
G01 X-12.4299 Y9.9324 
G01 X-12.3744 Y9.9554 
G01 X-10.4856 Y9.9554 
G01 X-10.4301 Y9.9324 
G01 X-10.3876 Y9.8899 
G01 X-10.3646 Y9.8344 
G01 X-10.3646 Y7.9456 
G01 X-10.3876 Y7.8901 
G01 X-10.4301 Y7.8476 
G01 X-10.4856 Y7.8246 
G00 Z1.0000 
G00 X-30.8056 Y35.7646 
G01 Z-0.1500 F250.00 
G01 X-32.6944 Y35.7646 F250.00 
G01 X-32.7499 Y35.7876 
G01 X-32.7924 Y35.8301 
G01 X-32.8154 Y35.8856 
G01 X-32.8154 Y37.7744 
G01 X-32.7924 Y37.8299 
G01 X-32.7499 Y37.8724 
G01 X-32.6944 Y37.8954 
G01 X-32.3074 Y37.8954 
G01 X-32.3074 Y41.9834 
G01 X-32.2694 Y42.1251 
G01 X-32.1960 Y42.2523 
G01 X-32.0922 Y42.3560 
G01 X-31.9651 Y42.4294 
G01 X-31.8234 Y42.4674 
G01 X-12.0742 Y42.4674 
G01 X-12.0612 Y42.4987 
G01 X-12.0187 Y42.5412 
G01 X-11.9874 Y42.5542 
G01 X-11.9874 Y47.1946 
G01 X-12.3744 Y47.1946 
G01 X-12.4299 Y47.2176 
G01 X-12.4724 Y47.2601 
G01 X-12.4954 Y47.3156 
G01 X-12.4954 Y49.2044 
G01 X-12.4724 Y49.2599 
G01 X-12.4299 Y49.3024 
G01 X-12.3744 Y49.3254 
G01 X-10.4856 Y49.3254 
G01 X-10.4301 Y49.3024 
G01 X-10.3876 Y49.2599 
G01 X-10.3646 Y49.2044 
G01 X-10.3646 Y47.3156 
G01 X-10.3876 Y47.2601 
G01 X-10.4301 Y47.2176 
G01 X-10.4856 Y47.1946 
G01 X-10.8726 Y47.1946 
G01 X-10.8726 Y42.5542 
G01 X-10.8413 Y42.5412 
G01 X-10.7988 Y42.4987 
G01 X-10.7758 Y42.4432 
G01 X-10.7758 Y41.3768 
G01 X-10.7988 Y41.3213 
G01 X-10.8413 Y41.2788 
G01 X-10.8968 Y41.2558 
G01 X-11.9632 Y41.2558 
G01 X-12.0187 Y41.2788 
G01 X-12.0612 Y41.3213 
G01 X-12.0742 Y41.3526 
G01 X-31.1926 Y41.3526 
G01 X-31.1926 Y37.8954 
G01 X-30.8056 Y37.8954 
G01 X-30.7501 Y37.8724 
G01 X-30.7076 Y37.8299 
G01 X-30.6846 Y37.7744 
G01 X-30.6846 Y35.8856 
G01 X-30.7076 Y35.8301 
G01 X-30.7501 Y35.7876 
G01 X-30.8056 Y35.7646 
G00 Z1.0000 
G00 X-28.2656 Y35.7646 
G01 Z-0.1500 F250.00 
G01 X-28.6526 Y35.7646 F250.00 
G01 X-28.6526 Y34.2166 
G01 X-28.6906 Y34.0749 
G01 X-28.7640 Y33.9477 
G01 X-28.8677 Y33.8440 
G01 X-28.9949 Y33.7706 
G01 X-29.1366 Y33.7326 
G01 X-34.3634 Y33.7326 
G01 X-34.5051 Y33.7706 
G01 X-34.6322 Y33.8440 
G01 X-34.7360 Y33.9477 
G01 X-34.8094 Y34.0749 
G01 X-34.8474 Y34.2166 
G01 X-34.8474 Y45.9246 
G01 X-35.2344 Y45.9246 
G01 X-35.2899 Y45.9476 
G01 X-35.3324 Y45.9901 
G01 X-35.3554 Y46.0456 
G01 X-35.3554 Y47.9344 
G01 X-35.3324 Y47.9899 
G01 X-35.2899 Y48.0324 
G01 X-35.2344 Y48.0554 
G01 X-33.3456 Y48.0554 
G01 X-33.2901 Y48.0324 
G01 X-33.2476 Y47.9899 
G01 X-33.2246 Y47.9344 
G01 X-33.2246 Y46.0456 
G01 X-33.2476 Y45.9901 
G01 X-33.2901 Y45.9476 
G01 X-33.3456 Y45.9246 
G01 X-33.7326 Y45.9246 
G01 X-33.7326 Y34.8474 
G01 X-29.7674 Y34.8474 
G01 X-29.7674 Y35.7646 
G01 X-30.1544 Y35.7646 
G01 X-30.2099 Y35.7876 
G01 X-30.2524 Y35.8301 
G01 X-30.2754 Y35.8856 
G01 X-30.2754 Y37.7744 
G01 X-30.2524 Y37.8299 
G01 X-30.2099 Y37.8724 
G01 X-30.1544 Y37.8954 
G01 X-28.2656 Y37.8954 
G01 X-28.2101 Y37.8724 
G01 X-28.1676 Y37.8299 
G01 X-28.1446 Y37.7744 
G01 X-28.1446 Y35.8856 
G01 X-28.1676 Y35.8301 
G01 X-28.2101 Y35.7876 
G01 X-28.2656 Y35.7646 
G00 Z1.0000 
G00 X-25.7256 Y35.7646 
G01 Z-0.1500 F250.00 
G01 X-26.1126 Y35.7646 F250.00 
G01 X-26.1126 Y32.9466 
G01 X-26.1506 Y32.8049 
G01 X-26.2240 Y32.6777 
G01 X-26.3277 Y32.5740 
G01 X-26.4549 Y32.5006 
G01 X-26.5966 Y32.4626 
G01 X-40.7134 Y32.4626 
G01 X-40.8551 Y32.5006 
G01 X-40.9823 Y32.5740 
G01 X-41.0860 Y32.6777 
G01 X-41.1594 Y32.8049 
G01 X-41.1974 Y32.9466 
G01 X-41.1974 Y35.7646 
G01 X-41.5844 Y35.7646 
G01 X-41.6399 Y35.7876 
G01 X-41.6824 Y35.8301 
G01 X-41.7054 Y35.8856 
G01 X-41.7054 Y37.7744 
G01 X-41.6824 Y37.8299 
G01 X-41.6399 Y37.8724 
G01 X-41.5844 Y37.8954 
G01 X-39.6956 Y37.8954 
G01 X-39.6401 Y37.8724 
G01 X-39.5976 Y37.8299 
G01 X-39.5746 Y37.7744 
G01 X-39.5746 Y35.8856 
G01 X-39.5976 Y35.8301 
G01 X-39.6401 Y35.7876 
G01 X-39.6956 Y35.7646 
G01 X-40.0826 Y35.7646 
G01 X-40.0826 Y33.5774 
G01 X-27.2274 Y33.5774 
G01 X-27.2274 Y35.7646 
G01 X-27.6144 Y35.7646 
G01 X-27.6699 Y35.7876 
G01 X-27.7124 Y35.8301 
G01 X-27.7354 Y35.8856 
G01 X-27.7354 Y37.7744 
G01 X-27.7124 Y37.8299 
G01 X-27.6699 Y37.8724 
G01 X-27.6144 Y37.8954 
G01 X-25.7256 Y37.8954 
G01 X-25.6701 Y37.8724 
G01 X-25.6276 Y37.8299 
G01 X-25.6046 Y37.7744 
G01 X-25.6046 Y35.8856 
G01 X-25.6276 Y35.8301 
G01 X-25.6701 Y35.7876 
G01 X-25.7256 Y35.7646 
G00 Z1.0000 
G00 X-20.6456 Y35.7646 
G01 Z-0.1500 F250.00 
G01 X-21.0326 Y35.7646 F250.00 
G01 X-21.0326 Y34.9342 
G01 X-21.0013 Y34.9212 
G01 X-20.9588 Y34.8787 
G01 X-20.9358 Y34.8232 
G01 X-20.9358 Y33.7568 
G01 X-20.9588 Y33.7013 
G01 X-21.0013 Y33.6588 
G01 X-21.0568 Y33.6358 
G01 X-22.1232 Y33.6358 
G01 X-22.1787 Y33.6588 
G01 X-22.2212 Y33.7013 
G01 X-22.2442 Y33.7568 
G01 X-22.2442 Y34.8232 
G01 X-22.2212 Y34.8787 
G01 X-22.1787 Y34.9212 
G01 X-22.1474 Y34.9342 
G01 X-22.1474 Y35.7646 
G01 X-22.5344 Y35.7646 
G01 X-22.5899 Y35.7876 
G01 X-22.6324 Y35.8301 
G01 X-22.6554 Y35.8856 
G01 X-22.6554 Y37.7744 
G01 X-22.6324 Y37.8299 
G01 X-22.5899 Y37.8724 
G01 X-22.5344 Y37.8954 
G01 X-20.6456 Y37.8954 
G01 X-20.5901 Y37.8724 
G01 X-20.5476 Y37.8299 
G01 X-20.5246 Y37.7744 
G01 X-20.5246 Y35.8856 
G01 X-20.5476 Y35.8301 
G01 X-20.5901 Y35.7876 
G01 X-20.6456 Y35.7646 
G00 Z1.0000 
G00 X-13.0256 Y35.7646 
G01 Z-0.1500 F250.00 
G01 X-14.9144 Y35.7646 F250.00 
G01 X-14.9699 Y35.7876 
G01 X-15.0124 Y35.8301 
G01 X-15.0354 Y35.8856 
G01 X-15.0354 Y37.7744 
G01 X-15.0124 Y37.8299 
G01 X-14.9699 Y37.8724 
G01 X-14.9144 Y37.8954 
G01 X-13.0256 Y37.8954 
G01 X-12.9701 Y37.8724 
G01 X-12.9276 Y37.8299 
G01 X-12.9046 Y37.7744 
G01 X-12.9046 Y35.8856 
G01 X-12.9276 Y35.8301 
G01 X-12.9701 Y35.7876 
G01 X-13.0256 Y35.7646 
G00 Z1.0000 
G00 X-18.1056 Y43.3846 
G01 Z-0.1500 F250.00 
G01 X-19.9944 Y43.3846 F250.00 
G01 X-20.0499 Y43.4076 
G01 X-20.0924 Y43.4501 
G01 X-20.1154 Y43.5056 
G01 X-20.1154 Y45.3944 
G01 X-20.0924 Y45.4499 
G01 X-20.0499 Y45.4924 
G01 X-19.9944 Y45.5154 
G01 X-19.6074 Y45.5154 
G01 X-19.6074 Y45.9246 
G01 X-19.9944 Y45.9246 
G01 X-20.0499 Y45.9476 
G01 X-20.0924 Y45.9901 
G01 X-20.1154 Y46.0456 
G01 X-20.1154 Y47.9344 
G01 X-20.0924 Y47.9899 
G01 X-20.0499 Y48.0324 
G01 X-19.9944 Y48.0554 
G01 X-18.1056 Y48.0554 
G01 X-18.0501 Y48.0324 
G01 X-18.0076 Y47.9899 
G01 X-17.9846 Y47.9344 
G01 X-17.9846 Y46.0456 
G01 X-18.0076 Y45.9901 
G01 X-18.0501 Y45.9476 
G01 X-18.1056 Y45.9246 
G01 X-18.4926 Y45.9246 
G01 X-18.4926 Y45.5154 
G01 X-18.1056 Y45.5154 
G01 X-18.0501 Y45.4924 
G01 X-18.0076 Y45.4499 
G01 X-17.9846 Y45.3944 
G01 X-17.9846 Y43.5056 
G01 X-18.0076 Y43.4501 
G01 X-18.0501 Y43.4076 
G01 X-18.1056 Y43.3846 
G00 Z1.0000 
G00 X-23.1856 Y43.3846 
G01 Z-0.1500 F250.00 
G01 X-25.0744 Y43.3846 F250.00 
G01 X-25.1299 Y43.4076 
G01 X-25.1724 Y43.4501 
G01 X-25.1954 Y43.5056 
G01 X-25.1954 Y45.3944 
G01 X-25.1724 Y45.4499 
G01 X-25.1299 Y45.4924 
G01 X-25.0744 Y45.5154 
G01 X-24.6874 Y45.5154 
G01 X-24.6874 Y45.9246 
G01 X-25.0744 Y45.9246 
G01 X-25.1299 Y45.9476 
G01 X-25.1724 Y45.9901 
G01 X-25.1954 Y46.0456 
G01 X-25.1954 Y47.9344 
G01 X-25.1724 Y47.9899 
G01 X-25.1299 Y48.0324 
G01 X-25.0744 Y48.0554 
G01 X-23.1856 Y48.0554 
G01 X-23.1301 Y48.0324 
G01 X-23.0876 Y47.9899 
G01 X-23.0646 Y47.9344 
G01 X-23.0646 Y46.0456 
G01 X-23.0876 Y45.9901 
G01 X-23.1301 Y45.9476 
G01 X-23.1856 Y45.9246 
G01 X-23.5726 Y45.9246 
G01 X-23.5726 Y45.5154 
G01 X-23.1856 Y45.5154 
G01 X-23.1301 Y45.4924 
G01 X-23.0876 Y45.4499 
G01 X-23.0646 Y45.3944 
G01 X-23.0646 Y43.5056 
G01 X-23.0876 Y43.4501 
G01 X-23.1301 Y43.4076 
G01 X-23.1856 Y43.3846 
G00 Z1.0000 
G00 X-13.0256 Y43.3846 
G01 Z-0.1500 F250.00 
G01 X-14.9144 Y43.3846 F250.00 
G01 X-14.9699 Y43.4076 
G01 X-15.0124 Y43.4501 
G01 X-15.0354 Y43.5056 
G01 X-15.0354 Y45.3944 
G01 X-15.0124 Y45.4499 
G01 X-14.9699 Y45.4924 
G01 X-14.9144 Y45.5154 
G01 X-14.5274 Y45.5154 
G01 X-14.5274 Y47.1946 
G01 X-14.9144 Y47.1946 
G01 X-14.9699 Y47.2176 
G01 X-15.0124 Y47.2601 
G01 X-15.0354 Y47.3156 
G01 X-15.0354 Y49.2044 
G01 X-15.0124 Y49.2599 
G01 X-14.9699 Y49.3024 
G01 X-14.9144 Y49.3254 
G01 X-14.5274 Y49.3254 
G01 X-14.5274 Y56.5926 
G01 X-36.2726 Y56.5926 
G01 X-36.2726 Y39.2966 
G01 X-36.3106 Y39.1549 
G01 X-36.3840 Y39.0277 
G01 X-36.4877 Y38.9240 
G01 X-36.6149 Y38.8506 
G01 X-36.7566 Y38.8126 
G01 X-50.2426 Y38.8126 
G01 X-50.2426 Y37.8954 
G01 X-49.8556 Y37.8954 
G01 X-49.8001 Y37.8724 
G01 X-49.7576 Y37.8299 
G01 X-49.7346 Y37.7744 
G01 X-49.7346 Y35.8856 
G01 X-49.7576 Y35.8301 
G01 X-49.8001 Y35.7876 
G01 X-49.8556 Y35.7646 
G01 X-51.7444 Y35.7646 
G01 X-51.7999 Y35.7876 
G01 X-51.8424 Y35.8301 
G01 X-51.8654 Y35.8856 
G01 X-51.8654 Y37.7744 
G01 X-51.8424 Y37.8299 
G01 X-51.7999 Y37.8724 
G01 X-51.7444 Y37.8954 
G01 X-51.3574 Y37.8954 
G01 X-51.3574 Y39.4434 
G01 X-51.3194 Y39.5851 
G01 X-51.2460 Y39.7123 
G01 X-51.1423 Y39.8160 
G01 X-51.0151 Y39.8894 
G01 X-50.8734 Y39.9274 
G01 X-37.3874 Y39.9274 
G01 X-37.3874 Y47.1946 
G01 X-37.5426 Y47.1946 
G01 X-37.5426 Y42.5542 
G01 X-37.5113 Y42.5412 
G01 X-37.4688 Y42.4987 
G01 X-37.4458 Y42.4432 
G01 X-37.4458 Y41.3768 
G01 X-37.4688 Y41.3213 
G01 X-37.5113 Y41.2788 
G01 X-37.5668 Y41.2558 
G01 X-38.6332 Y41.2558 
G01 X-38.6887 Y41.2788 
G01 X-38.7312 Y41.3213 
G01 X-38.7442 Y41.3526 
G01 X-57.8626 Y41.3526 
G01 X-57.8626 Y37.8954 
G01 X-57.4756 Y37.8954 
G01 X-57.4201 Y37.8724 
G01 X-57.3776 Y37.8299 
G01 X-57.3546 Y37.7744 
G01 X-57.3546 Y35.8856 
G01 X-57.3776 Y35.8301 
G01 X-57.4201 Y35.7876 
G01 X-57.4756 Y35.7646 
G01 X-59.3644 Y35.7646 
G01 X-59.4199 Y35.7876 
G01 X-59.4624 Y35.8301 
G01 X-59.4854 Y35.8856 
G01 X-59.4854 Y37.7744 
G01 X-59.4624 Y37.8299 
G01 X-59.4199 Y37.8724 
G01 X-59.3644 Y37.8954 
G01 X-58.9774 Y37.8954 
G01 X-58.9774 Y41.9834 
G01 X-58.9394 Y42.1251 
G01 X-58.8660 Y42.2523 
G01 X-58.7623 Y42.3560 
G01 X-58.6351 Y42.4294 
G01 X-58.4934 Y42.4674 
G01 X-38.7442 Y42.4674 
G01 X-38.7312 Y42.4987 
G01 X-38.6887 Y42.5412 
G01 X-38.6574 Y42.5542 
G01 X-38.6574 Y47.1946 
G01 X-39.0444 Y47.1946 
G01 X-39.0999 Y47.2176 
G01 X-39.1424 Y47.2601 
G01 X-39.1654 Y47.3156 
G01 X-39.1654 Y49.2044 
G01 X-39.1424 Y49.2599 
G01 X-39.0999 Y49.3024 
G01 X-39.0444 Y49.3254 
G01 X-37.3874 Y49.3254 
G01 X-37.3874 Y56.5926 
G01 X-40.0826 Y56.5926 
G01 X-40.0826 Y49.3254 
G01 X-39.6956 Y49.3254 
G01 X-39.6401 Y49.3024 
G01 X-39.5976 Y49.2599 
G01 X-39.5746 Y49.2044 
G01 X-39.5746 Y47.3156 
G01 X-39.5976 Y47.2601 
G01 X-39.6401 Y47.2176 
G01 X-39.6956 Y47.1946 
G01 X-40.0826 Y47.1946 
G01 X-40.0826 Y45.5154 
G01 X-39.6956 Y45.5154 
G01 X-39.6401 Y45.4924 
G01 X-39.5976 Y45.4499 
G01 X-39.5746 Y45.3944 
G01 X-39.5746 Y43.5056 
G01 X-39.5976 Y43.4501 
G01 X-39.6401 Y43.4076 
G01 X-39.6956 Y43.3846 
G01 X-41.5844 Y43.3846 
G01 X-41.6399 Y43.4076 
G01 X-41.6824 Y43.4501 
G01 X-41.7054 Y43.5056 
G01 X-41.7054 Y45.3944 
G01 X-41.6824 Y45.4499 
G01 X-41.6399 Y45.4924 
G01 X-41.5844 Y45.5154 
G01 X-41.1974 Y45.5154 
G01 X-41.1974 Y47.1946 
G01 X-41.5844 Y47.1946 
G01 X-41.6399 Y47.2176 
G01 X-41.6824 Y47.2601 
G01 X-41.7054 Y47.3156 
G01 X-41.7054 Y49.2044 
G01 X-41.6824 Y49.2599 
G01 X-41.6399 Y49.3024 
G01 X-41.5844 Y49.3254 
G01 X-41.1974 Y49.3254 
G01 X-41.1974 Y56.5926 
G01 X-62.9426 Y56.5926 
G01 X-62.9426 Y39.2966 
G01 X-62.9806 Y39.1549 
G01 X-63.0540 Y39.0277 
G01 X-63.1577 Y38.9240 
G01 X-63.2849 Y38.8506 
G01 X-63.4266 Y38.8126 
G01 X-76.9126 Y38.8126 
G01 X-76.9126 Y37.8954 
G01 X-76.5256 Y37.8954 
G01 X-76.4701 Y37.8724 
G01 X-76.4276 Y37.8299 
G01 X-76.4046 Y37.7744 
G01 X-76.4046 Y35.8856 
G01 X-76.4276 Y35.8301 
G01 X-76.4701 Y35.7876 
G01 X-76.5256 Y35.7646 
G01 X-78.4144 Y35.7646 
G01 X-78.4699 Y35.7876 
G01 X-78.5124 Y35.8301 
G01 X-78.5354 Y35.8856 
G01 X-78.5354 Y37.7744 
G01 X-78.5124 Y37.8299 
G01 X-78.4699 Y37.8724 
G01 X-78.4144 Y37.8954 
G01 X-78.0274 Y37.8954 
G01 X-78.0274 Y39.4434 
G01 X-77.9894 Y39.5851 
G01 X-77.9160 Y39.7123 
G01 X-77.8123 Y39.8160 
G01 X-77.6851 Y39.8894 
G01 X-77.5434 Y39.9274 
G01 X-64.0574 Y39.9274 
G01 X-64.0574 Y47.1946 
G01 X-64.2126 Y47.1946 
G01 X-64.2126 Y42.5542 
G01 X-64.1813 Y42.5412 
G01 X-64.1388 Y42.4987 
G01 X-64.1158 Y42.4432 
G01 X-64.1158 Y41.3768 
G01 X-64.1388 Y41.3213 
G01 X-64.1813 Y41.2788 
G01 X-64.2368 Y41.2558 
G01 X-65.3032 Y41.2558 
G01 X-65.3587 Y41.2788 
G01 X-65.4012 Y41.3213 
G01 X-65.4142 Y41.3526 
G01 X-84.5326 Y41.3526 
G01 X-84.5326 Y37.8954 
G01 X-84.1456 Y37.8954 
G01 X-84.0901 Y37.8724 
G01 X-84.0476 Y37.8299 
G01 X-84.0246 Y37.7744 
G01 X-84.0246 Y35.8856 
G01 X-84.0476 Y35.8301 
G01 X-84.0901 Y35.7876 
G01 X-84.1456 Y35.7646 
G01 X-86.0344 Y35.7646 
G01 X-86.0899 Y35.7876 
G01 X-86.1324 Y35.8301 
G01 X-86.1554 Y35.8856 
G01 X-86.1554 Y37.7744 
G01 X-86.1324 Y37.8299 
G01 X-86.0899 Y37.8724 
G01 X-86.0344 Y37.8954 
G01 X-85.6474 Y37.8954 
G01 X-85.6474 Y41.9834 
G01 X-85.6094 Y42.1251 
G01 X-85.5360 Y42.2523 
G01 X-85.4323 Y42.3560 
G01 X-85.3051 Y42.4294 
G01 X-85.1634 Y42.4674 
G01 X-65.4142 Y42.4674 
G01 X-65.4012 Y42.4987 
G01 X-65.3587 Y42.5412 
G01 X-65.3274 Y42.5542 
G01 X-65.3274 Y47.1946 
G01 X-65.7144 Y47.1946 
G01 X-65.7699 Y47.2176 
G01 X-65.8124 Y47.2601 
G01 X-65.8354 Y47.3156 
G01 X-65.8354 Y49.2044 
G01 X-65.8124 Y49.2599 
G01 X-65.7699 Y49.3024 
G01 X-65.7144 Y49.3254 
G01 X-64.0574 Y49.3254 
G01 X-64.0574 Y56.5926 
G01 X-66.7526 Y56.5926 
G01 X-66.7526 Y49.3254 
G01 X-66.3656 Y49.3254 
G01 X-66.3101 Y49.3024 
G01 X-66.2676 Y49.2599 
G01 X-66.2446 Y49.2044 
G01 X-66.2446 Y47.3156 
G01 X-66.2676 Y47.2601 
G01 X-66.3101 Y47.2176 
G01 X-66.3656 Y47.1946 
G01 X-66.7526 Y47.1946 
G01 X-66.7526 Y45.5154 
G01 X-66.3656 Y45.5154 
G01 X-66.3101 Y45.4924 
G01 X-66.2676 Y45.4499 
G01 X-66.2446 Y45.3944 
G01 X-66.2446 Y43.5056 
G01 X-66.2676 Y43.4501 
G01 X-66.3101 Y43.4076 
G01 X-66.3656 Y43.3846 
G01 X-68.2544 Y43.3846 
G01 X-68.3099 Y43.4076 
G01 X-68.3524 Y43.4501 
G01 X-68.3754 Y43.5056 
G01 X-68.3754 Y45.3944 
G01 X-68.3524 Y45.4499 
G01 X-68.3099 Y45.4924 
G01 X-68.2544 Y45.5154 
G01 X-67.8674 Y45.5154 
G01 X-67.8674 Y47.1946 
G01 X-68.2544 Y47.1946 
G01 X-68.3099 Y47.2176 
G01 X-68.3524 Y47.2601 
G01 X-68.3754 Y47.3156 
G01 X-68.3754 Y49.2044 
G01 X-68.3524 Y49.2599 
G01 X-68.3099 Y49.3024 
G01 X-68.2544 Y49.3254 
G01 X-67.8674 Y49.3254 
G01 X-67.8674 Y56.5926 
G01 X-90.8826 Y56.5926 
G01 X-90.8826 Y19.6074 
G01 X-75.4874 Y19.6074 
G01 X-75.4874 Y20.5246 
G01 X-75.8744 Y20.5246 
G01 X-75.9299 Y20.5476 
G01 X-75.9724 Y20.5901 
G01 X-75.9954 Y20.6456 
G01 X-75.9954 Y22.5344 
G01 X-75.9724 Y22.5899 
G01 X-75.9299 Y22.6324 
G01 X-75.8744 Y22.6554 
G01 X-73.9856 Y22.6554 
G01 X-73.9301 Y22.6324 
G01 X-73.8876 Y22.5899 
G01 X-73.8646 Y22.5344 
G01 X-73.8646 Y20.6456 
G01 X-73.8876 Y20.5901 
G01 X-73.9301 Y20.5476 
G01 X-73.9856 Y20.5246 
G01 X-74.3726 Y20.5246 
G01 X-74.3726 Y18.9766 
G01 X-74.4106 Y18.8348 
G01 X-74.4840 Y18.7077 
G01 X-74.5877 Y18.6040 
G01 X-74.7148 Y18.5306 
G01 X-74.8566 Y18.4926 
G01 X-90.8826 Y18.4926 
G01 X-90.8826 Y3.0974 
G01 X-85.6474 Y3.0974 
G01 X-85.6474 Y9.0946 
G01 X-86.0344 Y9.0946 
G01 X-86.0899 Y9.1176 
G01 X-86.1324 Y9.1601 
G01 X-86.1554 Y9.2156 
G01 X-86.1554 Y11.1044 
G01 X-86.1324 Y11.1599 
G01 X-86.0899 Y11.2024 
G01 X-86.0344 Y11.2254 
G01 X-85.6474 Y11.2254 
G01 X-85.6474 Y12.9046 
G01 X-86.0344 Y12.9046 
G01 X-86.0899 Y12.9276 
G01 X-86.1324 Y12.9701 
G01 X-86.1554 Y13.0256 
G01 X-86.1554 Y14.9144 
G01 X-86.1324 Y14.9699 
G01 X-86.0899 Y15.0124 
G01 X-86.0344 Y15.0354 
G01 X-84.1456 Y15.0354 
G01 X-84.0901 Y15.0124 
G01 X-84.0476 Y14.9699 
G01 X-84.0246 Y14.9144 
G01 X-84.0246 Y13.0256 
G01 X-84.0476 Y12.9701 
G01 X-84.0901 Y12.9276 
G01 X-84.1456 Y12.9046 
G01 X-84.5326 Y12.9046 
G01 X-84.5326 Y11.2254 
G01 X-84.1456 Y11.2254 
G01 X-84.0901 Y11.2024 
G01 X-84.0476 Y11.1599 
G01 X-84.0246 Y11.1044 
G01 X-84.0246 Y9.2156 
G01 X-84.0476 Y9.1601 
G01 X-84.0901 Y9.1176 
G01 X-84.1456 Y9.0946 
G01 X-84.5326 Y9.0946 
G01 X-84.5326 Y3.0974 
G01 X-62.7874 Y3.0974 
G01 X-62.7874 Y19.1234 
G01 X-62.7494 Y19.2651 
G01 X-62.6760 Y19.3923 
G01 X-62.5723 Y19.4960 
G01 X-62.4451 Y19.5694 
G01 X-62.3034 Y19.6074 
G01 X-48.8174 Y19.6074 
G01 X-48.8174 Y20.5246 
G01 X-49.2044 Y20.5246 
G01 X-49.2599 Y20.5476 
G01 X-49.3024 Y20.5901 
G01 X-49.3254 Y20.6456 
G01 X-49.3254 Y22.5344 
G01 X-49.3024 Y22.5899 
G01 X-49.2599 Y22.6324 
G01 X-49.2044 Y22.6554 
G01 X-47.3156 Y22.6554 
G01 X-47.2601 Y22.6324 
G01 X-47.2176 Y22.5899 
G01 X-47.1946 Y22.5344 
G01 X-47.1946 Y20.6456 
G01 X-47.2176 Y20.5901 
G01 X-47.2601 Y20.5476 
G01 X-47.3156 Y20.5246 
G01 X-47.7026 Y20.5246 
G01 X-47.7026 Y18.9766 
G01 X-47.7406 Y18.8348 
G01 X-47.8140 Y18.7077 
G01 X-47.9177 Y18.6040 
G01 X-48.0449 Y18.5306 
G01 X-48.1866 Y18.4926 
G01 X-61.6726 Y18.4926 
G01 X-61.6726 Y11.2254 
G01 X-61.5174 Y11.2254 
G01 X-61.5174 Y17.1358 
G01 X-61.5487 Y17.1488 
G01 X-61.5912 Y17.1913 
G01 X-61.6142 Y17.2468 
G01 X-61.6142 Y18.3132 
G01 X-61.5912 Y18.3687 
G01 X-61.5487 Y18.4112 
G01 X-61.4932 Y18.4342 
G01 X-60.4268 Y18.4342 
G01 X-60.3713 Y18.4112 
G01 X-60.3288 Y18.3687 
G01 X-60.3058 Y18.3132 
G01 X-60.3058 Y17.2468 
G01 X-60.3288 Y17.1913 
G01 X-60.3713 Y17.1488 
G01 X-60.4026 Y17.1358 
G01 X-60.4026 Y17.0674 
G01 X-41.1974 Y17.0674 
G01 X-41.1974 Y20.5246 
G01 X-41.5844 Y20.5246 
G01 X-41.6399 Y20.5476 
G01 X-41.6824 Y20.5901 
G01 X-41.7054 Y20.6456 
G01 X-41.7054 Y22.5344 
G01 X-41.6824 Y22.5899 
G01 X-41.6399 Y22.6324 
G01 X-41.5844 Y22.6554 
G01 X-39.6956 Y22.6554 
G01 X-39.6401 Y22.6324 
G01 X-39.5976 Y22.5899 
G01 X-39.5746 Y22.5344 
G01 X-39.5746 Y20.6456 
G01 X-39.5976 Y20.5901 
G01 X-39.6401 Y20.5476 
G01 X-39.6956 Y20.5246 
G01 X-40.0826 Y20.5246 
G01 X-40.0826 Y16.4366 
G01 X-40.1206 Y16.2949 
G01 X-40.1940 Y16.1677 
G01 X-40.2977 Y16.0640 
G01 X-40.4248 Y15.9906 
G01 X-40.5666 Y15.9526 
G01 X-60.4026 Y15.9526 
G01 X-60.4026 Y11.2254 
G01 X-60.0156 Y11.2254 
G01 X-59.9601 Y11.2024 
G01 X-59.9176 Y11.1599 
G01 X-59.8946 Y11.1044 
G01 X-59.8946 Y9.2156 
G01 X-59.9176 Y9.1601 
G01 X-59.9601 Y9.1176 
G01 X-60.0156 Y9.0946 
G01 X-61.6726 Y9.0946 
G01 X-61.6726 Y3.0974 
G01 X-58.9774 Y3.0974 
G01 X-58.9774 Y9.0946 
G01 X-59.3644 Y9.0946 
G01 X-59.4199 Y9.1176 
G01 X-59.4624 Y9.1601 
G01 X-59.4854 Y9.2156 
G01 X-59.4854 Y11.1044 
G01 X-59.4624 Y11.1599 
G01 X-59.4199 Y11.2024 
G01 X-59.3644 Y11.2254 
G01 X-58.9774 Y11.2254 
G01 X-58.9774 Y12.9046 
G01 X-59.3644 Y12.9046 
G01 X-59.4199 Y12.9276 
G01 X-59.4624 Y12.9701 
G01 X-59.4854 Y13.0256 
G01 X-59.4854 Y14.9144 
G01 X-59.4624 Y14.9699 
G01 X-59.4199 Y15.0124 
G01 X-59.3644 Y15.0354 
G01 X-57.4756 Y15.0354 
G01 X-57.4201 Y15.0124 
G01 X-57.3776 Y14.9699 
G01 X-57.3546 Y14.9144 
G01 X-57.3546 Y13.0256 
G01 X-57.3776 Y12.9701 
G01 X-57.4201 Y12.9276 
G01 X-57.4756 Y12.9046 
G01 X-57.8626 Y12.9046 
G01 X-57.8626 Y11.2254 
G01 X-57.4756 Y11.2254 
G01 X-57.4201 Y11.2024 
G01 X-57.3776 Y11.1599 
G01 X-57.3546 Y11.1044 
G01 X-57.3546 Y9.2156 
G01 X-57.3776 Y9.1601 
G01 X-57.4201 Y9.1176 
G01 X-57.4756 Y9.0946 
G01 X-57.8626 Y9.0946 
G01 X-57.8626 Y3.0974 
G01 X-36.1174 Y3.0974 
G01 X-36.1174 Y19.1234 
G01 X-36.0794 Y19.2651 
G01 X-36.0060 Y19.3923 
G01 X-35.9023 Y19.4960 
G01 X-35.7751 Y19.5694 
G01 X-35.6334 Y19.6074 
G01 X-22.1474 Y19.6074 
G01 X-22.1474 Y20.5246 
G01 X-22.5344 Y20.5246 
G01 X-22.5899 Y20.5476 
G01 X-22.6324 Y20.5901 
G01 X-22.6554 Y20.6456 
G01 X-22.6554 Y22.5344 
G01 X-22.6324 Y22.5899 
G01 X-22.5899 Y22.6324 
G01 X-22.5344 Y22.6554 
G01 X-20.6456 Y22.6554 
G01 X-20.5901 Y22.6324 
G01 X-20.5476 Y22.5899 
G01 X-20.5246 Y22.5344 
G01 X-20.5246 Y20.6456 
G01 X-20.5476 Y20.5901 
G01 X-20.5901 Y20.5476 
G01 X-20.6456 Y20.5246 
G01 X-21.0326 Y20.5246 
G01 X-21.0326 Y18.9766 
G01 X-21.0706 Y18.8348 
G01 X-21.1440 Y18.7077 
G01 X-21.2477 Y18.6040 
G01 X-21.3749 Y18.5306 
G01 X-21.5166 Y18.4926 
G01 X-35.0026 Y18.4926 
G01 X-35.0026 Y11.2254 
G01 X-34.8474 Y11.2254 
G01 X-34.8474 Y17.1358 
G01 X-34.8787 Y17.1488 
G01 X-34.9212 Y17.1913 
G01 X-34.9442 Y17.2468 
G01 X-34.9442 Y18.3132 
G01 X-34.9212 Y18.3687 
G01 X-34.8787 Y18.4112 
G01 X-34.8232 Y18.4342 
G01 X-33.7568 Y18.4342 
G01 X-33.7013 Y18.4112 
G01 X-33.6588 Y18.3687 
G01 X-33.6358 Y18.3132 
G01 X-33.6358 Y17.2468 
G01 X-33.6588 Y17.1913 
G01 X-33.7013 Y17.1488 
G01 X-33.7326 Y17.1358 
G01 X-33.7326 Y17.0674 
G01 X-14.5274 Y17.0674 
G01 X-14.5274 Y20.5246 
G01 X-14.9144 Y20.5246 
G01 X-14.9699 Y20.5476 
G01 X-15.0124 Y20.5901 
G01 X-15.0354 Y20.6456 
G01 X-15.0354 Y22.5344 
G01 X-15.0124 Y22.5899 
G01 X-14.9699 Y22.6324 
G01 X-14.9144 Y22.6554 
G01 X-13.0256 Y22.6554 
G01 X-12.9701 Y22.6324 
G01 X-12.9276 Y22.5899 
G01 X-12.9046 Y22.5344 
G01 X-12.9046 Y20.6456 
G01 X-12.9276 Y20.5901 
G01 X-12.9701 Y20.5476 
G01 X-13.0256 Y20.5246 
G01 X-13.4126 Y20.5246 
G01 X-13.4126 Y16.4366 
G01 X-13.4506 Y16.2949 
G01 X-13.5240 Y16.1677 
G01 X-13.6277 Y16.0640 
G01 X-13.7549 Y15.9906 
G01 X-13.8966 Y15.9526 
G01 X-33.7326 Y15.9526 
G01 X-33.7326 Y11.2254 
G01 X-33.3456 Y11.2254 
G01 X-33.2901 Y11.2024 
G01 X-33.2476 Y11.1599 
G01 X-33.2246 Y11.1044 
G01 X-33.2246 Y9.2156 
G01 X-33.2476 Y9.1601 
G01 X-33.2901 Y9.1176 
G01 X-33.3456 Y9.0946 
G01 X-35.0026 Y9.0946 
G01 X-35.0026 Y3.0974 
G01 X-32.3074 Y3.0974 
G01 X-32.3074 Y9.0946 
G01 X-32.6944 Y9.0946 
G01 X-32.7499 Y9.1176 
G01 X-32.7924 Y9.1601 
G01 X-32.8154 Y9.2156 
G01 X-32.8154 Y11.1044 
G01 X-32.7924 Y11.1599 
G01 X-32.7499 Y11.2024 
G01 X-32.6944 Y11.2254 
G01 X-32.3074 Y11.2254 
G01 X-32.3074 Y12.9046 
G01 X-32.6944 Y12.9046 
G01 X-32.7499 Y12.9276 
G01 X-32.7924 Y12.9701 
G01 X-32.8154 Y13.0256 
G01 X-32.8154 Y14.9144 
G01 X-32.7924 Y14.9699 
G01 X-32.7499 Y15.0124 
G01 X-32.6944 Y15.0354 
G01 X-30.8056 Y15.0354 
G01 X-30.7501 Y15.0124 
G01 X-30.7076 Y14.9699 
G01 X-30.6846 Y14.9144 
G01 X-30.6846 Y13.0256 
G01 X-30.7076 Y12.9701 
G01 X-30.7501 Y12.9276 
G01 X-30.8056 Y12.9046 
G01 X-31.1926 Y12.9046 
G01 X-31.1926 Y11.2254 
G01 X-30.8056 Y11.2254 
G01 X-30.7501 Y11.2024 
G01 X-30.7076 Y11.1599 
G01 X-30.6846 Y11.1044 
G01 X-30.6846 Y9.2156 
G01 X-30.7076 Y9.1601 
G01 X-30.7501 Y9.1176 
G01 X-30.8056 Y9.0946 
G01 X-31.1926 Y9.0946 
G01 X-31.1926 Y3.0974 
G01 X-9.4474 Y3.0974 
G01 X-9.4474 Y22.9334 
G01 X-9.4094 Y23.0751 
G01 X-9.3360 Y23.2022 
G01 X-9.2323 Y23.3060 
G01 X-9.1051 Y23.3794 
G01 X-8.9634 Y23.4174 
G01 X-8.8166 Y23.4174 
G01 X-8.6749 Y23.3794 
G01 X-8.5477 Y23.3060 
G01 X-8.4440 Y23.2022 
G01 X-8.3706 Y23.0751 
G01 X-8.3326 Y22.9334 
G01 X-8.3326 Y2.4666 
G01 X-8.3706 Y2.3249 
G01 X-8.4440 Y2.1977 
G01 X-8.5477 Y2.0940 
G01 X-8.6749 Y2.0206 
G01 X-8.8166 Y1.9826 
G01 X-91.5134 Y1.9826 
G01 X-91.6551 Y2.0206 
G01 X-91.7823 Y2.0940 
G01 X-91.8860 Y2.1977 
G01 X-91.9594 Y2.3249 
G01 X-91.9974 Y2.4666 
G01 X-91.9974 Y57.2234 
G01 X-91.9594 Y57.3651 
G01 X-91.8860 Y57.4923 
G01 X-91.7823 Y57.5960 
G01 X-91.6551 Y57.6694 
G01 X-91.5134 Y57.7074 
G01 X-8.8166 Y57.7074 
G01 X-8.6749 Y57.6694 
G01 X-8.5477 Y57.5960 
G01 X-8.4440 Y57.4923 
G01 X-8.3706 Y57.3651 
G01 X-8.3326 Y57.2234 
G01 X-8.3326 Y40.6005 
G01 X-7.7805 Y40.6005 
G01 X-7.7250 Y40.5775 
G01 X-7.6825 Y40.5350 
G01 X-7.6595 Y40.4795 
G01 X-7.6595 Y38.2605 
G01 X-7.6825 Y38.2050 
G01 X-7.7250 Y38.1625 
G01 X-7.7805 Y38.1395 
G01 X-9.9995 Y38.1395 
G01 X-10.0550 Y38.1625 
G01 X-10.0975 Y38.2050 
G01 X-10.1205 Y38.2605 
G01 X-10.1205 Y38.8126 
G01 X-23.5726 Y38.8126 
G01 X-23.5726 Y37.8954 
G01 X-23.1856 Y37.8954 
G01 X-23.1301 Y37.8724 
G01 X-23.0876 Y37.8299 
G01 X-23.0646 Y37.7744 
G01 X-23.0646 Y35.8856 
G01 X-23.0876 Y35.8301 
G01 X-23.1301 Y35.7876 
G01 X-23.1856 Y35.7646 
G01 X-25.0744 Y35.7646 
G01 X-25.1299 Y35.7876 
G01 X-25.1724 Y35.8301 
G01 X-25.1954 Y35.8856 
G01 X-25.1954 Y37.7744 
G01 X-25.1724 Y37.8299 
G01 X-25.1299 Y37.8724 
G01 X-25.0744 Y37.8954 
G01 X-24.6874 Y37.8954 
G01 X-24.6874 Y39.4434 
G01 X-24.6494 Y39.5851 
G01 X-24.5760 Y39.7123 
G01 X-24.4723 Y39.8160 
G01 X-24.3451 Y39.8894 
G01 X-24.2034 Y39.9274 
G01 X-10.1205 Y39.9274 
G01 X-10.1205 Y40.4795 
G01 X-10.0975 Y40.5350 
G01 X-10.0550 Y40.5775 
G01 X-9.9995 Y40.6005 
G01 X-9.4474 Y40.6005 
G01 X-9.4474 Y56.5926 
G01 X-13.4126 Y56.5926 
G01 X-13.4126 Y49.3254 
G01 X-13.0256 Y49.3254 
G01 X-12.9701 Y49.3024 
G01 X-12.9276 Y49.2599 
G01 X-12.9046 Y49.2044 
G01 X-12.9046 Y47.3156 
G01 X-12.9276 Y47.2601 
G01 X-12.9701 Y47.2176 
G01 X-13.0256 Y47.1946 
G01 X-13.4126 Y47.1946 
G01 X-13.4126 Y45.5154 
G01 X-13.0256 Y45.5154 
G01 X-12.9701 Y45.4924 
G01 X-12.9276 Y45.4499 
G01 X-12.9046 Y45.3944 
G01 X-12.9046 Y43.5056 
G01 X-12.9276 Y43.4501 
G01 X-12.9701 Y43.4076 
G01 X-13.0256 Y43.3846 
G00 Z1.0000 
G00 X-28.2656 Y43.3846 
G01 Z-0.1500 F250.00 
G01 X-30.1544 Y43.3846 F250.00 
G01 X-30.2099 Y43.4076 
G01 X-30.2524 Y43.4501 
G01 X-30.2754 Y43.5056 
G01 X-30.2754 Y45.3944 
G01 X-30.2524 Y45.4499 
G01 X-30.2099 Y45.4924 
G01 X-30.1544 Y45.5154 
G01 X-29.7674 Y45.5154 
G01 X-29.7674 Y45.9246 
G01 X-30.1544 Y45.9246 
G01 X-30.2099 Y45.9476 
G01 X-30.2524 Y45.9901 
G01 X-30.2754 Y46.0456 
G01 X-30.2754 Y47.9344 
G01 X-30.2524 Y47.9899 
G01 X-30.2099 Y48.0324 
G01 X-30.1544 Y48.0554 
G01 X-28.2656 Y48.0554 
G01 X-28.2101 Y48.0324 
G01 X-28.1676 Y47.9899 
G01 X-28.1446 Y47.9344 
G01 X-28.1446 Y46.0456 
G01 X-28.1676 Y45.9901 
G01 X-28.2101 Y45.9476 
G01 X-28.2656 Y45.9246 
G01 X-28.6526 Y45.9246 
G01 X-28.6526 Y45.5154 
G01 X-28.2656 Y45.5154 
G01 X-28.2101 Y45.4924 
G01 X-28.1676 Y45.4499 
G01 X-28.1446 Y45.3944 
G01 X-28.1446 Y43.5056 
G01 X-28.1676 Y43.4501 
G01 X-28.2101 Y43.4076 
G01 X-28.2656 Y43.3846 
G00 Z1.0000 
G00 X-54.9356 Y35.7646 
G01 Z-0.1500 F250.00 
G01 X-55.3226 Y35.7646 F250.00 
G01 X-55.3226 Y34.2166 
G01 X-55.3606 Y34.0749 
G01 X-55.4340 Y33.9477 
G01 X-55.5377 Y33.8440 
G01 X-55.6649 Y33.7706 
G01 X-55.8066 Y33.7326 
G01 X-61.0334 Y33.7326 
G01 X-61.1751 Y33.7706 
G01 X-61.3023 Y33.8440 
G01 X-61.4060 Y33.9477 
G01 X-61.4794 Y34.0749 
G01 X-61.5174 Y34.2166 
G01 X-61.5174 Y45.9246 
G01 X-61.9044 Y45.9246 
G01 X-61.9599 Y45.9476 
G01 X-62.0024 Y45.9901 
G01 X-62.0254 Y46.0456 
G01 X-62.0254 Y47.9344 
G01 X-62.0024 Y47.9899 
G01 X-61.9599 Y48.0324 
G01 X-61.9044 Y48.0554 
G01 X-60.0156 Y48.0554 
G01 X-59.9601 Y48.0324 
G01 X-59.9176 Y47.9899 
G01 X-59.8946 Y47.9344 
G01 X-59.8946 Y46.0456 
G01 X-59.9176 Y45.9901 
G01 X-59.9601 Y45.9476 
G01 X-60.0156 Y45.9246 
G01 X-60.4026 Y45.9246 
G01 X-60.4026 Y34.8474 
G01 X-56.4374 Y34.8474 
G01 X-56.4374 Y35.7646 
G01 X-56.8244 Y35.7646 
G01 X-56.8799 Y35.7876 
G01 X-56.9224 Y35.8301 
G01 X-56.9454 Y35.8856 
G01 X-56.9454 Y37.7744 
