(.../pcb-gcode-3.6.0.4/pcb-gcode.ulp)
(Copyright 2005 - 2012 by John Johnson)
(See readme.txt for licensing terms.)
(This file generated from the board:)
(/home/mst/NC/eagle/shifter2.brd)
(Current profile is .../pcb-gcode-3.6.0.4/profiles/emc.pp  )
(This file generated 25.06.13 01:04)
(Settings from pcb-machine.h)
(  Tool Size)
(0.3000 )
(Z Axis Settings)
(  High     Up        Down     Drill)
(1.0000 	1.0000 	-0.1700 	-0.2000 )
(spindle on time = 0.0000)
(milling depth = -0.1700)
(text depth = -0.1270)
(tool change at 12.7000 15.2400 25.4000 )
(feed rate xy = F250.00 )
(feed rate z  = F250.00 )
(Settings from pcb-defaults.h)
(isolate min = 0.0001)
(isolate max = 0.5080)
(isolate step = 0.1270)
(Generated bottom outlines, bottom drill, )
(Unit of measure: mm)
( Tool|       Size       |  Min Sub |  Max Sub |   Count )
( T01 | 0.600mm 0.0236in | 0.0000in | 0.0000in |       0 )
( T02 | 0.813mm 0.0320in | 0.0000in | 0.0000in |       0 )
( T03 | 1.016mm 0.0400in | 0.0000in | 0.0000in |       0 )
(Metric Mode)
G21
(Absolute Coordinates)
G90
M05
G00 Z25.4000 
G00 X12.7000 Y15.2400 
M06 T01 (0.6000 )
G01 Z0.0000 F250.00 
M06 T01 (0.6000 )
G00 Z1.0000 
M03
G04 P0.000000
G82 X-31.7500 Y36.8300 Z-0.2000 F250.00 R1.0000 P0.000000
G82 X-31.7500 Y26.6700 
G82 X-39.3700 Y31.7500 
G82 X-39.3700 Y41.9100 
G82 X-41.9100 Y34.2900 
G82 X-41.9100 Y41.9100 
G82 X-45.7200 Y34.2900 
G82 X-45.7200 Y26.6700 
G82 X-50.8000 Y36.8300 
G82 X-50.8000 Y26.6700 
G82 X-52.0700 Y36.8300 
G82 X-52.0700 Y41.9100 
G82 X-58.4200 Y36.8300 
G82 X-58.4200 Y26.6700 
G82 X-64.7700 Y31.7500 
G82 X-64.7700 Y41.9100 
G82 X-67.3100 Y34.2900 
G82 X-67.3100 Y41.9100 
G82 X-71.1200 Y34.2900 
G82 X-71.1200 Y26.6700 
G82 X-76.2000 Y36.8300 
G82 X-81.2800 Y36.8300 
G82 X-10.1600 Y36.8300 
G82 X-10.1600 Y26.6700 
G82 X-13.9700 Y31.7500 
G82 X-13.9700 Y41.9100 
G82 X-16.5100 Y34.2900 
G82 X-16.5100 Y41.9100 
G82 X-20.3200 Y34.2900 
G82 X-20.3200 Y26.6700 
G82 X-25.4000 Y36.8300 
G82 X-25.4000 Y26.6700 
G82 X-26.6700 Y36.8300 
G82 X-26.6700 Y41.9100 
M05
G00 Z25.4000 
M06 T02 (0.8128 )
G01 Z0.0000 F250.00 
M06 T02 (0.8128 )
G00 Z1.0000 
M03
G04 P0.000000
G82 X-31.7500 Y44.4500 Z-0.2000 F250.00 R1.0000 P0.000000
G82 X-33.0200 Y11.4300 
G82 X-33.0200 Y13.9700 
G82 X-33.0200 Y24.1300 
G82 X-34.2900 Y44.4500 
G82 X-34.2900 Y52.0700 
G82 X-35.5600 Y11.4300 
G82 X-35.5600 Y13.9700 
G82 X-35.5600 Y16.5100 
G82 X-35.5600 Y24.1300 
G82 X-36.8300 Y44.4500 
G82 X-36.8300 Y52.0700 
G82 X-36.8300 Y54.6100 
G82 X-36.8300 Y57.1500 
G82 X-3.8100 Y44.4500 
G82 X-3.8100 Y46.9900 
G82 X-38.1000 Y11.4300 
G82 X-38.1000 Y13.9700 
G82 X-38.1000 Y16.5100 
G82 X-38.1000 Y24.1300 
G82 X-39.3700 Y44.4500 
G82 X-39.3700 Y52.0700 
G82 X-39.3700 Y54.6100 
G82 X-39.3700 Y57.1500 
G82 X-40.6400 Y11.4300 
G82 X-40.6400 Y13.9700 
G82 X-40.6400 Y16.5100 
G82 X-40.6400 Y24.1300 
G82 X-41.9100 Y44.4500 
G82 X-41.9100 Y52.0700 
G82 X-41.9100 Y54.6100 
G82 X-41.9100 Y57.1500 
G82 X-43.1800 Y11.4300 
G82 X-43.1800 Y13.9700 
G82 X-43.1800 Y16.5100 
G82 X-43.1800 Y24.1300 
G82 X-44.4500 Y44.4500 
G82 X-44.4500 Y52.0700 
G82 X-44.4500 Y54.6100 
G82 X-44.4500 Y57.1500 
G82 X-45.7200 Y11.4300 
G82 X-45.7200 Y13.9700 
G82 X-45.7200 Y16.5100 
G82 X-45.7200 Y24.1300 
G82 X-46.9900 Y44.4500 
G82 X-46.9900 Y52.0700 
G82 X-46.9900 Y54.6100 
G82 X-46.9900 Y57.1500 
G82 X-48.2600 Y11.4300 
G82 X-48.2600 Y13.9700 
G82 X-48.2600 Y16.5100 
G82 X-48.2600 Y24.1300 
G82 X-49.5300 Y44.4500 
G82 X-49.5300 Y52.0700 
G82 X-49.5300 Y54.6100 
G82 X-49.5300 Y57.1500 
G82 X-5.0800 Y24.1300 
G82 X-50.8000 Y11.4300 
G82 X-50.8000 Y13.9700 
G82 X-50.8000 Y16.5100 
G82 X-50.8000 Y24.1300 
G82 X-52.0700 Y44.4500 
G82 X-52.0700 Y52.0700 
G82 X-52.0700 Y54.6100 
G82 X-52.0700 Y57.1500 
G82 X-53.3400 Y16.5100 
G82 X-53.3400 Y24.1300 
G82 X-54.6100 Y44.4500 
G82 X-54.6100 Y54.6100 
G82 X-54.6100 Y57.1500 
G82 X-55.8800 Y24.1300 
G82 X-57.1500 Y44.4500 
G82 X-58.4200 Y11.4300 
G82 X-58.4200 Y13.9700 
G82 X-58.4200 Y24.1300 
G82 X-59.6900 Y44.4500 
G82 X-59.6900 Y52.0700 
G82 X-60.9600 Y11.4300 
G82 X-60.9600 Y13.9700 
G82 X-60.9600 Y16.5100 
G82 X-60.9600 Y24.1300 
G82 X-62.2300 Y44.4500 
G82 X-62.2300 Y52.0700 
G82 X-62.2300 Y54.6100 
G82 X-62.2300 Y57.1500 
G82 X-63.5000 Y11.4300 
G82 X-63.5000 Y13.9700 
G82 X-63.5000 Y16.5100 
G82 X-63.5000 Y24.1300 
G82 X-64.7700 Y44.4500 
G82 X-64.7700 Y52.0700 
G82 X-64.7700 Y54.6100 
G82 X-64.7700 Y57.1500 
G82 X-66.0400 Y11.4300 
G82 X-66.0400 Y13.9700 
G82 X-66.0400 Y16.5100 
G82 X-66.0400 Y24.1300 
G82 X-67.3100 Y44.4500 
G82 X-67.3100 Y52.0700 
G82 X-67.3100 Y54.6100 
G82 X-67.3100 Y57.1500 
G82 X-68.5800 Y11.4300 
G82 X-68.5800 Y13.9700 
G82 X-68.5800 Y16.5100 
G82 X-68.5800 Y24.1300 
G82 X-69.8500 Y44.4500 
G82 X-69.8500 Y52.0700 
G82 X-69.8500 Y54.6100 
G82 X-69.8500 Y57.1500 
G82 X-71.1200 Y11.4300 
G82 X-71.1200 Y13.9700 
G82 X-71.1200 Y16.5100 
G82 X-71.1200 Y24.1300 
G82 X-72.3900 Y44.4500 
G82 X-72.3900 Y52.0700 
G82 X-72.3900 Y54.6100 
G82 X-72.3900 Y57.1500 
G82 X-73.6600 Y11.4300 
G82 X-73.6600 Y13.9700 
G82 X-73.6600 Y16.5100 
G82 X-73.6600 Y24.1300 
G82 X-74.9300 Y44.4500 
G82 X-74.9300 Y52.0700 
G82 X-74.9300 Y54.6100 
G82 X-74.9300 Y57.1500 
G82 X-7.6200 Y11.4300 
G82 X-7.6200 Y13.9700 
G82 X-7.6200 Y24.1300 
G82 X-76.2000 Y11.4300 
G82 X-76.2000 Y13.9700 
G82 X-76.2000 Y16.5100 
G82 X-76.2000 Y24.1300 
G82 X-77.4700 Y44.4500 
G82 X-77.4700 Y52.0700 
G82 X-77.4700 Y54.6100 
G82 X-77.4700 Y57.1500 
G82 X-78.7400 Y16.5100 
G82 X-78.7400 Y24.1300 
G82 X-80.0100 Y43.1800 
G82 X-80.0100 Y45.7200 
G82 X-80.0100 Y54.6100 
G82 X-80.0100 Y57.1500 
G82 X-8.8900 Y44.4500 
G82 X-8.8900 Y52.0700 
G82 X-10.1600 Y11.4300 
G82 X-10.1600 Y13.9700 
G82 X-10.1600 Y16.5100 
G82 X-10.1600 Y24.1300 
G82 X-11.4300 Y44.4500 
G82 X-11.4300 Y52.0700 
G82 X-11.4300 Y54.6100 
G82 X-11.4300 Y57.1500 
G82 X-12.7000 Y11.4300 
G82 X-12.7000 Y13.9700 
G82 X-12.7000 Y16.5100 
G82 X-12.7000 Y24.1300 
G82 X-13.9700 Y44.4500 
G82 X-13.9700 Y52.0700 
G82 X-13.9700 Y54.6100 
G82 X-13.9700 Y57.1500 
G82 X-15.2400 Y11.4300 
G82 X-15.2400 Y13.9700 
G82 X-15.2400 Y16.5100 
G82 X-15.2400 Y24.1300 
G82 X-16.5100 Y44.4500 
G82 X-16.5100 Y52.0700 
G82 X-16.5100 Y54.6100 
G82 X-16.5100 Y57.1500 
G82 X-17.7800 Y11.4300 
G82 X-17.7800 Y13.9700 
G82 X-17.7800 Y16.5100 
G82 X-17.7800 Y24.1300 
G82 X-19.0500 Y44.4500 
G82 X-19.0500 Y52.0700 
G82 X-19.0500 Y54.6100 
G82 X-19.0500 Y57.1500 
G82 X-20.3200 Y11.4300 
G82 X-20.3200 Y13.9700 
G82 X-20.3200 Y16.5100 
G82 X-20.3200 Y24.1300 
G82 X-21.5900 Y44.4500 
G82 X-21.5900 Y52.0700 
G82 X-21.5900 Y54.6100 
G82 X-21.5900 Y57.1500 
G82 X-22.8600 Y11.4300 
G82 X-22.8600 Y13.9700 
G82 X-22.8600 Y16.5100 
G82 X-22.8600 Y24.1300 
G82 X-24.1300 Y44.4500 
G82 X-24.1300 Y52.0700 
G82 X-24.1300 Y54.6100 
G82 X-24.1300 Y57.1500 
G82 X-25.4000 Y11.4300 
G82 X-25.4000 Y13.9700 
G82 X-25.4000 Y16.5100 
G82 X-25.4000 Y24.1300 
G82 X-26.6700 Y44.4500 
G82 X-26.6700 Y52.0700 
G82 X-26.6700 Y54.6100 
G82 X-26.6700 Y57.1500 
G82 X-27.9400 Y16.5100 
G82 X-27.9400 Y24.1300 
G82 X-29.2100 Y44.4500 
G82 X-29.2100 Y54.6100 
G82 X-29.2100 Y57.1500 
G82 X-30.4800 Y24.1300 
M05
G00 Z25.4000 
M06 T03 (1.0160 )
G01 Z0.0000 F250.00 
M06 T03 (1.0160 )
G00 Z1.0000 
M03
G04 P0.000000
G82 X-33.0200 Y7.6200 Z-0.2000 F250.00 R1.0000 P0.000000
G82 X-35.5600 Y7.6200 
G82 X-36.8300 Y60.9600 
G82 X-3.8100 Y31.7500 
G82 X-3.8100 Y35.5600 
G82 X-3.8100 Y40.6400 
G82 X-3.8100 Y50.8000 
G82 X-3.8100 Y27.9400 
G82 X-38.1000 Y7.6200 
G82 X-39.3700 Y60.9600 
G82 X-40.6400 Y7.6200 
G82 X-41.9100 Y60.9600 
G82 X-43.1800 Y7.6200 
G82 X-44.4500 Y60.9600 
G82 X-45.7200 Y7.6200 
G82 X-46.9900 Y60.9600 
G82 X-48.2600 Y7.6200 
G82 X-49.5300 Y60.9600 
G82 X-50.8000 Y7.6200 
G82 X-52.0700 Y60.9600 
G82 X-54.6100 Y60.9600 
G82 X-58.4200 Y7.6200 
G82 X-60.9600 Y7.6200 
G82 X-62.2300 Y60.9600 
G82 X-63.5000 Y7.6200 
G82 X-64.7700 Y60.9600 
G82 X-66.0400 Y7.6200 
G82 X-67.3100 Y60.9600 
G82 X-68.5800 Y7.6200 
G82 X-69.8500 Y60.9600 
G82 X-71.1200 Y7.6200 
G82 X-72.3900 Y60.9600 
G82 X-73.6600 Y7.6200 
G82 X-74.9300 Y60.9600 
G82 X-7.6200 Y7.6200 
G82 X-76.2000 Y7.6200 
G82 X-77.4700 Y60.9600 
G82 X-80.0100 Y60.9600 
G82 X-8.8900 Y40.6400 
G82 X-10.1600 Y7.6200 
G82 X-11.4300 Y60.9600 
G82 X-12.7000 Y7.6200 
G82 X-13.9700 Y60.9600 
G82 X-15.2400 Y7.6200 
G82 X-16.5100 Y60.9600 
G82 X-17.7800 Y7.6200 
G82 X-19.0500 Y60.9600 
G82 X-20.3200 Y7.6200 
G82 X-21.5900 Y60.9600 
G82 X-22.8600 Y7.6200 
G82 X-24.1300 Y60.9600 
G82 X-25.4000 Y7.6200 
G82 X-26.6700 Y60.9600 
G82 X-29.2100 Y60.9600 
T01 
M05
M02
