(.../pcb-gcode-3.6.0.4/pcb-gcode.ulp)
(Copyright 2005 - 2012 by John Johnson)
(See readme.txt for licensing terms.)
(This file generated from the board:)
(/home/mst/NC/eagle/shifter2.brd)
(Current profile is .../pcb-gcode-3.6.0.4/profiles/emc.pp  )
(This file generated 25.06.13 00:58)
(Settings from pcb-machine.h)
(  Tool Size)
(0.3000 )
(Z Axis Settings)
(  High     Up        Down     Drill)
(1.0000 	1.0000 	-0.1700 	-0.2000 )
(spindle on time = 0.0000)
(milling depth = -0.1700)
(text depth = -0.1270)
(tool change at 12.7000 15.2400 25.4000 )
(feed rate xy = F250.00 )
(feed rate z  = F250.00 )
(Settings from pcb-defaults.h)
(isolate min = 0.0001)
(isolate max = 0.5080)
(isolate step = 0.1270)
(Generated bottom outlines, bottom drill, )
(Unit of measure: mm)
(Metric Mode)
G21
(Absolute Coordinates)
G90
G00 X0.0000 Y0.0000 
M03
G04 P0.000000
G00 Z1.0000 
G00 X-18.1057 Y43.3855 
G01 Z-0.1700 F250.00 
G01 X-18.1062 Y43.3855 F250.00 
G01 X-18.1249 Y43.3668 
G01 X-18.3057 Y43.2354 
G01 X-18.5049 Y43.1339 
G01 X-18.7175 Y43.0649 
G01 X-18.9382 Y43.0299 
G01 X-19.1618 Y43.0299 
G01 X-19.3825 Y43.0649 
G01 X-19.5951 Y43.1339 
G01 X-19.7943 Y43.2354 
G01 X-19.9751 Y43.3668 
G01 X-19.9938 Y43.3855 
G01 X-20.0494 Y43.4083 
G01 X-20.0916 Y43.4506 
G01 X-20.1145 Y43.5057 
G01 X-20.1332 Y43.5249 
G01 X-20.2646 Y43.7057 
G01 X-20.3661 Y43.9049 
G01 X-20.4351 Y44.1175 
G01 X-20.4701 Y44.3382 
G01 X-20.4701 Y48.3718 
G01 X-20.4351 Y48.5925 
G01 X-20.3661 Y48.8051 
G01 X-20.2646 Y49.0043 
G01 X-20.1332 Y49.1851 
G01 X-19.9751 Y49.3432 
G01 X-19.7943 Y49.4746 
G01 X-19.5951 Y49.5761 
G01 X-19.3825 Y49.6451 
G01 X-19.1618 Y49.6801 
G01 X-10.0053 Y49.6801 
G01 X-10.0053 Y52.1578 
G01 X-9.9778 Y52.3312 
G01 X-9.9545 Y52.4030 
G01 X-9.9545 Y53.0143 
G01 X-9.9316 Y53.0694 
G01 X-9.8894 Y53.1116 
G01 X-9.8343 Y53.1345 
G01 X-9.2230 Y53.1345 
G01 X-9.1512 Y53.1578 
G01 X-9.0386 Y53.1757 
G01 X-9.0401 Y53.1889 
G01 X-9.0401 Y63.3499 
G01 X-31.5999 Y63.3499 
G01 X-31.5999 Y52.3004 
G01 X-30.4364 Y48.8100 
G01 X-30.4339 Y48.8051 
G01 X-30.4011 Y48.7040 
G01 X-30.3674 Y48.6030 
G01 X-30.3665 Y48.5977 
G01 X-30.3649 Y48.5925 
G01 X-30.3482 Y48.4875 
G01 X-30.3308 Y48.3825 
G01 X-30.3308 Y48.3771 
G01 X-30.3299 Y48.3718 
G01 X-30.3299 Y48.2652 
G01 X-30.3291 Y48.1590 
G01 X-30.3299 Y48.1537 
G01 X-30.3299 Y44.3382 
G01 X-30.3649 Y44.1175 
G01 X-30.4339 Y43.9049 
G01 X-30.5354 Y43.7057 
G01 X-30.6668 Y43.5249 
G01 X-30.6855 Y43.5062 
G01 X-30.7084 Y43.4506 
G01 X-30.7506 Y43.4083 
G01 X-30.8057 Y43.3855 
G01 X-30.8249 Y43.3668 
G01 X-31.0057 Y43.2354 
G01 X-31.2049 Y43.1339 
G01 X-31.4175 Y43.0649 
G01 X-31.6382 Y43.0299 
G01 X-31.8618 Y43.0299 
G01 X-32.0825 Y43.0649 
G01 X-32.2951 Y43.1339 
G01 X-32.4943 Y43.2354 
G01 X-32.6751 Y43.3668 
G01 X-32.6938 Y43.3855 
G01 X-32.7494 Y43.4083 
G01 X-32.7916 Y43.4506 
G01 X-32.8145 Y43.5057 
G01 X-32.8332 Y43.5249 
G01 X-32.9646 Y43.7057 
G01 X-33.0661 Y43.9049 
G01 X-33.1351 Y44.1175 
G01 X-33.1701 Y44.3382 
G01 X-33.1701 Y46.8399 
G01 X-43.0299 Y46.8399 
G01 X-43.0299 Y44.3382 
G01 X-43.0649 Y44.1175 
G01 X-43.1339 Y43.9049 
G01 X-43.2354 Y43.7057 
G01 X-43.3668 Y43.5249 
G01 X-43.3855 Y43.5062 
G01 X-43.4083 Y43.4506 
G01 X-43.4506 Y43.4083 
G01 X-43.5057 Y43.3855 
G01 X-43.5249 Y43.3668 
G01 X-43.7057 Y43.2354 
G01 X-43.9049 Y43.1339 
G01 X-44.1175 Y43.0649 
G01 X-44.3382 Y43.0299 
G01 X-44.5618 Y43.0299 
G01 X-44.7825 Y43.0649 
G01 X-44.9951 Y43.1339 
G01 X-45.1943 Y43.2354 
G01 X-45.3751 Y43.3668 
G01 X-45.3938 Y43.3855 
G01 X-45.4494 Y43.4083 
G01 X-45.4916 Y43.4506 
G01 X-45.5145 Y43.5057 
G01 X-45.5332 Y43.5249 
G01 X-45.6646 Y43.7057 
G01 X-45.7661 Y43.9049 
G01 X-45.8351 Y44.1175 
G01 X-45.8701 Y44.3382 
G01 X-45.8701 Y48.3718 
G01 X-45.8351 Y48.5925 
G01 X-45.7661 Y48.8051 
G01 X-45.6646 Y49.0043 
G01 X-45.5332 Y49.1851 
G01 X-45.3751 Y49.3432 
G01 X-45.1943 Y49.4746 
G01 X-44.9951 Y49.5761 
G01 X-44.7825 Y49.6451 
G01 X-44.5618 Y49.6801 
G01 X-33.7203 Y49.6801 
G01 X-34.1451 Y50.9547 
G01 X-34.3778 Y50.9547 
G01 X-34.5512 Y50.9822 
G01 X-34.6230 Y51.0055 
G01 X-35.2343 Y51.0055 
G01 X-35.2894 Y51.0284 
G01 X-35.3316 Y51.0706 
G01 X-35.3545 Y51.1257 
G01 X-35.3545 Y51.7370 
G01 X-35.3778 Y51.8088 
G01 X-35.4053 Y51.9822 
G01 X-35.4053 Y52.1578 
G01 X-35.3778 Y52.3312 
G01 X-35.3545 Y52.4030 
G01 X-35.3545 Y53.0143 
G01 X-35.3316 Y53.0694 
G01 X-35.2894 Y53.1116 
G01 X-35.2343 Y53.1345 
G01 X-34.6230 Y53.1345 
G01 X-34.5512 Y53.1578 
G01 X-34.4401 Y53.1754 
G01 X-34.4401 Y63.3499 
G01 X-56.9999 Y63.3499 
G01 X-56.9999 Y52.3004 
G01 X-55.8364 Y48.8100 
G01 X-55.8339 Y48.8051 
G01 X-55.8011 Y48.7040 
G01 X-55.7674 Y48.6030 
G01 X-55.7665 Y48.5977 
G01 X-55.7649 Y48.5925 
G01 X-55.7482 Y48.4875 
G01 X-55.7308 Y48.3825 
G01 X-55.7308 Y48.3771 
G01 X-55.7299 Y48.3718 
G01 X-55.7299 Y48.2652 
G01 X-55.7291 Y48.1590 
G01 X-55.7299 Y48.1537 
G01 X-55.7299 Y44.3382 
G01 X-55.7649 Y44.1175 
G01 X-55.8339 Y43.9049 
G01 X-55.9354 Y43.7057 
G01 X-56.0668 Y43.5249 
G01 X-56.0855 Y43.5062 
G01 X-56.1084 Y43.4506 
G01 X-56.1506 Y43.4083 
G01 X-56.2057 Y43.3855 
G01 X-56.2249 Y43.3668 
G01 X-56.4057 Y43.2354 
G01 X-56.6049 Y43.1339 
G01 X-56.8175 Y43.0649 
G01 X-57.0382 Y43.0299 
G01 X-57.2618 Y43.0299 
G01 X-57.4825 Y43.0649 
G01 X-57.6951 Y43.1339 
G01 X-57.8943 Y43.2354 
G01 X-58.0751 Y43.3668 
G01 X-58.0938 Y43.3855 
G01 X-58.1494 Y43.4083 
G01 X-58.1916 Y43.4506 
G01 X-58.2145 Y43.5057 
G01 X-58.2332 Y43.5249 
G01 X-58.3646 Y43.7057 
G01 X-58.4661 Y43.9049 
G01 X-58.5351 Y44.1175 
G01 X-58.5701 Y44.3382 
G01 X-58.5701 Y46.8399 
G01 X-68.4299 Y46.8399 
G01 X-68.4299 Y44.3382 
G01 X-68.4649 Y44.1175 
G01 X-68.5339 Y43.9049 
G01 X-68.6354 Y43.7057 
G01 X-68.7668 Y43.5249 
G01 X-68.7855 Y43.5062 
G01 X-68.8084 Y43.4506 
G01 X-68.8506 Y43.4083 
G01 X-68.9057 Y43.3855 
G01 X-68.9249 Y43.3668 
G01 X-69.1057 Y43.2354 
G01 X-69.3049 Y43.1339 
G01 X-69.5175 Y43.0649 
G01 X-69.7382 Y43.0299 
G01 X-69.9618 Y43.0299 
G01 X-70.1825 Y43.0649 
G01 X-70.3951 Y43.1339 
G01 X-70.5943 Y43.2354 
G01 X-70.7751 Y43.3668 
G01 X-70.7938 Y43.3855 
G01 X-70.8494 Y43.4083 
G01 X-70.8916 Y43.4506 
G01 X-70.9145 Y43.5057 
G01 X-70.9332 Y43.5249 
G01 X-71.0646 Y43.7057 
G01 X-71.1661 Y43.9049 
G01 X-71.2351 Y44.1175 
G01 X-71.2701 Y44.3382 
G01 X-71.2701 Y48.3718 
G01 X-71.2351 Y48.5925 
G01 X-71.1661 Y48.8051 
G01 X-71.0646 Y49.0043 
G01 X-70.9332 Y49.1851 
G01 X-70.7751 Y49.3432 
G01 X-70.5943 Y49.4746 
G01 X-70.3951 Y49.5761 
G01 X-70.1825 Y49.6451 
G01 X-69.9618 Y49.6801 
G01 X-59.1203 Y49.6801 
G01 X-59.5451 Y50.9547 
G01 X-59.7778 Y50.9547 
G01 X-59.9512 Y50.9822 
G01 X-60.0230 Y51.0055 
G01 X-60.6343 Y51.0055 
G01 X-60.6894 Y51.0284 
G01 X-60.7316 Y51.0706 
G01 X-60.7545 Y51.1257 
G01 X-60.7545 Y51.7370 
G01 X-60.7778 Y51.8088 
G01 X-60.8053 Y51.9822 
G01 X-60.8053 Y52.1578 
G01 X-60.7778 Y52.3312 
G01 X-60.7545 Y52.4030 
G01 X-60.7545 Y53.0143 
G01 X-60.7316 Y53.0694 
G01 X-60.6894 Y53.1116 
G01 X-60.6343 Y53.1345 
G01 X-60.0230 Y53.1345 
G01 X-59.9512 Y53.1578 
G01 X-59.8401 Y53.1754 
G01 X-59.8401 Y63.3499 
G01 X-82.4110 Y63.3499 
G01 X-82.4796 Y46.8380 
G01 X-79.9210 Y46.8352 
G01 X-79.7476 Y46.8075 
G01 X-79.6770 Y46.7845 
G01 X-79.0657 Y46.7845 
G01 X-79.0106 Y46.7616 
G01 X-78.9684 Y46.7194 
G01 X-78.9455 Y46.6643 
G01 X-78.9455 Y46.0529 
G01 X-78.9219 Y45.9800 
G01 X-78.8946 Y45.8066 
G01 X-78.8948 Y45.6310 
G01 X-78.9224 Y45.4576 
G01 X-78.9455 Y45.3870 
G01 X-78.9455 Y44.7757 
G01 X-78.9684 Y44.7206 
G01 X-79.0106 Y44.6784 
G01 X-79.0657 Y44.6555 
G01 X-79.6771 Y44.6555 
G01 X-79.7500 Y44.6319 
G01 X-79.9234 Y44.6046 
G01 X-82.4805 Y44.6074 
G01 X-82.4046 Y21.7401 
G01 X-70.0001 Y21.7401 
G01 X-70.0001 Y24.2418 
G01 X-69.9651 Y24.4625 
G01 X-69.8961 Y24.6751 
G01 X-69.7946 Y24.8743 
G01 X-69.6632 Y25.0551 
G01 X-69.6445 Y25.0738 
G01 X-69.6216 Y25.1294 
G01 X-69.5794 Y25.1716 
G01 X-69.5243 Y25.1945 
G01 X-69.5051 Y25.2132 
G01 X-69.3243 Y25.3446 
G01 X-69.1251 Y25.4461 
G01 X-68.9125 Y25.5151 
G01 X-68.6918 Y25.5501 
G01 X-68.4682 Y25.5501 
G01 X-68.2475 Y25.5151 
G01 X-68.0349 Y25.4461 
G01 X-67.8357 Y25.3446 
G01 X-67.6549 Y25.2132 
G01 X-67.6362 Y25.1945 
G01 X-67.5806 Y25.1716 
G01 X-67.5384 Y25.1294 
G01 X-67.5155 Y25.0743 
G01 X-67.4968 Y25.0551 
G01 X-67.3654 Y24.8743 
G01 X-67.2639 Y24.6751 
G01 X-67.1949 Y24.4625 
G01 X-67.1599 Y24.2418 
G01 X-67.1599 Y20.2082 
G01 X-67.1949 Y19.9875 
G01 X-67.2639 Y19.7749 
G01 X-67.3654 Y19.5757 
G01 X-67.4968 Y19.3949 
G01 X-67.6549 Y19.2368 
G01 X-67.8357 Y19.1054 
G01 X-68.0349 Y19.0039 
G01 X-68.2475 Y18.9349 
G01 X-68.4682 Y18.8999 
G01 X-77.3199 Y18.8999 
G01 X-77.3199 Y16.3982 
G01 X-77.3549 Y16.1775 
G01 X-77.4239 Y15.9649 
G01 X-77.5254 Y15.7657 
G01 X-77.6568 Y15.5849 
G01 X-77.6755 Y15.5662 
G01 X-77.6984 Y15.5106 
G01 X-77.7406 Y15.4684 
G01 X-77.7957 Y15.4455 
G01 X-77.8149 Y15.4268 
G01 X-77.9957 Y15.2954 
G01 X-78.1949 Y15.1939 
G01 X-78.4075 Y15.1249 
G01 X-78.5899 Y15.0960 
G01 X-78.5899 Y5.2301 
G01 X-56.0301 Y5.2301 
G01 X-56.0301 Y16.2796 
G01 X-57.1936 Y19.7700 
G01 X-57.1961 Y19.7749 
G01 X-57.2289 Y19.8759 
G01 X-57.2626 Y19.9770 
G01 X-57.2635 Y19.9823 
G01 X-57.2651 Y19.9875 
G01 X-57.2818 Y20.0924 
G01 X-57.2992 Y20.1975 
G01 X-57.2992 Y20.2029 
G01 X-57.3001 Y20.2082 
G01 X-57.3001 Y20.3147 
G01 X-57.3009 Y20.4210 
G01 X-57.3001 Y20.4263 
G01 X-57.3001 Y24.2418 
G01 X-57.2651 Y24.4625 
G01 X-57.1961 Y24.6751 
G01 X-57.0946 Y24.8743 
G01 X-56.9632 Y25.0551 
G01 X-56.9445 Y25.0738 
G01 X-56.9216 Y25.1294 
G01 X-56.8794 Y25.1716 
G01 X-56.8243 Y25.1945 
G01 X-56.8051 Y25.2132 
G01 X-56.6243 Y25.3446 
G01 X-56.4251 Y25.4461 
G01 X-56.2125 Y25.5151 
G01 X-55.9918 Y25.5501 
G01 X-55.7682 Y25.5501 
G01 X-55.5475 Y25.5151 
G01 X-55.3349 Y25.4461 
G01 X-55.1357 Y25.3446 
G01 X-54.9549 Y25.2132 
G01 X-54.9362 Y25.1945 
G01 X-54.8806 Y25.1716 
G01 X-54.8384 Y25.1294 
G01 X-54.8155 Y25.0743 
G01 X-54.7968 Y25.0551 
G01 X-54.6654 Y24.8743 
G01 X-54.5639 Y24.6751 
G01 X-54.4949 Y24.4625 
G01 X-54.4599 Y24.2418 
G01 X-54.4599 Y21.7401 
G01 X-44.6001 Y21.7401 
G01 X-44.6001 Y24.2418 
G01 X-44.5651 Y24.4625 
G01 X-44.4961 Y24.6751 
G01 X-44.3946 Y24.8743 
G01 X-44.2632 Y25.0551 
G01 X-44.2445 Y25.0738 
G01 X-44.2216 Y25.1294 
G01 X-44.1794 Y25.1716 
G01 X-44.1243 Y25.1945 
G01 X-44.1051 Y25.2132 
G01 X-43.9243 Y25.3446 
G01 X-43.7251 Y25.4461 
G01 X-43.5125 Y25.5151 
G01 X-43.2918 Y25.5501 
G01 X-43.0682 Y25.5501 
G01 X-42.8475 Y25.5151 
G01 X-42.6349 Y25.4461 
G01 X-42.4357 Y25.3446 
G01 X-42.2549 Y25.2132 
G01 X-42.2362 Y25.1945 
G01 X-42.1806 Y25.1716 
G01 X-42.1384 Y25.1294 
G01 X-42.1155 Y25.0743 
G01 X-42.0968 Y25.0551 
G01 X-41.9654 Y24.8743 
G01 X-41.8639 Y24.6751 
G01 X-41.7949 Y24.4625 
G01 X-41.7599 Y24.2418 
G01 X-41.7599 Y20.2082 
G01 X-41.7949 Y19.9875 
G01 X-41.8639 Y19.7749 
G01 X-41.9654 Y19.5757 
G01 X-42.0968 Y19.3949 
G01 X-42.2549 Y19.2368 
G01 X-42.4357 Y19.1054 
G01 X-42.6349 Y19.0039 
G01 X-42.8475 Y18.9349 
G01 X-43.0682 Y18.8999 
G01 X-53.9097 Y18.8999 
G01 X-53.5864 Y17.9301 
G01 X-53.2282 Y17.9301 
G01 X-53.0075 Y17.8951 
G01 X-52.7949 Y17.8261 
G01 X-52.5957 Y17.7246 
G01 X-52.4149 Y17.5932 
G01 X-52.3962 Y17.5745 
G01 X-52.3406 Y17.5516 
G01 X-52.2983 Y17.5094 
G01 X-52.2755 Y17.4543 
G01 X-52.2568 Y17.4351 
G01 X-52.1254 Y17.2543 
G01 X-52.0239 Y17.0551 
G01 X-51.9549 Y16.8425 
G01 X-51.9199 Y16.6218 
G01 X-51.9199 Y16.3982 
G01 X-51.9549 Y16.1775 
G01 X-52.0239 Y15.9649 
G01 X-52.1254 Y15.7657 
G01 X-52.2568 Y15.5849 
G01 X-52.2755 Y15.5662 
G01 X-52.2983 Y15.5106 
G01 X-52.3406 Y15.4684 
G01 X-52.3957 Y15.4455 
G01 X-52.4149 Y15.4268 
G01 X-52.5957 Y15.2954 
G01 X-52.7949 Y15.1939 
G01 X-53.0075 Y15.1249 
G01 X-53.1899 Y15.0960 
G01 X-53.1899 Y5.2301 
G01 X-30.6301 Y5.2301 
G01 X-30.6301 Y16.2796 
G01 X-31.7936 Y19.7700 
G01 X-31.7961 Y19.7749 
G01 X-31.8289 Y19.8759 
G01 X-31.8626 Y19.9770 
G01 X-31.8635 Y19.9823 
G01 X-31.8651 Y19.9875 
G01 X-31.8818 Y20.0925 
G01 X-31.8992 Y20.1975 
G01 X-31.8992 Y20.2029 
G01 X-31.9001 Y20.2082 
G01 X-31.9001 Y20.3148 
G01 X-31.9009 Y20.4210 
G01 X-31.9001 Y20.4263 
G01 X-31.9001 Y24.2418 
G01 X-31.8651 Y24.4625 
G01 X-31.7961 Y24.6751 
G01 X-31.6946 Y24.8743 
G01 X-31.5632 Y25.0551 
G01 X-31.5445 Y25.0738 
G01 X-31.5216 Y25.1294 
G01 X-31.4794 Y25.1716 
G01 X-31.4243 Y25.1945 
G01 X-31.4051 Y25.2132 
G01 X-31.2243 Y25.3446 
G01 X-31.0251 Y25.4461 
G01 X-30.8125 Y25.5151 
G01 X-30.5918 Y25.5501 
G01 X-30.3682 Y25.5501 
G01 X-30.1475 Y25.5151 
G01 X-29.9349 Y25.4461 
G01 X-29.7357 Y25.3446 
G01 X-29.5549 Y25.2132 
G01 X-29.5362 Y25.1945 
G01 X-29.4806 Y25.1716 
G01 X-29.4383 Y25.1294 
G01 X-29.4155 Y25.0743 
G01 X-29.3968 Y25.0551 
G01 X-29.2654 Y24.8743 
G01 X-29.1639 Y24.6751 
G01 X-29.0949 Y24.4625 
G01 X-29.0599 Y24.2418 
G01 X-29.0599 Y21.7401 
G01 X-19.2001 Y21.7401 
G01 X-19.2001 Y24.2418 
G01 X-19.1651 Y24.4625 
G01 X-19.0961 Y24.6751 
G01 X-18.9946 Y24.8743 
G01 X-18.8632 Y25.0551 
G01 X-18.8445 Y25.0738 
G01 X-18.8216 Y25.1294 
G01 X-18.7794 Y25.1716 
G01 X-18.7243 Y25.1945 
G01 X-18.7051 Y25.2132 
G01 X-18.5243 Y25.3446 
G01 X-18.3251 Y25.4461 
G01 X-18.1125 Y25.5151 
G01 X-17.8918 Y25.5501 
G01 X-17.6682 Y25.5501 
G01 X-17.4475 Y25.5151 
G01 X-17.2349 Y25.4461 
G01 X-17.0357 Y25.3446 
G01 X-16.8549 Y25.2132 
G01 X-16.8362 Y25.1945 
G01 X-16.7806 Y25.1716 
G01 X-16.7384 Y25.1294 
G01 X-16.7155 Y25.0743 
G01 X-16.6968 Y25.0551 
G01 X-16.5654 Y24.8743 
G01 X-16.4639 Y24.6751 
G01 X-16.3949 Y24.4625 
G01 X-16.3599 Y24.2418 
G01 X-16.3599 Y20.2082 
G01 X-16.3949 Y19.9875 
G01 X-16.4639 Y19.7749 
G01 X-16.5654 Y19.5757 
G01 X-16.6968 Y19.3949 
G01 X-16.8549 Y19.2368 
G01 X-17.0357 Y19.1054 
G01 X-17.2349 Y19.0039 
G01 X-17.4475 Y18.9349 
G01 X-17.6682 Y18.8999 
G01 X-28.5097 Y18.8999 
G01 X-28.1865 Y17.9301 
G01 X-27.8282 Y17.9301 
G01 X-27.6075 Y17.8951 
G01 X-27.3949 Y17.8261 
G01 X-27.1957 Y17.7246 
G01 X-27.0149 Y17.5932 
G01 X-26.9962 Y17.5745 
G01 X-26.9406 Y17.5516 
G01 X-26.8984 Y17.5094 
G01 X-26.8755 Y17.4543 
G01 X-26.8568 Y17.4351 
G01 X-26.7254 Y17.2543 
G01 X-26.6239 Y17.0551 
G01 X-26.5549 Y16.8425 
G01 X-26.5199 Y16.6218 
G01 X-26.5199 Y16.3982 
G01 X-26.5549 Y16.1775 
G01 X-26.6239 Y15.9649 
G01 X-26.7254 Y15.7657 
G01 X-26.8568 Y15.5849 
G01 X-26.8755 Y15.5662 
G01 X-26.8984 Y15.5106 
G01 X-26.9406 Y15.4684 
G01 X-26.9957 Y15.4455 
G01 X-27.0149 Y15.4268 
G01 X-27.1957 Y15.2954 
G01 X-27.3949 Y15.1939 
G01 X-27.6075 Y15.1249 
G01 X-27.7899 Y15.0960 
G01 X-27.7899 Y5.2301 
G01 X-5.2301 Y5.2301 
G01 X-5.2301 Y22.6173 
G01 X-5.6200 Y22.8123 
G01 X-5.6251 Y22.8139 
G01 X-5.7199 Y22.8622 
G01 X-5.8151 Y22.9098 
G01 X-5.8195 Y22.9130 
G01 X-5.8243 Y22.9154 
G01 X-5.9103 Y22.9779 
G01 X-5.9969 Y23.0398 
G01 X-6.0007 Y23.0436 
G01 X-6.0051 Y23.0468 
G01 X-6.0238 Y23.0655 
G01 X-6.0794 Y23.0884 
G01 X-6.1216 Y23.1306 
G01 X-6.1441 Y23.1848 
G01 X-6.1561 Y23.1967 
G01 X-6.1594 Y23.2010 
G01 X-6.1632 Y23.2049 
G01 X-6.2257 Y23.2909 
G01 X-6.2889 Y23.3765 
G01 X-6.2914 Y23.3813 
G01 X-6.2946 Y23.3857 
G01 X-6.3429 Y23.4805 
G01 X-6.3919 Y23.5749 
G01 X-6.3936 Y23.5800 
G01 X-6.3961 Y23.5849 
G01 X-6.4289 Y23.6859 
G01 X-6.4626 Y23.7870 
G01 X-6.4635 Y23.7923 
G01 X-6.4651 Y23.7975 
G01 X-6.4817 Y23.9023 
G01 X-6.4992 Y24.0075 
G01 X-6.4992 Y24.0129 
G01 X-6.5001 Y24.0182 
G01 X-6.5001 Y24.1246 
G01 X-6.5009 Y24.2310 
G01 X-6.5001 Y24.2363 
G01 X-6.5001 Y24.2418 
G01 X-6.4835 Y24.3468 
G01 X-6.4676 Y24.4520 
G01 X-6.4660 Y24.4572 
G01 X-6.4651 Y24.4625 
G01 X-6.4323 Y24.5636 
G01 X-6.4002 Y24.6651 
G01 X-6.3977 Y24.6700 
G01 X-6.3961 Y24.6751 
G01 X-6.3478 Y24.7698 
G01 X-6.3002 Y24.8651 
G01 X-6.2970 Y24.8695 
G01 X-6.2946 Y24.8743 
G01 X-6.2321 Y24.9603 
G01 X-6.1702 Y25.0469 
G01 X-6.1664 Y25.0507 
G01 X-6.1632 Y25.0551 
G01 X-6.1445 Y25.0738 
G01 X-6.1216 Y25.1294 
G01 X-6.0794 Y25.1716 
G01 X-6.0252 Y25.1941 
G01 X-6.0133 Y25.2061 
G01 X-6.0090 Y25.2094 
G01 X-6.0051 Y25.2132 
G01 X-5.9191 Y25.2757 
G01 X-5.8335 Y25.3389 
G01 X-5.8287 Y25.3414 
G01 X-5.8243 Y25.3446 
G01 X-5.7295 Y25.3929 
G01 X-5.6351 Y25.4419 
G01 X-5.6300 Y25.4436 
G01 X-5.6251 Y25.4461 
G01 X-5.5241 Y25.4789 
G01 X-5.4230 Y25.5126 
G01 X-5.4177 Y25.5135 
G01 X-5.4125 Y25.5151 
G01 X-5.3077 Y25.5317 
G01 X-5.2025 Y25.5492 
G01 X-5.1971 Y25.5492 
G01 X-5.1918 Y25.5501 
G01 X-5.0854 Y25.5501 
G01 X-4.9790 Y25.5509 
G01 X-4.9737 Y25.5501 
G01 X-1.4140 Y25.5501 
G01 X-1.3851 Y25.7325 
G01 X-1.3801 Y25.7480 
G01 X-1.3801 Y46.8399 
G01 X-2.7046 Y46.8399 
G01 X-2.7222 Y46.7288 
G01 X-2.7455 Y46.6570 
G01 X-2.7455 Y46.0457 
G01 X-2.7684 Y45.9906 
G01 X-2.8106 Y45.9484 
G01 X-2.8657 Y45.9255 
G01 X-3.4770 Y45.9255 
G01 X-3.5488 Y45.9022 
G01 X-3.7222 Y45.8747 
G01 X-8.9778 Y45.8747 
G01 X-9.1512 Y45.9022 
G01 X-9.3181 Y45.9564 
G01 X-9.4745 Y46.0361 
G01 X-9.6166 Y46.1393 
G01 X-9.7407 Y46.2634 
G01 X-9.8439 Y46.4055 
G01 X-9.9236 Y46.5619 
G01 X-9.9778 Y46.7288 
G01 X-9.9954 Y46.8399 
G01 X-17.6299 Y46.8399 
G01 X-17.6299 Y44.3382 
G01 X-17.6649 Y44.1175 
G01 X-17.7339 Y43.9049 
G01 X-17.8354 Y43.7057 
G01 X-17.9668 Y43.5249 
G01 X-17.9855 Y43.5062 
G01 X-18.0084 Y43.4506 
G01 X-18.0506 Y43.4083 
G01 X-18.1057 Y43.3855 
G00 Z1.0000 
G00 X-16.4222 Y35.4053 
G01 Z-0.1700 F250.00 
G01 X-8.7353 Y35.4053 F250.00 
G01 X-8.7353 Y35.6478 
G01 X-8.7078 Y35.8212 
G01 X-8.6536 Y35.9881 
G01 X-8.5739 Y36.1445 
G01 X-8.4707 Y36.2866 
G01 X-8.3466 Y36.4107 
G01 X-8.2045 Y36.5139 
G01 X-8.0481 Y36.5936 
G01 X-7.8812 Y36.6478 
G01 X-7.7078 Y36.6753 
G01 X-5.0371 Y36.6753 
G01 X-5.0167 Y36.7245 
G01 X-4.9745 Y36.7667 
G01 X-4.9194 Y36.7896 
G01 X-2.7006 Y36.7896 
G01 X-2.6455 Y36.7667 
G01 X-2.6033 Y36.7245 
G01 X-2.5804 Y36.6694 
G01 X-2.5804 Y34.4506 
G01 X-2.6033 Y34.3955 
G01 X-2.6455 Y34.3533 
G01 X-2.7006 Y34.3304 
G01 X-4.9194 Y34.3304 
G01 X-4.9745 Y34.3533 
G01 X-5.0167 Y34.3955 
G01 X-5.0371 Y34.4447 
G01 X-6.5047 Y34.4447 
G01 X-6.5047 Y34.2022 
G01 X-6.5322 Y34.0288 
G01 X-6.5864 Y33.8619 
G01 X-6.6661 Y33.7055 
G01 X-6.7693 Y33.5634 
G01 X-6.8934 Y33.4393 
G01 X-7.0355 Y33.3361 
G01 X-7.1919 Y33.2564 
G01 X-7.3588 Y33.2022 
G01 X-7.5322 Y33.1747 
G01 X-71.2078 Y33.1747 
G01 X-71.3812 Y33.2022 
G01 X-71.5481 Y33.2564 
G01 X-71.7045 Y33.3361 
G01 X-71.8466 Y33.4393 
G01 X-71.9707 Y33.5634 
G01 X-72.0739 Y33.7055 
G01 X-72.1536 Y33.8619 
G01 X-72.2078 Y34.0288 
G01 X-72.2353 Y34.2022 
G01 X-72.2353 Y34.3778 
G01 X-72.2078 Y34.5512 
G01 X-72.1536 Y34.7181 
G01 X-72.0739 Y34.8745 
G01 X-71.9707 Y35.0166 
G01 X-71.8466 Y35.1407 
G01 X-71.7045 Y35.2439 
G01 X-71.5481 Y35.3236 
G01 X-71.3812 Y35.3778 
G01 X-71.2078 Y35.4053 
G01 X-20.2322 Y35.4053 
G01 X-16.4222 Y35.4053 
G00 Z1.0000 
G00 X-4.7543 Y45.5145 
G01 Z-0.1700 F250.00 
G01 X-4.1430 Y45.5145 F250.00 
G01 X-4.0712 Y45.5378 
G01 X-3.8978 Y45.5653 
G01 X-3.7222 Y45.5653 
G01 X-3.5488 Y45.5378 
G01 X-3.4770 Y45.5145 
G01 X-2.8657 Y45.5145 
G01 X-2.8106 Y45.4916 
G01 X-2.7684 Y45.4494 
G01 X-2.7455 Y45.3943 
G01 X-2.7455 Y44.7830 
G01 X-2.7222 Y44.7112 
G01 X-2.6947 Y44.5378 
G01 X-2.6947 Y41.8671 
G01 X-2.6455 Y41.8467 
G01 X-2.6033 Y41.8045 
G01 X-2.5804 Y41.7494 
G01 X-2.5804 Y41.3548 
G01 X-2.4939 Y41.1851 
G01 X-2.4249 Y40.9725 
G01 X-2.3899 Y40.7518 
G01 X-2.3899 Y40.5282 
G01 X-2.4249 Y40.3075 
G01 X-2.4939 Y40.0949 
G01 X-2.5804 Y39.9252 
G01 X-2.5804 Y39.5306 
G01 X-2.6033 Y39.4755 
G01 X-2.6455 Y39.4333 
G01 X-2.7006 Y39.4104 
G01 X-3.0952 Y39.4104 
G01 X-3.2649 Y39.3239 
G01 X-3.4775 Y39.2549 
G01 X-3.6982 Y39.2199 
G01 X-9.0447 Y39.2199 
G01 X-9.0447 Y36.7422 
G01 X-9.0722 Y36.5688 
G01 X-9.1264 Y36.4019 
G01 X-9.2061 Y36.2455 
G01 X-9.3093 Y36.1034 
G01 X-9.4334 Y35.9793 
G01 X-9.5755 Y35.8761 
G01 X-9.7319 Y35.7964 
G01 X-9.8988 Y35.7422 
G01 X-10.0722 Y35.7147 
G01 X-75.0847 Y35.7147 
G01 X-75.0847 Y24.0422 
G01 X-75.1122 Y23.8688 
G01 X-75.1355 Y23.7970 
G01 X-75.1355 Y23.1857 
G01 X-75.1583 Y23.1306 
G01 X-75.2006 Y23.0884 
G01 X-75.2557 Y23.0655 
G01 X-75.8670 Y23.0655 
G01 X-75.9388 Y23.0422 
G01 X-76.1122 Y23.0147 
G01 X-76.2878 Y23.0147 
G01 X-76.4612 Y23.0422 
G01 X-76.5330 Y23.0655 
G01 X-77.1443 Y23.0655 
G01 X-77.1994 Y23.0884 
G01 X-77.2416 Y23.1306 
G01 X-77.2645 Y23.1857 
G01 X-77.2645 Y23.7970 
G01 X-77.2878 Y23.8688 
G01 X-77.3153 Y24.0422 
G01 X-77.3153 Y36.9178 
G01 X-77.2878 Y37.0912 
G01 X-77.2336 Y37.2581 
G01 X-77.1539 Y37.4145 
G01 X-77.0507 Y37.5566 
G01 X-76.9266 Y37.6807 
G01 X-76.7845 Y37.7839 
G01 X-76.6281 Y37.8636 
G01 X-76.4612 Y37.9178 
G01 X-76.2878 Y37.9453 
G01 X-63.3453 Y37.9453 
G01 X-63.3453 Y44.5378 
G01 X-63.3178 Y44.7112 
G01 X-63.2945 Y44.7830 
G01 X-63.2945 Y45.3943 
G01 X-63.2716 Y45.4494 
G01 X-63.2294 Y45.4916 
G01 X-63.1743 Y45.5145 
G01 X-62.5630 Y45.5145 
G01 X-62.4912 Y45.5378 
G01 X-62.3178 Y45.5653 
G01 X-62.1422 Y45.5653 
G01 X-61.9688 Y45.5378 
G01 X-61.8970 Y45.5145 
G01 X-61.2857 Y45.5145 
G01 X-61.2306 Y45.4916 
G01 X-61.1883 Y45.4494 
G01 X-61.1655 Y45.3943 
G01 X-61.1655 Y44.7830 
G01 X-61.1422 Y44.7112 
G01 X-61.1147 Y44.5378 
G01 X-61.1147 Y37.9453 
G01 X-37.9453 Y37.9453 
G01 X-37.9453 Y44.5378 
G01 X-37.9178 Y44.7112 
G01 X-37.8945 Y44.7830 
G01 X-37.8945 Y45.3943 
G01 X-37.8716 Y45.4494 
G01 X-37.8294 Y45.4916 
G01 X-37.7743 Y45.5145 
G01 X-37.1630 Y45.5145 
G01 X-37.0912 Y45.5378 
G01 X-36.9178 Y45.5653 
G01 X-36.7422 Y45.5653 
G01 X-36.5688 Y45.5378 
G01 X-36.4970 Y45.5145 
G01 X-35.8857 Y45.5145 
G01 X-35.8306 Y45.4916 
G01 X-35.7884 Y45.4494 
G01 X-35.7655 Y45.3943 
G01 X-35.7655 Y44.7830 
G01 X-35.7422 Y44.7112 
G01 X-35.7147 Y44.5378 
G01 X-35.7147 Y37.9453 
G01 X-12.5347 Y37.9453 
G01 X-12.5453 Y38.0122 
G01 X-12.5453 Y44.5378 
G01 X-12.5178 Y44.7112 
G01 X-12.4945 Y44.7830 
G01 X-12.4945 Y45.3943 
G01 X-12.4716 Y45.4494 
G01 X-12.4294 Y45.4916 
G01 X-12.3743 Y45.5145 
G01 X-11.7630 Y45.5145 
G01 X-11.6912 Y45.5378 
G01 X-11.5178 Y45.5653 
G01 X-11.3422 Y45.5653 
G01 X-11.1688 Y45.5378 
G01 X-11.0970 Y45.5145 
G01 X-10.4857 Y45.5145 
G01 X-10.4306 Y45.4916 
G01 X-10.3884 Y45.4494 
G01 X-10.3655 Y45.3943 
G01 X-10.3655 Y44.7830 
G01 X-10.3422 Y44.7112 
G01 X-10.3147 Y44.5378 
G01 X-10.3147 Y43.3301 
G01 X-4.9253 Y43.3301 
G01 X-4.9253 Y44.5378 
G01 X-4.8978 Y44.7112 
G01 X-4.8745 Y44.7830 
G01 X-4.8745 Y45.3943 
G01 X-4.8516 Y45.4494 
G01 X-4.8094 Y45.4916 
G01 X-4.7543 Y45.5145 
G00 Z1.0000 
G00 X-2.5804 Y29.0494 
G01 Z-0.1700 F250.00 
G01 X-2.5804 Y26.8306 F250.00 
G01 X-2.6033 Y26.7755 
G01 X-2.6455 Y26.7333 
G01 X-2.7006 Y26.7104 
G01 X-4.9194 Y26.7104 
G01 X-4.9745 Y26.7333 
G01 X-5.0167 Y26.7755 
G01 X-5.0371 Y26.8247 
G01 X-7.7078 Y26.8247 
G01 X-7.8812 Y26.8522 
G01 X-8.0481 Y26.9064 
G01 X-8.2045 Y26.9861 
G01 X-8.3466 Y27.0893 
G01 X-8.4707 Y27.2134 
G01 X-8.5739 Y27.3555 
G01 X-8.6536 Y27.5119 
G01 X-8.7078 Y27.6788 
G01 X-8.7353 Y27.8522 
G01 X-8.7353 Y28.0947 
G01 X-14.1247 Y28.0947 
G01 X-14.1247 Y24.0422 
G01 X-14.1522 Y23.8688 
G01 X-14.1755 Y23.7970 
G01 X-14.1755 Y23.1857 
G01 X-14.1984 Y23.1306 
G01 X-14.2406 Y23.0884 
G01 X-14.2957 Y23.0655 
G01 X-14.9070 Y23.0655 
G01 X-14.9788 Y23.0422 
G01 X-15.1522 Y23.0147 
G01 X-15.3278 Y23.0147 
G01 X-15.5012 Y23.0422 
G01 X-15.5730 Y23.0655 
G01 X-16.1843 Y23.0655 
G01 X-16.2394 Y23.0884 
G01 X-16.2816 Y23.1306 
G01 X-16.3045 Y23.1857 
G01 X-16.3045 Y23.7970 
G01 X-16.3278 Y23.8688 
G01 X-16.3553 Y24.0422 
G01 X-16.3553 Y29.2978 
G01 X-16.3278 Y29.4712 
G01 X-16.2736 Y29.6381 
G01 X-16.1939 Y29.7945 
G01 X-16.0907 Y29.9366 
G01 X-15.9666 Y30.0607 
G01 X-15.8245 Y30.1639 
G01 X-15.6681 Y30.2436 
G01 X-15.5012 Y30.2978 
G01 X-15.3278 Y30.3253 
G01 X-7.5322 Y30.3253 
G01 X-7.3588 Y30.2978 
G01 X-7.1919 Y30.2436 
G01 X-7.0355 Y30.1639 
G01 X-6.8934 Y30.0607 
G01 X-6.7693 Y29.9366 
G01 X-6.6661 Y29.7945 
G01 X-6.5864 Y29.6381 
G01 X-6.5322 Y29.4712 
G01 X-6.5047 Y29.2978 
G01 X-6.5047 Y29.0553 
G01 X-5.0371 Y29.0553 
G01 X-5.0167 Y29.1045 
G01 X-4.9745 Y29.1467 
G01 X-4.9194 Y29.1696 
G01 X-2.7006 Y29.1696 
G01 X-2.6455 Y29.1467 
G01 X-2.6033 Y29.1045 
G01 X-2.5804 Y29.0494 
G00 Z1.0000 
G00 X-23.1857 Y51.0055 
G01 Z-0.1700 F250.00 
G01 X-23.7970 Y51.0055 F250.00 
G01 X-23.8688 Y50.9822 
G01 X-24.0422 Y50.9547 
G01 X-24.2178 Y50.9547 
G01 X-24.3912 Y50.9822 
G01 X-24.4630 Y51.0055 
G01 X-25.0743 Y51.0055 
G01 X-25.1294 Y51.0284 
G01 X-25.1716 Y51.0706 
G01 X-25.1945 Y51.1257 
G01 X-25.1945 Y51.7370 
G01 X-25.2178 Y51.8088 
G01 X-25.2453 Y51.9822 
G01 X-25.2453 Y54.6978 
G01 X-25.2178 Y54.8712 
G01 X-25.1945 Y54.9430 
G01 X-25.1945 Y55.5543 
G01 X-25.1716 Y55.6094 
G01 X-25.1294 Y55.6516 
G01 X-25.0743 Y55.6745 
G01 X-24.4630 Y55.6745 
G01 X-24.3912 Y55.6978 
G01 X-24.2178 Y55.7253 
G01 X-24.0422 Y55.7253 
G01 X-23.8688 Y55.6978 
G01 X-23.7970 Y55.6745 
G01 X-23.1857 Y55.6745 
G01 X-23.1306 Y55.6516 
G01 X-23.0884 Y55.6094 
G01 X-23.0655 Y55.5543 
G01 X-23.0655 Y54.9430 
G01 X-23.0422 Y54.8712 
G01 X-23.0147 Y54.6978 
G01 X-23.0147 Y51.9822 
G01 X-23.0422 Y51.8088 
G01 X-23.0655 Y51.7370 
G01 X-23.0655 Y51.1257 
G01 X-23.0884 Y51.0706 
G01 X-23.1306 Y51.0284 
G01 X-23.1857 Y51.0055 
G00 Z1.0000 
G00 X-54.6978 Y43.3347 
G01 Z-0.1700 F250.00 
G01 X-54.8712 Y43.3622 F250.00 
G01 X-54.9430 Y43.3855 
G01 X-55.5543 Y43.3855 
G01 X-55.6094 Y43.4083 
G01 X-55.6516 Y43.4506 
G01 X-55.6745 Y43.5057 
G01 X-55.6745 Y44.1170 
G01 X-55.6978 Y44.1888 
G01 X-55.7253 Y44.3622 
G01 X-55.7253 Y44.5378 
G01 X-55.6978 Y44.7112 
G01 X-55.6745 Y44.7830 
G01 X-55.6745 Y45.3943 
G01 X-55.6516 Y45.4494 
G01 X-55.6094 Y45.4916 
G01 X-55.5543 Y45.5145 
G01 X-54.9430 Y45.5145 
G01 X-54.8712 Y45.5378 
G01 X-54.6978 Y45.5653 
G01 X-51.9822 Y45.5653 
G01 X-51.8088 Y45.5378 
G01 X-51.7370 Y45.5145 
G01 X-51.1257 Y45.5145 
G01 X-51.0706 Y45.4916 
G01 X-51.0284 Y45.4494 
G01 X-51.0055 Y45.3943 
G01 X-51.0055 Y44.7830 
G01 X-50.9822 Y44.7112 
G01 X-50.9547 Y44.5378 
G01 X-50.9547 Y41.8222 
G01 X-50.9822 Y41.6488 
G01 X-51.0364 Y41.4819 
G01 X-51.1161 Y41.3255 
G01 X-51.2193 Y41.1834 
G01 X-51.3434 Y41.0593 
G01 X-51.4855 Y40.9561 
G01 X-51.6419 Y40.8764 
G01 X-51.8088 Y40.8222 
G01 X-51.9822 Y40.7947 
G01 X-52.1578 Y40.7947 
G01 X-52.3312 Y40.8222 
G01 X-52.4981 Y40.8764 
G01 X-52.6545 Y40.9561 
G01 X-52.7966 Y41.0593 
G01 X-52.9207 Y41.1834 
G01 X-53.0239 Y41.3255 
G01 X-53.1036 Y41.4819 
G01 X-53.1578 Y41.6488 
G01 X-53.1853 Y41.8222 
G01 X-53.1853 Y43.3347 
G01 X-54.6978 Y43.3347 
G00 Z1.0000 
G00 X-48.5857 Y43.3855 
G01 Z-0.1700 F250.00 
G01 X-49.1970 Y43.3855 F250.00 
G01 X-49.2688 Y43.3622 
G01 X-49.4422 Y43.3347 
G01 X-49.6178 Y43.3347 
G01 X-49.7912 Y43.3622 
G01 X-49.8630 Y43.3855 
G01 X-50.4743 Y43.3855 
G01 X-50.5294 Y43.4083 
G01 X-50.5716 Y43.4506 
G01 X-50.5945 Y43.5057 
G01 X-50.5945 Y44.1170 
G01 X-50.6178 Y44.1888 
G01 X-50.6453 Y44.3622 
G01 X-50.6453 Y47.1447 
G01 X-54.6978 Y47.1447 
G01 X-54.8712 Y47.1722 
G01 X-55.0381 Y47.2264 
G01 X-55.1945 Y47.3061 
G01 X-55.3366 Y47.4093 
G01 X-55.4607 Y47.5334 
G01 X-55.5639 Y47.6755 
G01 X-55.6436 Y47.8319 
G01 X-55.6978 Y47.9988 
G01 X-55.7253 Y48.1722 
G01 X-55.7253 Y54.6978 
G01 X-55.6978 Y54.8712 
G01 X-55.6745 Y54.9430 
G01 X-55.6745 Y55.5543 
G01 X-55.6516 Y55.6094 
G01 X-55.6094 Y55.6516 
G01 X-55.5543 Y55.6745 
G01 X-54.9430 Y55.6745 
G01 X-54.8712 Y55.6978 
G01 X-54.6978 Y55.7253 
G01 X-54.5222 Y55.7253 
G01 X-54.3488 Y55.6978 
G01 X-54.2770 Y55.6745 
G01 X-53.6657 Y55.6745 
G01 X-53.6106 Y55.6516 
G01 X-53.5684 Y55.6094 
G01 X-53.5455 Y55.5543 
G01 X-53.5455 Y54.9430 
G01 X-53.5222 Y54.8712 
G01 X-53.4947 Y54.6978 
G01 X-53.4947 Y49.3753 
G01 X-49.4422 Y49.3753 
G01 X-49.2688 Y49.3478 
G01 X-49.1019 Y49.2936 
G01 X-48.9455 Y49.2139 
G01 X-48.8034 Y49.1107 
G01 X-48.6793 Y48.9866 
G01 X-48.5761 Y48.8445 
G01 X-48.4964 Y48.6881 
G01 X-48.4422 Y48.5212 
G01 X-48.4147 Y48.3478 
G01 X-48.4147 Y44.3622 
G01 X-48.4422 Y44.1888 
G01 X-48.4655 Y44.1170 
G01 X-48.4655 Y43.5057 
G01 X-48.4884 Y43.4506 
G01 X-48.5306 Y43.4083 
G01 X-48.5857 Y43.3855 
G00 Z1.0000 
G00 X-42.9745 Y45.3943 
G01 Z-0.1700 F250.00 
G01 X-42.9516 Y45.4494 F250.00 
G01 X-42.9094 Y45.4916 
G01 X-42.8543 Y45.5145 
G01 X-42.2430 Y45.5145 
G01 X-42.1712 Y45.5378 
G01 X-41.9978 Y45.5653 
G01 X-41.8222 Y45.5653 
G01 X-41.6488 Y45.5378 
G01 X-41.5770 Y45.5145 
G01 X-40.9657 Y45.5145 
G01 X-40.9106 Y45.4916 
G01 X-40.8683 Y45.4494 
G01 X-40.8455 Y45.3943 
G01 X-40.8455 Y44.7830 
G01 X-40.8222 Y44.7112 
G01 X-40.7947 Y44.5378 
G01 X-40.7947 Y41.8222 
G01 X-40.8222 Y41.6488 
G01 X-40.8764 Y41.4819 
G01 X-40.9561 Y41.3255 
G01 X-41.0593 Y41.1834 
G01 X-41.1834 Y41.0593 
G01 X-41.3255 Y40.9561 
G01 X-41.4819 Y40.8764 
G01 X-41.6488 Y40.8222 
G01 X-41.8222 Y40.7947 
G01 X-41.9978 Y40.7947 
G01 X-42.1712 Y40.8222 
G01 X-42.3381 Y40.8764 
G01 X-42.4945 Y40.9561 
G01 X-42.6366 Y41.0593 
G01 X-42.7607 Y41.1834 
G01 X-42.8639 Y41.3255 
G01 X-42.9436 Y41.4819 
G01 X-42.9978 Y41.6488 
G01 X-43.0253 Y41.8222 
G01 X-43.0253 Y44.5378 
G01 X-42.9978 Y44.7112 
G01 X-42.9745 Y44.7830 
G01 X-42.9745 Y45.3943 
G00 Z1.0000 
G00 X-40.4345 Y45.3943 
G01 Z-0.1700 F250.00 
G01 X-40.4116 Y45.4494 F250.00 
G01 X-40.3694 Y45.4916 
G01 X-40.3143 Y45.5145 
G01 X-39.7030 Y45.5145 
G01 X-39.6312 Y45.5378 
G01 X-39.4578 Y45.5653 
G01 X-39.2822 Y45.5653 
G01 X-39.1088 Y45.5378 
G01 X-39.0370 Y45.5145 
G01 X-38.4257 Y45.5145 
G01 X-38.3706 Y45.4916 
G01 X-38.3284 Y45.4494 
G01 X-38.3055 Y45.3943 
G01 X-38.3055 Y44.7830 
G01 X-38.2822 Y44.7112 
G01 X-38.2547 Y44.5378 
G01 X-38.2547 Y41.8222 
G01 X-38.2822 Y41.6488 
G01 X-38.3364 Y41.4819 
G01 X-38.4161 Y41.3255 
G01 X-38.5193 Y41.1834 
G01 X-38.6434 Y41.0593 
G01 X-38.7855 Y40.9561 
G01 X-38.9419 Y40.8764 
G01 X-39.1088 Y40.8222 
G01 X-39.2822 Y40.7947 
G01 X-39.4578 Y40.7947 
G01 X-39.6312 Y40.8222 
G01 X-39.7981 Y40.8764 
G01 X-39.9545 Y40.9561 
G01 X-40.0966 Y41.0593 
G01 X-40.2207 Y41.1834 
G01 X-40.3239 Y41.3255 
G01 X-40.4036 Y41.4819 
G01 X-40.4578 Y41.6488 
G01 X-40.4853 Y41.8222 
G01 X-40.4853 Y44.5378 
G01 X-40.4578 Y44.7112 
G01 X-40.4345 Y44.7830 
G01 X-40.4345 Y45.3943 
G00 Z1.0000 
G00 X-38.4257 Y51.0055 
G01 Z-0.1700 F250.00 
G01 X-39.0370 Y51.0055 F250.00 
G01 X-39.1088 Y50.9822 
G01 X-39.2822 Y50.9547 
G01 X-39.4578 Y50.9547 
G01 X-39.6312 Y50.9822 
G01 X-39.7030 Y51.0055 
G01 X-40.3143 Y51.0055 
G01 X-40.3694 Y51.0284 
G01 X-40.4116 Y51.0706 
G01 X-40.4345 Y51.1257 
G01 X-40.4345 Y51.7370 
G01 X-40.4578 Y51.8088 
G01 X-40.4853 Y51.9822 
G01 X-40.4853 Y54.6978 
G01 X-40.4578 Y54.8712 
G01 X-40.4345 Y54.9430 
G01 X-40.4345 Y55.5543 
G01 X-40.4116 Y55.6094 
G01 X-40.3694 Y55.6516 
G01 X-40.3143 Y55.6745 
G01 X-39.7030 Y55.6745 
G01 X-39.6312 Y55.6978 
G01 X-39.4578 Y55.7253 
G01 X-39.2822 Y55.7253 
G01 X-39.1088 Y55.6978 
G01 X-39.0370 Y55.6745 
G01 X-38.4257 Y55.6745 
G01 X-38.3706 Y55.6516 
G01 X-38.3284 Y55.6094 
G01 X-38.3055 Y55.5543 
G01 X-38.3055 Y54.9430 
G01 X-38.2822 Y54.8712 
G01 X-38.2547 Y54.6978 
G01 X-38.2547 Y51.9822 
G01 X-38.2822 Y51.8088 
G01 X-38.3055 Y51.7370 
G01 X-38.3055 Y51.1257 
G01 X-38.3284 Y51.0706 
G01 X-38.3706 Y51.0284 
G01 X-38.4257 Y51.0055 
G00 Z1.0000 
G00 X-43.5057 Y51.0055 
G01 Z-0.1700 F250.00 
G01 X-44.1170 Y51.0055 F250.00 
G01 X-44.1888 Y50.9822 
G01 X-44.3622 Y50.9547 
G01 X-44.5378 Y50.9547 
G01 X-44.7112 Y50.9822 
G01 X-44.7830 Y51.0055 
G01 X-45.3943 Y51.0055 
G01 X-45.4494 Y51.0284 
G01 X-45.4916 Y51.0706 
G01 X-45.5145 Y51.1257 
G01 X-45.5145 Y51.7370 
G01 X-45.5378 Y51.8088 
G01 X-45.5653 Y51.9822 
G01 X-45.5653 Y54.6978 
G01 X-45.5378 Y54.8712 
G01 X-45.5145 Y54.9430 
G01 X-45.5145 Y55.5543 
G01 X-45.4916 Y55.6094 
G01 X-45.4494 Y55.6516 
G01 X-45.3943 Y55.6745 
G01 X-44.7830 Y55.6745 
G01 X-44.7112 Y55.6978 
G01 X-44.5378 Y55.7253 
G01 X-44.3622 Y55.7253 
G01 X-44.1888 Y55.6978 
G01 X-44.1170 Y55.6745 
G01 X-43.5057 Y55.6745 
G01 X-43.4506 Y55.6516 
G01 X-43.4083 Y55.6094 
G01 X-43.3855 Y55.5543 
G01 X-43.3855 Y54.9430 
G01 X-43.3622 Y54.8712 
G01 X-43.3347 Y54.6978 
G01 X-43.3347 Y51.9822 
G01 X-43.3622 Y51.8088 
G01 X-43.3855 Y51.7370 
G01 X-43.3855 Y51.1257 
G01 X-43.4083 Y51.0706 
G01 X-43.4506 Y51.0284 
G01 X-43.5057 Y51.0055 
G00 Z1.0000 
G00 X-48.5857 Y51.0055 
G01 Z-0.1700 F250.00 
G01 X-49.1970 Y51.0055 F250.00 
G01 X-49.2688 Y50.9822 
G01 X-49.4422 Y50.9547 
G01 X-49.6178 Y50.9547 
G01 X-49.7912 Y50.9822 
G01 X-49.8630 Y51.0055 
G01 X-50.4743 Y51.0055 
G01 X-50.5294 Y51.0284 
G01 X-50.5716 Y51.0706 
G01 X-50.5945 Y51.1257 
G01 X-50.5945 Y51.7370 
G01 X-50.6178 Y51.8088 
G01 X-50.6453 Y51.9822 
G01 X-50.6453 Y54.6978 
G01 X-50.6178 Y54.8712 
G01 X-50.5945 Y54.9430 
G01 X-50.5945 Y55.5543 
G01 X-50.5716 Y55.6094 
G01 X-50.5294 Y55.6516 
G01 X-50.4743 Y55.6745 
G01 X-49.8630 Y55.6745 
G01 X-49.7912 Y55.6978 
G01 X-49.6178 Y55.7253 
G01 X-49.4422 Y55.7253 
G01 X-49.2688 Y55.6978 
G01 X-49.1970 Y55.6745 
G01 X-48.5857 Y55.6745 
G01 X-48.5306 Y55.6516 
G01 X-48.4884 Y55.6094 
G01 X-48.4655 Y55.5543 
G01 X-48.4655 Y54.9430 
G01 X-48.4422 Y54.8712 
G01 X-48.4147 Y54.6978 
G01 X-48.4147 Y51.9822 
G01 X-48.4422 Y51.8088 
G01 X-48.4655 Y51.7370 
G01 X-48.4655 Y51.1257 
G01 X-48.4884 Y51.0706 
G01 X-48.5306 Y51.0284 
G01 X-48.5857 Y51.0055 
G00 Z1.0000 
G00 X-73.9857 Y43.3855 
G01 Z-0.1700 F250.00 
G01 X-74.5970 Y43.3855 F250.00 
G01 X-74.6688 Y43.3622 
G01 X-74.8422 Y43.3347 
G01 X-75.0178 Y43.3347 
G01 X-75.1912 Y43.3622 
G01 X-75.2630 Y43.3855 
G01 X-75.8743 Y43.3855 
G01 X-75.9294 Y43.4083 
G01 X-75.9716 Y43.4506 
G01 X-75.9945 Y43.5057 
G01 X-75.9945 Y44.1170 
G01 X-76.0178 Y44.1888 
G01 X-76.0453 Y44.3622 
G01 X-76.0453 Y47.1447 
G01 X-80.0978 Y47.1447 
G01 X-80.2712 Y47.1722 
G01 X-80.4381 Y47.2264 
G01 X-80.5945 Y47.3061 
G01 X-80.7366 Y47.4093 
G01 X-80.8607 Y47.5334 
G01 X-80.9639 Y47.6755 
G01 X-81.0436 Y47.8319 
G01 X-81.0978 Y47.9988 
G01 X-81.1253 Y48.1722 
G01 X-81.1253 Y54.6978 
G01 X-81.0978 Y54.8712 
G01 X-81.0745 Y54.9430 
G01 X-81.0745 Y55.5543 
G01 X-81.0516 Y55.6094 
G01 X-81.0094 Y55.6516 
G01 X-80.9543 Y55.6745 
G01 X-80.3430 Y55.6745 
G01 X-80.2712 Y55.6978 
G01 X-80.0978 Y55.7253 
G01 X-79.9222 Y55.7253 
G01 X-79.7488 Y55.6978 
G01 X-79.6770 Y55.6745 
G01 X-79.0657 Y55.6745 
G01 X-79.0106 Y55.6516 
G01 X-78.9684 Y55.6094 
G01 X-78.9455 Y55.5543 
G01 X-78.9455 Y54.9430 
G01 X-78.9222 Y54.8712 
G01 X-78.8947 Y54.6978 
G01 X-78.8947 Y49.3753 
G01 X-74.8422 Y49.3753 
G01 X-74.6688 Y49.3478 
G01 X-74.5019 Y49.2936 
G01 X-74.3455 Y49.2139 
G01 X-74.2034 Y49.1107 
G01 X-74.0793 Y48.9866 
G01 X-73.9761 Y48.8445 
G01 X-73.8964 Y48.6881 
G01 X-73.8422 Y48.5212 
G01 X-73.8147 Y48.3478 
G01 X-73.8147 Y44.3622 
G01 X-73.8422 Y44.1888 
G01 X-73.8655 Y44.1170 
G01 X-73.8655 Y43.5057 
G01 X-73.8884 Y43.4506 
G01 X-73.9306 Y43.4083 
G01 X-73.9857 Y43.3855 
G00 Z1.0000 
G00 X-73.4545 Y45.3943 
G01 Z-0.1700 F250.00 
G01 X-73.4316 Y45.4494 F250.00 
G01 X-73.3894 Y45.4916 
G01 X-73.3343 Y45.5145 
G01 X-72.7230 Y45.5145 
G01 X-72.6512 Y45.5378 
G01 X-72.4778 Y45.5653 
G01 X-72.3022 Y45.5653 
G01 X-72.1288 Y45.5378 
G01 X-72.0570 Y45.5145 
G01 X-71.4457 Y45.5145 
G01 X-71.3906 Y45.4916 
G01 X-71.3483 Y45.4494 
G01 X-71.3255 Y45.3943 
G01 X-71.3255 Y44.7830 
G01 X-71.3022 Y44.7112 
G01 X-71.2747 Y44.5378 
G01 X-71.2747 Y39.2822 
G01 X-71.3022 Y39.1088 
G01 X-71.3564 Y38.9419 
G01 X-71.4361 Y38.7855 
G01 X-71.5393 Y38.6434 
G01 X-71.6634 Y38.5193 
G01 X-71.8055 Y38.4161 
G01 X-71.9619 Y38.3364 
G01 X-72.1288 Y38.2822 
G01 X-72.3022 Y38.2547 
G01 X-77.6247 Y38.2547 
G01 X-77.6247 Y24.0422 
G01 X-77.6522 Y23.8688 
G01 X-77.6755 Y23.7970 
G01 X-77.6755 Y23.1857 
G01 X-77.6984 Y23.1306 
G01 X-77.7406 Y23.0884 
G01 X-77.7957 Y23.0655 
G01 X-78.4070 Y23.0655 
G01 X-78.4788 Y23.0422 
G01 X-78.6522 Y23.0147 
G01 X-78.8278 Y23.0147 
G01 X-79.0012 Y23.0422 
G01 X-79.0730 Y23.0655 
G01 X-79.6843 Y23.0655 
G01 X-79.7394 Y23.0884 
G01 X-79.7816 Y23.1306 
G01 X-79.8045 Y23.1857 
G01 X-79.8045 Y23.7970 
G01 X-79.8278 Y23.8688 
G01 X-79.8553 Y24.0422 
G01 X-79.8553 Y39.4578 
G01 X-79.8278 Y39.6312 
G01 X-79.7736 Y39.7981 
G01 X-79.6939 Y39.9545 
G01 X-79.5907 Y40.0966 
G01 X-79.4666 Y40.2207 
G01 X-79.3245 Y40.3239 
G01 X-79.1681 Y40.4036 
G01 X-79.0012 Y40.4578 
G01 X-78.8278 Y40.4853 
G01 X-73.5053 Y40.4853 
G01 X-73.5053 Y44.5378 
G01 X-73.4778 Y44.7112 
G01 X-73.4545 Y44.7830 
G01 X-73.4545 Y45.3943 
G00 Z1.0000 
G00 X-68.3745 Y45.3943 
G01 Z-0.1700 F250.00 
G01 X-68.3516 Y45.4494 F250.00 
G01 X-68.3094 Y45.4916 
G01 X-68.2543 Y45.5145 
G01 X-67.6430 Y45.5145 
G01 X-67.5712 Y45.5378 
G01 X-67.3978 Y45.5653 
G01 X-67.2222 Y45.5653 
G01 X-67.0488 Y45.5378 
G01 X-66.9770 Y45.5145 
G01 X-66.3657 Y45.5145 
G01 X-66.3106 Y45.4916 
G01 X-66.2683 Y45.4494 
G01 X-66.2455 Y45.3943 
G01 X-66.2455 Y44.7830 
G01 X-66.2222 Y44.7112 
G01 X-66.1947 Y44.5378 
G01 X-66.1947 Y41.8222 
G01 X-66.2222 Y41.6488 
G01 X-66.2764 Y41.4819 
G01 X-66.3561 Y41.3255 
G01 X-66.4593 Y41.1834 
G01 X-66.5834 Y41.0593 
G01 X-66.7255 Y40.9561 
G01 X-66.8819 Y40.8764 
G01 X-67.0488 Y40.8222 
G01 X-67.2222 Y40.7947 
G01 X-67.3978 Y40.7947 
G01 X-67.5712 Y40.8222 
G01 X-67.7381 Y40.8764 
G01 X-67.8945 Y40.9561 
G01 X-68.0366 Y41.0593 
G01 X-68.1607 Y41.1834 
G01 X-68.2639 Y41.3255 
G01 X-68.3436 Y41.4819 
G01 X-68.3978 Y41.6488 
G01 X-68.4253 Y41.8222 
G01 X-68.4253 Y44.5378 
G01 X-68.3978 Y44.7112 
G01 X-68.3745 Y44.7830 
G01 X-68.3745 Y45.3943 
G00 Z1.0000 
G00 X-65.8345 Y45.3943 
G01 Z-0.1700 F250.00 
G01 X-65.8116 Y45.4494 F250.00 
G01 X-65.7694 Y45.4916 
G01 X-65.7143 Y45.5145 
G01 X-65.1030 Y45.5145 
G01 X-65.0312 Y45.5378 
G01 X-64.8578 Y45.5653 
G01 X-64.6822 Y45.5653 
G01 X-64.5088 Y45.5378 
G01 X-64.4370 Y45.5145 
G01 X-63.8257 Y45.5145 
G01 X-63.7706 Y45.4916 
G01 X-63.7284 Y45.4494 
G01 X-63.7055 Y45.3943 
G01 X-63.7055 Y44.7830 
G01 X-63.6822 Y44.7112 
G01 X-63.6547 Y44.5378 
G01 X-63.6547 Y41.8222 
G01 X-63.6822 Y41.6488 
G01 X-63.7364 Y41.4819 
G01 X-63.8161 Y41.3255 
G01 X-63.9193 Y41.1834 
G01 X-64.0434 Y41.0593 
G01 X-64.1855 Y40.9561 
G01 X-64.3419 Y40.8764 
G01 X-64.5088 Y40.8222 
G01 X-64.6822 Y40.7947 
G01 X-64.8578 Y40.7947 
G01 X-65.0312 Y40.8222 
G01 X-65.1981 Y40.8764 
G01 X-65.3545 Y40.9561 
G01 X-65.4966 Y41.0593 
G01 X-65.6207 Y41.1834 
G01 X-65.7239 Y41.3255 
G01 X-65.8036 Y41.4819 
G01 X-65.8578 Y41.6488 
G01 X-65.8853 Y41.8222 
G01 X-65.8853 Y44.5378 
G01 X-65.8578 Y44.7112 
G01 X-65.8345 Y44.7830 
G01 X-65.8345 Y45.3943 
G00 Z1.0000 
G00 X-60.7545 Y45.3943 
G01 Z-0.1700 F250.00 
G01 X-60.7316 Y45.4494 F250.00 
G01 X-60.6894 Y45.4916 
G01 X-60.6343 Y45.5145 
G01 X-60.0230 Y45.5145 
G01 X-59.9512 Y45.5378 
G01 X-59.7778 Y45.5653 
G01 X-59.6022 Y45.5653 
G01 X-59.4288 Y45.5378 
G01 X-59.3570 Y45.5145 
G01 X-58.7457 Y45.5145 
G01 X-58.6906 Y45.4916 
G01 X-58.6484 Y45.4494 
G01 X-58.6255 Y45.3943 
G01 X-58.6255 Y44.7830 
G01 X-58.6022 Y44.7112 
G01 X-58.5747 Y44.5378 
G01 X-58.5747 Y40.4853 
G01 X-48.1053 Y40.4853 
G01 X-48.1053 Y44.5378 
G01 X-48.0778 Y44.7112 
G01 X-48.0545 Y44.7830 
G01 X-48.0545 Y45.3943 
G01 X-48.0316 Y45.4494 
G01 X-47.9894 Y45.4916 
G01 X-47.9343 Y45.5145 
G01 X-47.3230 Y45.5145 
G01 X-47.2512 Y45.5378 
G01 X-47.0778 Y45.5653 
G01 X-46.9022 Y45.5653 
G01 X-46.7288 Y45.5378 
G01 X-46.6570 Y45.5145 
G01 X-46.0457 Y45.5145 
G01 X-45.9906 Y45.4916 
G01 X-45.9484 Y45.4494 
G01 X-45.9255 Y45.3943 
G01 X-45.9255 Y44.7830 
G01 X-45.9022 Y44.7112 
G01 X-45.8747 Y44.5378 
G01 X-45.8747 Y39.2822 
G01 X-45.9022 Y39.1088 
G01 X-45.9564 Y38.9419 
G01 X-46.0361 Y38.7855 
G01 X-46.1393 Y38.6434 
G01 X-46.2634 Y38.5193 
G01 X-46.4055 Y38.4161 
G01 X-46.5619 Y38.3364 
G01 X-46.7288 Y38.2822 
G01 X-46.9022 Y38.2547 
G01 X-59.7778 Y38.2547 
G01 X-59.9512 Y38.2822 
G01 X-60.1181 Y38.3364 
G01 X-60.2745 Y38.4161 
G01 X-60.4166 Y38.5193 
G01 X-60.5407 Y38.6434 
G01 X-60.6439 Y38.7855 
G01 X-60.7236 Y38.9419 
G01 X-60.7778 Y39.1088 
G01 X-60.8053 Y39.2822 
G01 X-60.8053 Y44.5378 
G01 X-60.7778 Y44.7112 
G01 X-60.7545 Y44.7830 
G01 X-60.7545 Y45.3943 
G00 Z1.0000 
G00 X-63.8257 Y51.0055 
G01 Z-0.1700 F250.00 
G01 X-64.4370 Y51.0055 F250.00 
G01 X-64.5088 Y50.9822 
G01 X-64.6822 Y50.9547 
G01 X-64.8578 Y50.9547 
G01 X-65.0312 Y50.9822 
G01 X-65.1030 Y51.0055 
G01 X-65.7143 Y51.0055 
G01 X-65.7694 Y51.0284 
G01 X-65.8116 Y51.0706 
G01 X-65.8345 Y51.1257 
G01 X-65.8345 Y51.7370 
G01 X-65.8578 Y51.8088 
G01 X-65.8853 Y51.9822 
G01 X-65.8853 Y54.6978 
G01 X-65.8578 Y54.8712 
G01 X-65.8345 Y54.9430 
G01 X-65.8345 Y55.5543 
G01 X-65.8116 Y55.6094 
G01 X-65.7694 Y55.6516 
G01 X-65.7143 Y55.6745 
G01 X-65.1030 Y55.6745 
G01 X-65.0312 Y55.6978 
G01 X-64.8578 Y55.7253 
G01 X-64.6822 Y55.7253 
G01 X-64.5088 Y55.6978 
G01 X-64.4370 Y55.6745 
G01 X-63.8257 Y55.6745 
G01 X-63.7706 Y55.6516 
G01 X-63.7284 Y55.6094 
G01 X-63.7055 Y55.5543 
G01 X-63.7055 Y54.9430 
G01 X-63.6822 Y54.8712 
G01 X-63.6547 Y54.6978 
G01 X-63.6547 Y51.9822 
G01 X-63.6822 Y51.8088 
G01 X-63.7055 Y51.7370 
G01 X-63.7055 Y51.1257 
G01 X-63.7284 Y51.0706 
G01 X-63.7706 Y51.0284 
G01 X-63.8257 Y51.0055 
G00 Z1.0000 
G00 X-68.9057 Y51.0055 
G01 Z-0.1700 F250.00 
G01 X-69.5170 Y51.0055 F250.00 
G01 X-69.5888 Y50.9822 
G01 X-69.7622 Y50.9547 
G01 X-69.9378 Y50.9547 
G01 X-70.1112 Y50.9822 
G01 X-70.1830 Y51.0055 
G01 X-70.7943 Y51.0055 
G01 X-70.8494 Y51.0284 
G01 X-70.8916 Y51.0706 
G01 X-70.9145 Y51.1257 
G01 X-70.9145 Y51.7370 
G01 X-70.9378 Y51.8088 
G01 X-70.9653 Y51.9822 
G01 X-70.9653 Y54.6978 
G01 X-70.9378 Y54.8712 
G01 X-70.9145 Y54.9430 
G01 X-70.9145 Y55.5543 
G01 X-70.8916 Y55.6094 
G01 X-70.8494 Y55.6516 
G01 X-70.7943 Y55.6745 
G01 X-70.1830 Y55.6745 
G01 X-70.1112 Y55.6978 
G01 X-69.9378 Y55.7253 
G01 X-69.7622 Y55.7253 
G01 X-69.5888 Y55.6978 
G01 X-69.5170 Y55.6745 
G01 X-68.9057 Y55.6745 
G01 X-68.8506 Y55.6516 
G01 X-68.8084 Y55.6094 
G01 X-68.7855 Y55.5543 
G01 X-68.7855 Y54.9430 
G01 X-68.7622 Y54.8712 
G01 X-68.7347 Y54.6978 
G01 X-68.7347 Y51.9822 
G01 X-68.7622 Y51.8088 
G01 X-68.7855 Y51.7370 
G01 X-68.7855 Y51.1257 
G01 X-68.8084 Y51.0706 
G01 X-68.8506 Y51.0284 
G01 X-68.9057 Y51.0055 
G00 Z1.0000 
G00 X-73.9857 Y51.0055 
G01 Z-0.1700 F250.00 
G01 X-74.5970 Y51.0055 F250.00 
G01 X-74.6688 Y50.9822 
G01 X-74.8422 Y50.9547 
G01 X-75.0178 Y50.9547 
G01 X-75.1912 Y50.9822 
G01 X-75.2630 Y51.0055 
G01 X-75.8743 Y51.0055 
G01 X-75.9294 Y51.0284 
G01 X-75.9716 Y51.0706 
G01 X-75.9945 Y51.1257 
G01 X-75.9945 Y51.7370 
G01 X-76.0178 Y51.8088 
G01 X-76.0453 Y51.9822 
G01 X-76.0453 Y54.6978 
G01 X-76.0178 Y54.8712 
G01 X-75.9945 Y54.9430 
G01 X-75.9945 Y55.5543 
G01 X-75.9716 Y55.6094 
G01 X-75.9294 Y55.6516 
G01 X-75.8743 Y55.6745 
G01 X-75.2630 Y55.6745 
G01 X-75.1912 Y55.6978 
G01 X-75.0178 Y55.7253 
G01 X-74.8422 Y55.7253 
G01 X-74.6688 Y55.6978 
G01 X-74.5970 Y55.6745 
G01 X-73.9857 Y55.6745 
G01 X-73.9306 Y55.6516 
G01 X-73.8884 Y55.6094 
G01 X-73.8655 Y55.5543 
G01 X-73.8655 Y54.9430 
G01 X-73.8422 Y54.8712 
G01 X-73.8147 Y54.6978 
G01 X-73.8147 Y51.9822 
G01 X-73.8422 Y51.8088 
G01 X-73.8655 Y51.7370 
G01 X-73.8655 Y51.1257 
G01 X-73.8884 Y51.0706 
G01 X-73.9306 Y51.0284 
G01 X-73.9857 Y51.0055 
G00 Z1.0000 
G00 X-61.9043 Y25.1945 
G01 Z-0.1700 F250.00 
G01 X-61.2930 Y25.1945 F250.00 
G01 X-61.2212 Y25.2178 
G01 X-61.0478 Y25.2453 
G01 X-59.5353 Y25.2453 
G01 X-59.5353 Y26.7578 
G01 X-59.5078 Y26.9312 
G01 X-59.4536 Y27.0981 
G01 X-59.3739 Y27.2545 
G01 X-59.2707 Y27.3966 
G01 X-59.1466 Y27.5207 
G01 X-59.0045 Y27.6239 
G01 X-58.8481 Y27.7036 
G01 X-58.6812 Y27.7578 
G01 X-58.5078 Y27.7853 
G01 X-58.3322 Y27.7853 
G01 X-58.1588 Y27.7578 
G01 X-57.9919 Y27.7036 
G01 X-57.8355 Y27.6239 
G01 X-57.6934 Y27.5207 
G01 X-57.5693 Y27.3966 
G01 X-57.4661 Y27.2545 
G01 X-57.3864 Y27.0981 
G01 X-57.3322 Y26.9312 
G01 X-57.3047 Y26.7578 
G01 X-57.3047 Y24.0422 
G01 X-57.3322 Y23.8688 
G01 X-57.3555 Y23.7970 
G01 X-57.3555 Y23.1857 
G01 X-57.3784 Y23.1306 
G01 X-57.4206 Y23.0884 
G01 X-57.4757 Y23.0655 
G01 X-58.0870 Y23.0655 
G01 X-58.1588 Y23.0422 
G01 X-58.3322 Y23.0147 
G01 X-61.0478 Y23.0147 
G01 X-61.2212 Y23.0422 
G01 X-61.2930 Y23.0655 
G01 X-61.9043 Y23.0655 
G01 X-61.9594 Y23.0884 
G01 X-62.0016 Y23.1306 
G01 X-62.0245 Y23.1857 
G01 X-62.0245 Y23.7970 
G01 X-62.0478 Y23.8688 
G01 X-62.0753 Y24.0422 
G01 X-62.0753 Y24.2178 
G01 X-62.0478 Y24.3912 
G01 X-62.0245 Y24.4630 
G01 X-62.0245 Y25.0743 
G01 X-62.0016 Y25.1294 
G01 X-61.9594 Y25.1716 
G01 X-61.9043 Y25.1945 
G00 Z1.0000 
G00 X-64.4443 Y25.1945 
G01 Z-0.1700 F250.00 
G01 X-63.8330 Y25.1945 F250.00 
G01 X-63.7612 Y25.2178 
G01 X-63.5878 Y25.2453 
G01 X-63.4122 Y25.2453 
G01 X-63.2388 Y25.2178 
G01 X-63.1670 Y25.1945 
G01 X-62.5557 Y25.1945 
G01 X-62.5006 Y25.1716 
G01 X-62.4584 Y25.1294 
G01 X-62.4355 Y25.0743 
G01 X-62.4355 Y24.4630 
G01 X-62.4122 Y24.3912 
G01 X-62.3847 Y24.2178 
G01 X-62.3847 Y20.1653 
G01 X-58.3322 Y20.1653 
G01 X-58.1588 Y20.1378 
G01 X-57.9919 Y20.0836 
G01 X-57.8355 Y20.0039 
G01 X-57.6934 Y19.9007 
G01 X-57.5693 Y19.7766 
G01 X-57.4661 Y19.6345 
G01 X-57.3864 Y19.4781 
G01 X-57.3322 Y19.3112 
G01 X-57.3047 Y19.1378 
G01 X-57.3047 Y13.8822 
G01 X-57.3322 Y13.7088 
G01 X-57.3555 Y13.6370 
G01 X-57.3555 Y13.0257 
G01 X-57.3784 Y12.9706 
G01 X-57.4206 Y12.9284 
G01 X-57.4757 Y12.9055 
G01 X-58.0870 Y12.9055 
G01 X-58.1588 Y12.8822 
G01 X-58.3322 Y12.8547 
G01 X-58.5078 Y12.8547 
G01 X-58.6812 Y12.8822 
G01 X-58.7530 Y12.9055 
G01 X-59.3643 Y12.9055 
G01 X-59.4194 Y12.9284 
G01 X-59.4616 Y12.9706 
G01 X-59.4845 Y13.0257 
G01 X-59.4845 Y13.6370 
G01 X-59.5078 Y13.7088 
G01 X-59.5353 Y13.8822 
G01 X-59.5353 Y17.9347 
G01 X-63.5878 Y17.9347 
G01 X-63.7612 Y17.9622 
G01 X-63.9281 Y18.0164 
G01 X-64.0845 Y18.0961 
G01 X-64.2266 Y18.1993 
G01 X-64.3507 Y18.3234 
G01 X-64.4539 Y18.4655 
G01 X-64.5336 Y18.6219 
G01 X-64.5878 Y18.7888 
G01 X-64.6153 Y18.9622 
G01 X-64.6153 Y24.2178 
G01 X-64.5878 Y24.3912 
G01 X-64.5645 Y24.4630 
G01 X-64.5645 Y25.0743 
G01 X-64.5416 Y25.1294 
G01 X-64.4994 Y25.1716 
G01 X-64.4443 Y25.1945 
G00 Z1.0000 
G00 X-64.9755 Y23.1857 
G01 Z-0.1700 F250.00 
G01 X-64.9984 Y23.1306 F250.00 
G01 X-65.0406 Y23.0884 
G01 X-65.0957 Y23.0655 
G01 X-65.7070 Y23.0655 
G01 X-65.7788 Y23.0422 
G01 X-65.9522 Y23.0147 
G01 X-66.1278 Y23.0147 
G01 X-66.3012 Y23.0422 
G01 X-66.3730 Y23.0655 
G01 X-66.9843 Y23.0655 
G01 X-67.0394 Y23.0884 
G01 X-67.0816 Y23.1306 
G01 X-67.1045 Y23.1857 
G01 X-67.1045 Y23.7970 
G01 X-67.1278 Y23.8688 
G01 X-67.1553 Y24.0422 
G01 X-67.1553 Y29.2978 
G01 X-67.1278 Y29.4712 
G01 X-67.0736 Y29.6381 
G01 X-66.9939 Y29.7945 
G01 X-66.8907 Y29.9366 
G01 X-66.7666 Y30.0607 
G01 X-66.6245 Y30.1639 
G01 X-66.4681 Y30.2436 
G01 X-66.3012 Y30.2978 
G01 X-66.1278 Y30.3253 
G01 X-53.2522 Y30.3253 
G01 X-53.0788 Y30.2978 
G01 X-52.9119 Y30.2436 
G01 X-52.7555 Y30.1639 
G01 X-52.6134 Y30.0607 
G01 X-52.4893 Y29.9366 
G01 X-52.3861 Y29.7945 
G01 X-52.3064 Y29.6381 
G01 X-52.2522 Y29.4712 
G01 X-52.2247 Y29.2978 
G01 X-52.2247 Y24.0422 
G01 X-52.2522 Y23.8688 
G01 X-52.2755 Y23.7970 
G01 X-52.2755 Y23.1857 
G01 X-52.2983 Y23.1306 
G01 X-52.3406 Y23.0884 
G01 X-52.3957 Y23.0655 
G01 X-53.0070 Y23.0655 
G01 X-53.0788 Y23.0422 
G01 X-53.2522 Y23.0147 
G01 X-53.4278 Y23.0147 
G01 X-53.6012 Y23.0422 
G01 X-53.6730 Y23.0655 
G01 X-54.2843 Y23.0655 
G01 X-54.3394 Y23.0884 
G01 X-54.3816 Y23.1306 
G01 X-54.4045 Y23.1857 
G01 X-54.4045 Y23.7970 
G01 X-54.4278 Y23.8688 
G01 X-54.4553 Y24.0422 
G01 X-54.4553 Y28.0947 
G01 X-64.9247 Y28.0947 
G01 X-64.9247 Y24.0422 
G01 X-64.9522 Y23.8688 
G01 X-64.9755 Y23.7970 
G01 X-64.9755 Y23.1857 
G00 Z1.0000 
G00 X-70.0555 Y23.1857 
G01 Z-0.1700 F250.00 
G01 X-70.0784 Y23.1306 F250.00 
G01 X-70.1206 Y23.0884 
G01 X-70.1757 Y23.0655 
G01 X-70.7870 Y23.0655 
G01 X-70.8588 Y23.0422 
G01 X-71.0322 Y23.0147 
G01 X-71.2078 Y23.0147 
G01 X-71.3812 Y23.0422 
G01 X-71.4530 Y23.0655 
G01 X-72.0643 Y23.0655 
G01 X-72.1194 Y23.0884 
G01 X-72.1616 Y23.1306 
G01 X-72.1845 Y23.1857 
G01 X-72.1845 Y23.7970 
G01 X-72.2078 Y23.8688 
G01 X-72.2353 Y24.0422 
G01 X-72.2353 Y26.7578 
G01 X-72.2078 Y26.9312 
G01 X-72.1536 Y27.0981 
G01 X-72.0739 Y27.2545 
G01 X-71.9707 Y27.3966 
G01 X-71.8466 Y27.5207 
G01 X-71.7045 Y27.6239 
G01 X-71.5481 Y27.7036 
G01 X-71.3812 Y27.7578 
G01 X-71.2078 Y27.7853 
G01 X-71.0322 Y27.7853 
G01 X-70.8588 Y27.7578 
G01 X-70.6919 Y27.7036 
G01 X-70.5355 Y27.6239 
G01 X-70.3934 Y27.5207 
G01 X-70.2693 Y27.3966 
G01 X-70.1661 Y27.2545 
G01 X-70.0864 Y27.0981 
G01 X-70.0322 Y26.9312 
G01 X-70.0047 Y26.7578 
G01 X-70.0047 Y24.0422 
G01 X-70.0322 Y23.8688 
G01 X-70.0555 Y23.7970 
G01 X-70.0555 Y23.1857 
G00 Z1.0000 
G00 X-74.6043 Y17.5745 
G01 Z-0.1700 F250.00 
G01 X-73.9930 Y17.5745 F250.00 
G01 X-73.9212 Y17.5978 
G01 X-73.7478 Y17.6253 
G01 X-73.5722 Y17.6253 
G01 X-73.3988 Y17.5978 
G01 X-73.3270 Y17.5745 
G01 X-72.7157 Y17.5745 
G01 X-72.6606 Y17.5516 
G01 X-72.6184 Y17.5094 
G01 X-72.5955 Y17.4543 
G01 X-72.5955 Y16.8430 
G01 X-72.5722 Y16.7712 
G01 X-72.5447 Y16.5978 
G01 X-72.5447 Y13.8822 
G01 X-72.5722 Y13.7088 
G01 X-72.5955 Y13.6370 
G01 X-72.5955 Y13.0257 
G01 X-72.6184 Y12.9706 
G01 X-72.6606 Y12.9284 
G01 X-72.7157 Y12.9055 
G01 X-73.3270 Y12.9055 
G01 X-73.3988 Y12.8822 
G01 X-73.5722 Y12.8547 
G01 X-73.7478 Y12.8547 
G01 X-73.9212 Y12.8822 
G01 X-73.9930 Y12.9055 
G01 X-74.6043 Y12.9055 
G01 X-74.6594 Y12.9284 
G01 X-74.7016 Y12.9706 
G01 X-74.7245 Y13.0257 
G01 X-74.7245 Y13.6370 
G01 X-74.7478 Y13.7088 
G01 X-74.7753 Y13.8822 
G01 X-74.7753 Y16.5978 
G01 X-74.7478 Y16.7712 
G01 X-74.7245 Y16.8430 
G01 X-74.7245 Y17.4543 
G01 X-74.7016 Y17.5094 
G01 X-74.6594 Y17.5516 
G01 X-74.6043 Y17.5745 
G00 Z1.0000 
G00 X-69.5243 Y17.5745 
G01 Z-0.1700 F250.00 
G01 X-68.9130 Y17.5745 F250.00 
G01 X-68.8412 Y17.5978 
G01 X-68.6678 Y17.6253 
G01 X-68.4922 Y17.6253 
G01 X-68.3188 Y17.5978 
G01 X-68.2470 Y17.5745 
G01 X-67.6357 Y17.5745 
G01 X-67.5806 Y17.5516 
G01 X-67.5384 Y17.5094 
G01 X-67.5155 Y17.4543 
G01 X-67.5155 Y16.8430 
G01 X-67.4922 Y16.7712 
G01 X-67.4647 Y16.5978 
G01 X-67.4647 Y13.8822 
G01 X-67.4922 Y13.7088 
G01 X-67.5155 Y13.6370 
G01 X-67.5155 Y13.0257 
G01 X-67.5384 Y12.9706 
G01 X-67.5806 Y12.9284 
G01 X-67.6357 Y12.9055 
G01 X-68.2470 Y12.9055 
G01 X-68.3188 Y12.8822 
G01 X-68.4922 Y12.8547 
G01 X-68.6678 Y12.8547 
G01 X-68.8412 Y12.8822 
G01 X-68.9130 Y12.9055 
G01 X-69.5243 Y12.9055 
G01 X-69.5794 Y12.9284 
G01 X-69.6216 Y12.9706 
G01 X-69.6445 Y13.0257 
G01 X-69.6445 Y13.6370 
G01 X-69.6678 Y13.7088 
G01 X-69.6953 Y13.8822 
G01 X-69.6953 Y16.5978 
G01 X-69.6678 Y16.7712 
G01 X-69.6445 Y16.8430 
G01 X-69.6445 Y17.4543 
G01 X-69.6216 Y17.5094 
G01 X-69.5794 Y17.5516 
G01 X-69.5243 Y17.5745 
G00 Z1.0000 
G00 X-13.6443 Y17.5745 
G01 Z-0.1700 F250.00 
G01 X-13.0330 Y17.5745 F250.00 
G01 X-12.9612 Y17.5978 
G01 X-12.7878 Y17.6253 
G01 X-12.6122 Y17.6253 
G01 X-12.4388 Y17.5978 
G01 X-12.3670 Y17.5745 
G01 X-11.7557 Y17.5745 
G01 X-11.7006 Y17.5516 
G01 X-11.6584 Y17.5094 
G01 X-11.6355 Y17.4543 
G01 X-11.6355 Y16.8430 
G01 X-11.6122 Y16.7712 
G01 X-11.5847 Y16.5978 
G01 X-11.5847 Y13.8822 
G01 X-11.6122 Y13.7088 
G01 X-11.6355 Y13.6370 
G01 X-11.6355 Y13.0257 
G01 X-11.6584 Y12.9706 
G01 X-11.7006 Y12.9284 
G01 X-11.7557 Y12.9055 
G01 X-12.3670 Y12.9055 
G01 X-12.4388 Y12.8822 
G01 X-12.6122 Y12.8547 
G01 X-12.7878 Y12.8547 
G01 X-12.9612 Y12.8822 
G01 X-13.0330 Y12.9055 
G01 X-13.6443 Y12.9055 
G01 X-13.6994 Y12.9284 
G01 X-13.7416 Y12.9706 
G01 X-13.7645 Y13.0257 
G01 X-13.7645 Y13.6370 
G01 X-13.7878 Y13.7088 
G01 X-13.8153 Y13.8822 
G01 X-13.8153 Y16.5978 
G01 X-13.7878 Y16.7712 
G01 X-13.7645 Y16.8430 
G01 X-13.7645 Y17.4543 
G01 X-13.7416 Y17.5094 
G01 X-13.6994 Y17.5516 
G01 X-13.6443 Y17.5745 
G00 Z1.0000 
G00 X-18.7243 Y17.5745 
G01 Z-0.1700 F250.00 
G01 X-18.1130 Y17.5745 F250.00 
G01 X-18.0412 Y17.5978 
G01 X-17.8678 Y17.6253 
G01 X-17.6922 Y17.6253 
G01 X-17.5188 Y17.5978 
G01 X-17.4470 Y17.5745 
G01 X-16.8357 Y17.5745 
G01 X-16.7806 Y17.5516 
G01 X-16.7384 Y17.5094 
G01 X-16.7155 Y17.4543 
G01 X-16.7155 Y16.8430 
G01 X-16.6922 Y16.7712 
G01 X-16.6647 Y16.5978 
G01 X-16.6647 Y13.8822 
G01 X-16.6922 Y13.7088 
G01 X-16.7155 Y13.6370 
G01 X-16.7155 Y13.0257 
G01 X-16.7384 Y12.9706 
G01 X-16.7806 Y12.9284 
G01 X-16.8357 Y12.9055 
G01 X-17.4470 Y12.9055 
G01 X-17.5188 Y12.8822 
G01 X-17.6922 Y12.8547 
G01 X-17.8678 Y12.8547 
G01 X-18.0412 Y12.8822 
G01 X-18.1130 Y12.9055 
G01 X-18.7243 Y12.9055 
G01 X-18.7794 Y12.9284 
G01 X-18.8216 Y12.9706 
G01 X-18.8445 Y13.0257 
G01 X-18.8445 Y13.6370 
G01 X-18.8678 Y13.7088 
G01 X-18.8953 Y13.8822 
G01 X-18.8953 Y16.5978 
G01 X-18.8678 Y16.7712 
G01 X-18.8445 Y16.8430 
G01 X-18.8445 Y17.4543 
G01 X-18.8216 Y17.5094 
G01 X-18.7794 Y17.5516 
G01 X-18.7243 Y17.5745 
G00 Z1.0000 
G00 X-23.8043 Y17.5745 
G01 Z-0.1700 F250.00 
G01 X-23.1930 Y17.5745 F250.00 
G01 X-23.1212 Y17.5978 
G01 X-22.9478 Y17.6253 
G01 X-22.7722 Y17.6253 
G01 X-22.5988 Y17.5978 
G01 X-22.5270 Y17.5745 
G01 X-21.9157 Y17.5745 
G01 X-21.8606 Y17.5516 
G01 X-21.8184 Y17.5094 
G01 X-21.7955 Y17.4543 
G01 X-21.7955 Y16.8430 
G01 X-21.7722 Y16.7712 
G01 X-21.7447 Y16.5978 
G01 X-21.7447 Y13.8822 
G01 X-21.7722 Y13.7088 
G01 X-21.7955 Y13.6370 
G01 X-21.7955 Y13.0257 
G01 X-21.8184 Y12.9706 
G01 X-21.8606 Y12.9284 
G01 X-21.9157 Y12.9055 
G01 X-22.5270 Y12.9055 
G01 X-22.5988 Y12.8822 
G01 X-22.7722 Y12.8547 
G01 X-22.9478 Y12.8547 
G01 X-23.1212 Y12.8822 
G01 X-23.1930 Y12.9055 
G01 X-23.8043 Y12.9055 
G01 X-23.8594 Y12.9284 
G01 X-23.9016 Y12.9706 
G01 X-23.9245 Y13.0257 
G01 X-23.9245 Y13.6370 
G01 X-23.9478 Y13.7088 
G01 X-23.9753 Y13.8822 
G01 X-23.9753 Y16.5978 
G01 X-23.9478 Y16.7712 
G01 X-23.9245 Y16.8430 
G01 X-23.9245 Y17.4543 
G01 X-23.9016 Y17.5094 
G01 X-23.8594 Y17.5516 
G01 X-23.8043 Y17.5745 
G00 Z1.0000 
G00 X-24.3355 Y23.1857 
G01 Z-0.1700 F250.00 
G01 X-24.3584 Y23.1306 F250.00 
G01 X-24.4006 Y23.0884 
G01 X-24.4557 Y23.0655 
G01 X-25.0670 Y23.0655 
G01 X-25.1388 Y23.0422 
G01 X-25.3122 Y23.0147 
G01 X-25.4878 Y23.0147 
G01 X-25.6612 Y23.0422 
G01 X-25.7330 Y23.0655 
G01 X-26.3443 Y23.0655 
G01 X-26.3994 Y23.0884 
G01 X-26.4416 Y23.1306 
G01 X-26.4645 Y23.1857 
G01 X-26.4645 Y23.7970 
G01 X-26.4878 Y23.8688 
G01 X-26.5153 Y24.0422 
G01 X-26.5153 Y26.7578 
G01 X-26.4878 Y26.9312 
G01 X-26.4336 Y27.0981 
G01 X-26.3539 Y27.2545 
G01 X-26.2507 Y27.3966 
G01 X-26.1266 Y27.5207 
G01 X-25.9845 Y27.6239 
G01 X-25.8281 Y27.7036 
G01 X-25.6612 Y27.7578 
G01 X-25.4878 Y27.7853 
G01 X-25.3122 Y27.7853 
G01 X-25.1388 Y27.7578 
G01 X-24.9719 Y27.7036 
G01 X-24.8155 Y27.6239 
G01 X-24.6734 Y27.5207 
G01 X-24.5493 Y27.3966 
G01 X-24.4461 Y27.2545 
G01 X-24.3664 Y27.0981 
G01 X-24.3122 Y26.9312 
G01 X-24.2847 Y26.7578 
G01 X-24.2847 Y24.0422 
G01 X-24.3122 Y23.8688 
G01 X-24.3355 Y23.7970 
G01 X-24.3355 Y23.1857 
G00 Z1.0000 
G00 X-21.7955 Y23.1857 
G01 Z-0.1700 F250.00 
G01 X-21.8184 Y23.1306 F250.00 
G01 X-21.8606 Y23.0884 
G01 X-21.9157 Y23.0655 
G01 X-22.5270 Y23.0655 
G01 X-22.5988 Y23.0422 
G01 X-22.7722 Y23.0147 
G01 X-22.9478 Y23.0147 
G01 X-23.1212 Y23.0422 
G01 X-23.1930 Y23.0655 
G01 X-23.8043 Y23.0655 
G01 X-23.8594 Y23.0884 
G01 X-23.9016 Y23.1306 
G01 X-23.9245 Y23.1857 
G01 X-23.9245 Y23.7970 
G01 X-23.9478 Y23.8688 
G01 X-23.9753 Y24.0422 
G01 X-23.9753 Y30.6347 
G01 X-47.1447 Y30.6347 
G01 X-47.1447 Y24.0422 
G01 X-47.1722 Y23.8688 
G01 X-47.1955 Y23.7970 
G01 X-47.1955 Y23.1857 
G01 X-47.2184 Y23.1306 
G01 X-47.2606 Y23.0884 
G01 X-47.3157 Y23.0655 
G01 X-47.9270 Y23.0655 
G01 X-47.9988 Y23.0422 
G01 X-48.1722 Y23.0147 
G01 X-48.3478 Y23.0147 
G01 X-48.5212 Y23.0422 
G01 X-48.5930 Y23.0655 
G01 X-49.2043 Y23.0655 
G01 X-49.2594 Y23.0884 
G01 X-49.3016 Y23.1306 
G01 X-49.3245 Y23.1857 
G01 X-49.3245 Y23.7970 
G01 X-49.3478 Y23.8688 
G01 X-49.3753 Y24.0422 
G01 X-49.3753 Y30.6347 
G01 X-72.5447 Y30.6347 
G01 X-72.5447 Y24.0422 
G01 X-72.5722 Y23.8688 
G01 X-72.5955 Y23.7970 
G01 X-72.5955 Y23.1857 
G01 X-72.6184 Y23.1306 
G01 X-72.6606 Y23.0884 
G01 X-72.7157 Y23.0655 
G01 X-73.3270 Y23.0655 
G01 X-73.3988 Y23.0422 
G01 X-73.5722 Y23.0147 
G01 X-73.7478 Y23.0147 
G01 X-73.9212 Y23.0422 
G01 X-73.9930 Y23.0655 
G01 X-74.6043 Y23.0655 
G01 X-74.6594 Y23.0884 
G01 X-74.7016 Y23.1306 
G01 X-74.7245 Y23.1857 
G01 X-74.7245 Y23.7970 
G01 X-74.7478 Y23.8688 
G01 X-74.7753 Y24.0422 
G01 X-74.7753 Y31.8378 
G01 X-74.7478 Y32.0112 
G01 X-74.6936 Y32.1781 
G01 X-74.6139 Y32.3345 
G01 X-74.5107 Y32.4766 
G01 X-74.3866 Y32.6007 
G01 X-74.2445 Y32.7039 
G01 X-74.0881 Y32.7836 
G01 X-73.9212 Y32.8378 
G01 X-73.7478 Y32.8653 
G01 X-5.0371 Y32.8653 
G01 X-5.0167 Y32.9145 
G01 X-4.9745 Y32.9567 
G01 X-4.9194 Y32.9796 
G01 X-2.7006 Y32.9796 
G01 X-2.6455 Y32.9567 
G01 X-2.6033 Y32.9145 
G01 X-2.5804 Y32.8594 
G01 X-2.5804 Y30.6406 
G01 X-2.6033 Y30.5855 
G01 X-2.6455 Y30.5433 
G01 X-2.7006 Y30.5204 
G01 X-4.9194 Y30.5204 
G01 X-4.9745 Y30.5433 
G01 X-5.0167 Y30.5855 
G01 X-5.0371 Y30.6347 
G01 X-21.7447 Y30.6347 
G01 X-21.7447 Y24.0422 
G01 X-21.7722 Y23.8688 
G01 X-21.7955 Y23.7970 
G01 X-21.7955 Y23.1857 
G00 Z1.0000 
G00 X-19.2555 Y23.1857 
G01 Z-0.1700 F250.00 
G01 X-19.2783 Y23.1306 F250.00 
G01 X-19.3206 Y23.0884 
G01 X-19.3757 Y23.0655 
G01 X-19.9870 Y23.0655 
G01 X-20.0588 Y23.0422 
G01 X-20.2322 Y23.0147 
G01 X-20.4078 Y23.0147 
G01 X-20.5812 Y23.0422 
G01 X-20.6530 Y23.0655 
G01 X-21.2643 Y23.0655 
G01 X-21.3194 Y23.0884 
G01 X-21.3616 Y23.1306 
G01 X-21.3845 Y23.1857 
G01 X-21.3845 Y23.7970 
G01 X-21.4078 Y23.8688 
G01 X-21.4353 Y24.0422 
G01 X-21.4353 Y26.7578 
G01 X-21.4078 Y26.9312 
G01 X-21.3536 Y27.0981 
G01 X-21.2739 Y27.2545 
G01 X-21.1707 Y27.3966 
G01 X-21.0466 Y27.5207 
G01 X-20.9045 Y27.6239 
G01 X-20.7481 Y27.7036 
G01 X-20.5812 Y27.7578 
G01 X-20.4078 Y27.7853 
G01 X-20.2322 Y27.7853 
G01 X-20.0588 Y27.7578 
G01 X-19.8919 Y27.7036 
G01 X-19.7355 Y27.6239 
G01 X-19.5934 Y27.5207 
G01 X-19.4693 Y27.3966 
G01 X-19.3661 Y27.2545 
G01 X-19.2864 Y27.0981 
G01 X-19.2322 Y26.9312 
G01 X-19.2047 Y26.7578 
G01 X-19.2047 Y24.0422 
G01 X-19.2322 Y23.8688 
G01 X-19.2555 Y23.7970 
G01 X-19.2555 Y23.1857 
G00 Z1.0000 
G00 X-13.6443 Y25.1945 
G01 Z-0.1700 F250.00 
G01 X-13.0330 Y25.1945 F250.00 
G01 X-12.9612 Y25.2178 
G01 X-12.7878 Y25.2453 
G01 X-12.6122 Y25.2453 
G01 X-12.4388 Y25.2178 
G01 X-12.3670 Y25.1945 
G01 X-11.7557 Y25.1945 
G01 X-11.7006 Y25.1716 
G01 X-11.6584 Y25.1294 
G01 X-11.6355 Y25.0743 
G01 X-11.6355 Y24.4630 
G01 X-11.6122 Y24.3912 
G01 X-11.5847 Y24.2178 
G01 X-11.5847 Y21.4353 
G01 X-7.5322 Y21.4353 
G01 X-7.3588 Y21.4078 
G01 X-7.1919 Y21.3536 
G01 X-7.0355 Y21.2739 
G01 X-6.8934 Y21.1707 
G01 X-6.7693 Y21.0466 
G01 X-6.6661 Y20.9045 
G01 X-6.5864 Y20.7481 
G01 X-6.5322 Y20.5812 
G01 X-6.5047 Y20.4078 
G01 X-6.5047 Y13.8822 
G01 X-6.5322 Y13.7088 
G01 X-6.5555 Y13.6370 
G01 X-6.5555 Y13.0257 
G01 X-6.5784 Y12.9706 
G01 X-6.6206 Y12.9284 
G01 X-6.6757 Y12.9055 
G01 X-7.2870 Y12.9055 
G01 X-7.3588 Y12.8822 
G01 X-7.5322 Y12.8547 
G01 X-7.7078 Y12.8547 
G01 X-7.8812 Y12.8822 
G01 X-7.9530 Y12.9055 
G01 X-8.5643 Y12.9055 
G01 X-8.6194 Y12.9284 
G01 X-8.6616 Y12.9706 
G01 X-8.6845 Y13.0257 
G01 X-8.6845 Y13.6370 
G01 X-8.7078 Y13.7088 
G01 X-8.7353 Y13.8822 
G01 X-8.7353 Y19.2047 
G01 X-12.7878 Y19.2047 
G01 X-12.9612 Y19.2322 
G01 X-13.1281 Y19.2864 
G01 X-13.2845 Y19.3661 
G01 X-13.4266 Y19.4693 
G01 X-13.5507 Y19.5934 
G01 X-13.6539 Y19.7355 
G01 X-13.7336 Y19.8919 
G01 X-13.7878 Y20.0588 
G01 X-13.8153 Y20.2322 
G01 X-13.8153 Y24.2178 
G01 X-13.7878 Y24.3912 
G01 X-13.7645 Y24.4630 
G01 X-13.7645 Y25.0743 
G01 X-13.7416 Y25.1294 
G01 X-13.6994 Y25.1716 
G01 X-13.6443 Y25.1945 
G00 Z1.0000 
G00 X-7.5322 Y25.2453 
G01 Z-0.1700 F250.00 
G01 X-7.3588 Y25.2178 F250.00 
G01 X-7.2870 Y25.1945 
G01 X-6.6757 Y25.1945 
G01 X-6.6206 Y25.1716 
G01 X-6.5784 Y25.1294 
G01 X-6.5555 Y25.0743 
G01 X-6.5555 Y24.4630 
G01 X-6.5322 Y24.3912 
G01 X-6.5047 Y24.2178 
G01 X-6.5047 Y24.0422 
G01 X-6.5322 Y23.8688 
G01 X-6.5555 Y23.7970 
G01 X-6.5555 Y23.1857 
G01 X-6.5784 Y23.1306 
G01 X-6.6206 Y23.0884 
G01 X-6.6757 Y23.0655 
G01 X-7.2870 Y23.0655 
G01 X-7.3588 Y23.0422 
G01 X-7.5322 Y23.0147 
G01 X-10.2478 Y23.0147 
G01 X-10.4212 Y23.0422 
G01 X-10.4930 Y23.0655 
G01 X-11.1043 Y23.0655 
G01 X-11.1594 Y23.0884 
G01 X-11.2016 Y23.1306 
G01 X-11.2245 Y23.1857 
G01 X-11.2245 Y23.7970 
G01 X-11.2478 Y23.8688 
G01 X-11.2753 Y24.0422 
G01 X-11.2753 Y26.7578 
G01 X-11.2478 Y26.9312 
G01 X-11.1936 Y27.0981 
G01 X-11.1139 Y27.2545 
G01 X-11.0107 Y27.3966 
G01 X-10.8866 Y27.5207 
G01 X-10.7445 Y27.6239 
G01 X-10.5881 Y27.7036 
G01 X-10.4212 Y27.7578 
G01 X-10.2478 Y27.7853 
G01 X-10.0722 Y27.7853 
G01 X-9.8988 Y27.7578 
G01 X-9.7319 Y27.7036 
G01 X-9.5755 Y27.6239 
G01 X-9.4334 Y27.5207 
G01 X-9.3093 Y27.3966 
G01 X-9.2061 Y27.2545 
G01 X-9.1264 Y27.0981 
G01 X-9.0722 Y26.9312 
G01 X-9.0447 Y26.7578 
G01 X-9.0447 Y25.2453 
G01 X-7.5322 Y25.2453 
G00 Z1.0000 
G00 X-39.0443 Y17.5745 
G01 Z-0.1700 F250.00 
G01 X-38.4330 Y17.5745 F250.00 
G01 X-38.3612 Y17.5978 
G01 X-38.1878 Y17.6253 
G01 X-38.0122 Y17.6253 
G01 X-37.8388 Y17.5978 
G01 X-37.7670 Y17.5745 
G01 X-37.1557 Y17.5745 
G01 X-37.1006 Y17.5516 
G01 X-37.0584 Y17.5094 
G01 X-37.0355 Y17.4543 
G01 X-37.0355 Y16.8430 
G01 X-37.0122 Y16.7712 
G01 X-36.9847 Y16.5978 
G01 X-36.9847 Y13.8822 
G01 X-37.0122 Y13.7088 
G01 X-37.0355 Y13.6370 
G01 X-37.0355 Y13.0257 
G01 X-37.0584 Y12.9706 
G01 X-37.1006 Y12.9284 
G01 X-37.1557 Y12.9055 
G01 X-37.7670 Y12.9055 
G01 X-37.8388 Y12.8822 
G01 X-38.0122 Y12.8547 
G01 X-38.1878 Y12.8547 
G01 X-38.3612 Y12.8822 
G01 X-38.4330 Y12.9055 
G01 X-39.0443 Y12.9055 
G01 X-39.0994 Y12.9284 
G01 X-39.1416 Y12.9706 
G01 X-39.1645 Y13.0257 
G01 X-39.1645 Y13.6370 
G01 X-39.1878 Y13.7088 
G01 X-39.2153 Y13.8822 
G01 X-39.2153 Y16.5978 
G01 X-39.1878 Y16.7712 
G01 X-39.1645 Y16.8430 
G01 X-39.1645 Y17.4543 
G01 X-39.1416 Y17.5094 
G01 X-39.0994 Y17.5516 
G01 X-39.0443 Y17.5745 
G00 Z1.0000 
G00 X-44.1243 Y17.5745 
G01 Z-0.1700 F250.00 
G01 X-43.5130 Y17.5745 F250.00 
G01 X-43.4412 Y17.5978 
G01 X-43.2678 Y17.6253 
G01 X-43.0922 Y17.6253 
G01 X-42.9188 Y17.5978 
G01 X-42.8470 Y17.5745 
G01 X-42.2357 Y17.5745 
G01 X-42.1806 Y17.5516 
G01 X-42.1384 Y17.5094 
G01 X-42.1155 Y17.4543 
G01 X-42.1155 Y16.8430 
G01 X-42.0922 Y16.7712 
G01 X-42.0647 Y16.5978 
G01 X-42.0647 Y13.8822 
G01 X-42.0922 Y13.7088 
G01 X-42.1155 Y13.6370 
G01 X-42.1155 Y13.0257 
G01 X-42.1384 Y12.9706 
G01 X-42.1806 Y12.9284 
G01 X-42.2357 Y12.9055 
G01 X-42.8470 Y12.9055 
G01 X-42.9188 Y12.8822 
G01 X-43.0922 Y12.8547 
G01 X-43.2678 Y12.8547 
G01 X-43.4412 Y12.8822 
G01 X-43.5130 Y12.9055 
G01 X-44.1243 Y12.9055 
G01 X-44.1794 Y12.9284 
G01 X-44.2216 Y12.9706 
G01 X-44.2445 Y13.0257 
G01 X-44.2445 Y13.6370 
G01 X-44.2678 Y13.7088 
G01 X-44.2953 Y13.8822 
G01 X-44.2953 Y16.5978 
G01 X-44.2678 Y16.7712 
G01 X-44.2445 Y16.8430 
G01 X-44.2445 Y17.4543 
G01 X-44.2216 Y17.5094 
G01 X-44.1794 Y17.5516 
G01 X-44.1243 Y17.5745 
G00 Z1.0000 
G00 X-49.2043 Y17.5745 
G01 Z-0.1700 F250.00 
G01 X-48.5930 Y17.5745 F250.00 
G01 X-48.5212 Y17.5978 
G01 X-48.3478 Y17.6253 
G01 X-48.1722 Y17.6253 
G01 X-47.9988 Y17.5978 
G01 X-47.9270 Y17.5745 
G01 X-47.3157 Y17.5745 
G01 X-47.2606 Y17.5516 
G01 X-47.2184 Y17.5094 
G01 X-47.1955 Y17.4543 
G01 X-47.1955 Y16.8430 
G01 X-47.1722 Y16.7712 
G01 X-47.1447 Y16.5978 
G01 X-47.1447 Y13.8822 
G01 X-47.1722 Y13.7088 
G01 X-47.1955 Y13.6370 
G01 X-47.1955 Y13.0257 
G01 X-47.2184 Y12.9706 
G01 X-47.2606 Y12.9284 
G01 X-47.3157 Y12.9055 
G01 X-47.9270 Y12.9055 
G01 X-47.9988 Y12.8822 
G01 X-48.1722 Y12.8547 
G01 X-48.3478 Y12.8547 
G01 X-48.5212 Y12.8822 
G01 X-48.5930 Y12.9055 
G01 X-49.2043 Y12.9055 
G01 X-49.2594 Y12.9284 
G01 X-49.3016 Y12.9706 
G01 X-49.3245 Y13.0257 
G01 X-49.3245 Y13.6370 
G01 X-49.3478 Y13.7088 
G01 X-49.3753 Y13.8822 
G01 X-49.3753 Y16.5978 
G01 X-49.3478 Y16.7712 
G01 X-49.3245 Y16.8430 
G01 X-49.3245 Y17.4543 
G01 X-49.3016 Y17.5094 
G01 X-49.2594 Y17.5516 
G01 X-49.2043 Y17.5745 
G00 Z1.0000 
G00 X-49.7355 Y23.1857 
G01 Z-0.1700 F250.00 
G01 X-49.7584 Y23.1306 F250.00 
G01 X-49.8006 Y23.0884 
G01 X-49.8557 Y23.0655 
G01 X-50.4670 Y23.0655 
G01 X-50.5388 Y23.0422 
G01 X-50.7122 Y23.0147 
G01 X-50.8878 Y23.0147 
G01 X-51.0612 Y23.0422 
G01 X-51.1330 Y23.0655 
G01 X-51.7443 Y23.0655 
G01 X-51.7994 Y23.0884 
G01 X-51.8416 Y23.1306 
G01 X-51.8645 Y23.1857 
G01 X-51.8645 Y23.7970 
G01 X-51.8878 Y23.8688 
G01 X-51.9153 Y24.0422 
G01 X-51.9153 Y26.7578 
G01 X-51.8878 Y26.9312 
G01 X-51.8336 Y27.0981 
G01 X-51.7539 Y27.2545 
G01 X-51.6507 Y27.3966 
G01 X-51.5266 Y27.5207 
G01 X-51.3845 Y27.6239 
G01 X-51.2281 Y27.7036 
G01 X-51.0612 Y27.7578 
G01 X-50.8878 Y27.7853 
G01 X-50.7122 Y27.7853 
G01 X-50.5388 Y27.7578 
G01 X-50.3719 Y27.7036 
G01 X-50.2155 Y27.6239 
G01 X-50.0734 Y27.5207 
G01 X-49.9493 Y27.3966 
G01 X-49.8461 Y27.2545 
G01 X-49.7664 Y27.0981 
G01 X-49.7122 Y26.9312 
G01 X-49.6847 Y26.7578 
G01 X-49.6847 Y24.0422 
G01 X-49.7122 Y23.8688 
G01 X-49.7355 Y23.7970 
G01 X-49.7355 Y23.1857 
G00 Z1.0000 
G00 X-44.6555 Y23.1857 
G01 Z-0.1700 F250.00 
G01 X-44.6784 Y23.1306 F250.00 
G01 X-44.7206 Y23.0884 
G01 X-44.7757 Y23.0655 
G01 X-45.3870 Y23.0655 
G01 X-45.4588 Y23.0422 
G01 X-45.6322 Y23.0147 
G01 X-45.8078 Y23.0147 
G01 X-45.9812 Y23.0422 
G01 X-46.0530 Y23.0655 
G01 X-46.6643 Y23.0655 
G01 X-46.7194 Y23.0884 
G01 X-46.7616 Y23.1306 
G01 X-46.7845 Y23.1857 
G01 X-46.7845 Y23.7970 
G01 X-46.8078 Y23.8688 
G01 X-46.8353 Y24.0422 
G01 X-46.8353 Y26.7578 
G01 X-46.8078 Y26.9312 
G01 X-46.7536 Y27.0981 
G01 X-46.6739 Y27.2545 
G01 X-46.5707 Y27.3966 
G01 X-46.4466 Y27.5207 
G01 X-46.3045 Y27.6239 
G01 X-46.1481 Y27.7036 
G01 X-45.9812 Y27.7578 
G01 X-45.8078 Y27.7853 
G01 X-45.6322 Y27.7853 
G01 X-45.4588 Y27.7578 
G01 X-45.2919 Y27.7036 
G01 X-45.1355 Y27.6239 
G01 X-44.9934 Y27.5207 
G01 X-44.8693 Y27.3966 
G01 X-44.7661 Y27.2545 
G01 X-44.6864 Y27.0981 
G01 X-44.6322 Y26.9312 
G01 X-44.6047 Y26.7578 
G01 X-44.6047 Y24.0422 
G01 X-44.6322 Y23.8688 
G01 X-44.6555 Y23.7970 
G01 X-44.6555 Y23.1857 
G00 Z1.0000 
G00 X-39.5755 Y23.1857 
G01 Z-0.1700 F250.00 
G01 X-39.5984 Y23.1306 F250.00 
G01 X-39.6406 Y23.0884 
G01 X-39.6957 Y23.0655 
G01 X-40.3070 Y23.0655 
G01 X-40.3788 Y23.0422 
G01 X-40.5522 Y23.0147 
G01 X-40.7278 Y23.0147 
G01 X-40.9012 Y23.0422 
G01 X-40.9730 Y23.0655 
G01 X-41.5843 Y23.0655 
G01 X-41.6394 Y23.0884 
G01 X-41.6816 Y23.1306 
G01 X-41.7045 Y23.1857 
G01 X-41.7045 Y23.7970 
G01 X-41.7278 Y23.8688 
G01 X-41.7553 Y24.0422 
G01 X-41.7553 Y29.2978 
G01 X-41.7278 Y29.4712 
G01 X-41.6736 Y29.6381 
G01 X-41.5939 Y29.7945 
G01 X-41.4907 Y29.9366 
G01 X-41.3666 Y30.0607 
G01 X-41.2245 Y30.1639 
G01 X-41.0681 Y30.2436 
G01 X-40.9012 Y30.2978 
G01 X-40.7278 Y30.3253 
G01 X-27.8522 Y30.3253 
G01 X-27.6788 Y30.2978 
G01 X-27.5119 Y30.2436 
G01 X-27.3555 Y30.1639 
G01 X-27.2134 Y30.0607 
G01 X-27.0893 Y29.9366 
G01 X-26.9861 Y29.7945 
G01 X-26.9064 Y29.6381 
G01 X-26.8522 Y29.4712 
G01 X-26.8247 Y29.2978 
G01 X-26.8247 Y24.0422 
G01 X-26.8522 Y23.8688 
G01 X-26.8755 Y23.7970 
G01 X-26.8755 Y23.1857 
G01 X-26.8984 Y23.1306 
G01 X-26.9406 Y23.0884 
G01 X-26.9957 Y23.0655 
G01 X-27.6070 Y23.0655 
G01 X-27.6788 Y23.0422 
G01 X-27.8522 Y23.0147 
G01 X-28.0278 Y23.0147 
G01 X-28.2012 Y23.0422 
G01 X-28.2730 Y23.0655 
G01 X-28.8843 Y23.0655 
G01 X-28.9394 Y23.0884 
G01 X-28.9816 Y23.1306 
G01 X-29.0045 Y23.1857 
G01 X-29.0045 Y23.7970 
G01 X-29.0278 Y23.8688 
G01 X-29.0553 Y24.0422 
G01 X-29.0553 Y28.0947 
G01 X-39.5247 Y28.0947 
G01 X-39.5247 Y24.0422 
G01 X-39.5522 Y23.8688 
G01 X-39.5755 Y23.7970 
G01 X-39.5755 Y23.1857 
G00 Z1.0000 
G00 X-39.0443 Y25.1945 
G01 Z-0.1700 F250.00 
G01 X-38.4330 Y25.1945 F250.00 
G01 X-38.3612 Y25.2178 
G01 X-38.1878 Y25.2453 
G01 X-38.0122 Y25.2453 
G01 X-37.8388 Y25.2178 
G01 X-37.7670 Y25.1945 
G01 X-37.1557 Y25.1945 
G01 X-37.1006 Y25.1716 
G01 X-37.0584 Y25.1294 
G01 X-37.0355 Y25.0743 
G01 X-37.0355 Y24.4630 
G01 X-37.0122 Y24.3912 
G01 X-36.9847 Y24.2178 
G01 X-36.9847 Y21.4353 
G01 X-32.9322 Y21.4353 
G01 X-32.7588 Y21.4078 
G01 X-32.5919 Y21.3536 
G01 X-32.4355 Y21.2739 
G01 X-32.2934 Y21.1707 
G01 X-32.1693 Y21.0466 
G01 X-32.0661 Y20.9045 
G01 X-31.9864 Y20.7481 
G01 X-31.9322 Y20.5812 
G01 X-31.9047 Y20.4078 
G01 X-31.9047 Y13.8822 
G01 X-31.9322 Y13.7088 
G01 X-31.9555 Y13.6370 
G01 X-31.9555 Y13.0257 
G01 X-31.9784 Y12.9706 
G01 X-32.0206 Y12.9284 
G01 X-32.0757 Y12.9055 
G01 X-32.6870 Y12.9055 
G01 X-32.7588 Y12.8822 
G01 X-32.9322 Y12.8547 
G01 X-33.1078 Y12.8547 
G01 X-33.2812 Y12.8822 
G01 X-33.3530 Y12.9055 
G01 X-33.9643 Y12.9055 
G01 X-34.0194 Y12.9284 
G01 X-34.0616 Y12.9706 
G01 X-34.0845 Y13.0257 
G01 X-34.0845 Y13.6370 
G01 X-34.1078 Y13.7088 
G01 X-34.1353 Y13.8822 
G01 X-34.1353 Y19.2047 
G01 X-38.1878 Y19.2047 
G01 X-38.3612 Y19.2322 
G01 X-38.5281 Y19.2864 
G01 X-38.6845 Y19.3661 
G01 X-38.8266 Y19.4693 
G01 X-38.9507 Y19.5934 
G01 X-39.0539 Y19.7355 
G01 X-39.1336 Y19.8919 
G01 X-39.1878 Y20.0588 
G01 X-39.2153 Y20.2322 
G01 X-39.2153 Y24.2178 
G01 X-39.1878 Y24.3912 
G01 X-39.1645 Y24.4630 
G01 X-39.1645 Y25.0743 
G01 X-39.1416 Y25.1294 
G01 X-39.0994 Y25.1716 
G01 X-39.0443 Y25.1945 
G00 Z1.0000 
G00 X-64.4443 Y17.5745 
G01 Z-0.1700 F250.00 
G01 X-63.8330 Y17.5745 F250.00 
G01 X-63.7612 Y17.5978 
G01 X-63.5878 Y17.6253 
G01 X-63.4122 Y17.6253 
G01 X-63.2388 Y17.5978 
G01 X-63.1670 Y17.5745 
G01 X-62.5557 Y17.5745 
G01 X-62.5006 Y17.5516 
G01 X-62.4584 Y17.5094 
G01 X-62.4355 Y17.4543 
G01 X-62.4355 Y16.8430 
G01 X-62.4122 Y16.7712 
G01 X-62.3847 Y16.5978 
G01 X-62.3847 Y13.8822 
G01 X-62.4122 Y13.7088 
G01 X-62.4355 Y13.6370 
G01 X-62.4355 Y13.0257 
G01 X-62.4584 Y12.9706 
G01 X-62.5006 Y12.9284 
G01 X-62.5557 Y12.9055 
G01 X-63.1670 Y12.9055 
G01 X-63.2388 Y12.8822 
G01 X-63.4122 Y12.8547 
G01 X-63.5878 Y12.8547 
G01 X-63.7612 Y12.8822 
G01 X-63.8330 Y12.9055 
G01 X-64.4443 Y12.9055 
G01 X-64.4994 Y12.9284 
G01 X-64.5416 Y12.9706 
G01 X-64.5645 Y13.0257 
G01 X-64.5645 Y13.6370 
G01 X-64.5878 Y13.7088 
G01 X-64.6153 Y13.8822 
G01 X-64.6153 Y16.5978 
G01 X-64.5878 Y16.7712 
G01 X-64.5645 Y16.8430 
G01 X-64.5645 Y17.4543 
G01 X-64.5416 Y17.5094 
G01 X-64.4994 Y17.5516 
G01 X-64.4443 Y17.5745 
G00 Z1.0000 
G00 X-18.1057 Y51.0055 
G01 Z-0.1700 F250.00 
G01 X-18.7170 Y51.0055 F250.00 
G01 X-18.7888 Y50.9822 
G01 X-18.9622 Y50.9547 
G01 X-19.1378 Y50.9547 
G01 X-19.3112 Y50.9822 
G01 X-19.3830 Y51.0055 
G01 X-19.9943 Y51.0055 
G01 X-20.0494 Y51.0284 
G01 X-20.0916 Y51.0706 
G01 X-20.1145 Y51.1257 
G01 X-20.1145 Y51.7370 
G01 X-20.1378 Y51.8088 
G01 X-20.1653 Y51.9822 
G01 X-20.1653 Y54.6978 
G01 X-20.1378 Y54.8712 
G01 X-20.1145 Y54.9430 
G01 X-20.1145 Y55.5543 
G01 X-20.0916 Y55.6094 
G01 X-20.0494 Y55.6516 
G01 X-19.9943 Y55.6745 
G01 X-19.3830 Y55.6745 
G01 X-19.3112 Y55.6978 
G01 X-19.1378 Y55.7253 
G01 X-18.9622 Y55.7253 
G01 X-18.7888 Y55.6978 
G01 X-18.7170 Y55.6745 
G01 X-18.1057 Y55.6745 
G01 X-18.0506 Y55.6516 
G01 X-18.0084 Y55.6094 
G01 X-17.9855 Y55.5543 
G01 X-17.9855 Y54.9430 
G01 X-17.9622 Y54.8712 
G01 X-17.9347 Y54.6978 
G01 X-17.9347 Y51.9822 
G01 X-17.9622 Y51.8088 
G01 X-17.9855 Y51.7370 
G01 X-17.9855 Y51.1257 
G01 X-18.0084 Y51.0706 
G01 X-18.0506 Y51.0284 
G01 X-18.1057 Y51.0055 
G00 Z1.0000 
G00 X-13.0257 Y51.0055 
G01 Z-0.1700 F250.00 
G01 X-13.6370 Y51.0055 F250.00 
G01 X-13.7088 Y50.9822 
G01 X-13.8822 Y50.9547 
G01 X-14.0578 Y50.9547 
G01 X-14.2312 Y50.9822 
G01 X-14.3030 Y51.0055 
G01 X-14.9143 Y51.0055 
G01 X-14.9694 Y51.0284 
G01 X-15.0116 Y51.0706 
G01 X-15.0345 Y51.1257 
G01 X-15.0345 Y51.7370 
G01 X-15.0578 Y51.8088 
G01 X-15.0853 Y51.9822 
G01 X-15.0853 Y54.6978 
G01 X-15.0578 Y54.8712 
G01 X-15.0345 Y54.9430 
G01 X-15.0345 Y55.5543 
G01 X-15.0116 Y55.6094 
G01 X-14.9694 Y55.6516 
G01 X-14.9143 Y55.6745 
G01 X-14.3030 Y55.6745 
G01 X-14.2312 Y55.6978 
G01 X-14.0578 Y55.7253 
G01 X-13.8822 Y55.7253 
G01 X-13.7088 Y55.6978 
G01 X-13.6370 Y55.6745 
G01 X-13.0257 Y55.6745 
G01 X-12.9706 Y55.6516 
G01 X-12.9284 Y55.6094 
G01 X-12.9055 Y55.5543 
G01 X-12.9055 Y54.9430 
G01 X-12.8822 Y54.8712 
G01 X-12.8547 Y54.6978 
G01 X-12.8547 Y51.9822 
G01 X-12.8822 Y51.8088 
G01 X-12.9055 Y51.7370 
G01 X-12.9055 Y51.1257 
G01 X-12.9284 Y51.0706 
G01 X-12.9706 Y51.0284 
G01 X-13.0257 Y51.0055 
G00 Z1.0000 
G00 X-9.8343 Y43.3855 
G01 Z-0.1700 F250.00 
G01 X-9.8894 Y43.4083 F250.00 
G01 X-9.9316 Y43.4506 
G01 X-9.9545 Y43.5057 
G01 X-9.9545 Y44.1170 
G01 X-9.9778 Y44.1888 
G01 X-10.0053 Y44.3622 
G01 X-10.0053 Y44.5378 
G01 X-9.9778 Y44.7112 
G01 X-9.9545 Y44.7830 
G01 X-9.9545 Y45.3943 
G01 X-9.9316 Y45.4494 
G01 X-9.8894 Y45.4916 
G01 X-9.8343 Y45.5145 
G01 X-9.2230 Y45.5145 
G01 X-9.1512 Y45.5378 
G01 X-8.9778 Y45.5653 
G01 X-6.2622 Y45.5653 
G01 X-6.0888 Y45.5378 
G01 X-5.9219 Y45.4836 
G01 X-5.7655 Y45.4039 
G01 X-5.6234 Y45.3007 
G01 X-5.4993 Y45.1766 
G01 X-5.3961 Y45.0345 
G01 X-5.3164 Y44.8781 
G01 X-5.2622 Y44.7112 
G01 X-5.2347 Y44.5378 
G01 X-5.2347 Y44.3622 
G01 X-5.2622 Y44.1888 
G01 X-5.3164 Y44.0219 
G01 X-5.3961 Y43.8655 
G01 X-5.4993 Y43.7234 
G01 X-5.6234 Y43.5993 
G01 X-5.7655 Y43.4961 
G01 X-5.9219 Y43.4164 
G01 X-6.0888 Y43.3622 
G01 X-6.2622 Y43.3347 
G01 X-8.9778 Y43.3347 
G01 X-9.1512 Y43.3622 
G01 X-9.2230 Y43.3855 
G01 X-9.8343 Y43.3855 
G00 Z1.0000 
G00 X-15.0345 Y45.3943 
G01 Z-0.1700 F250.00 
G01 X-15.0116 Y45.4494 F250.00 
G01 X-14.9694 Y45.4916 
G01 X-14.9143 Y45.5145 
G01 X-14.3030 Y45.5145 
G01 X-14.2312 Y45.5378 
G01 X-14.0578 Y45.5653 
G01 X-13.8822 Y45.5653 
G01 X-13.7088 Y45.5378 
G01 X-13.6370 Y45.5145 
G01 X-13.0257 Y45.5145 
G01 X-12.9706 Y45.4916 
G01 X-12.9284 Y45.4494 
G01 X-12.9055 Y45.3943 
G01 X-12.9055 Y44.7830 
G01 X-12.8822 Y44.7112 
G01 X-12.8547 Y44.5378 
G01 X-12.8547 Y41.8222 
G01 X-12.8822 Y41.6488 
G01 X-12.9364 Y41.4819 
G01 X-13.0161 Y41.3255 
G01 X-13.1193 Y41.1834 
G01 X-13.2434 Y41.0593 
G01 X-13.3855 Y40.9561 
G01 X-13.5419 Y40.8764 
G01 X-13.7088 Y40.8222 
G01 X-13.8822 Y40.7947 
G01 X-14.0578 Y40.7947 
G01 X-14.2312 Y40.8222 
G01 X-14.3981 Y40.8764 
G01 X-14.5545 Y40.9561 
G01 X-14.6966 Y41.0593 
G01 X-14.8207 Y41.1834 
G01 X-14.9239 Y41.3255 
G01 X-15.0036 Y41.4819 
G01 X-15.0578 Y41.6488 
G01 X-15.0853 Y41.8222 
G01 X-15.0853 Y44.5378 
G01 X-15.0578 Y44.7112 
G01 X-15.0345 Y44.7830 
G01 X-15.0345 Y45.3943 
G00 Z1.0000 
G00 X-17.5745 Y45.3943 
G01 Z-0.1700 F250.00 
G01 X-17.5516 Y45.4494 F250.00 
G01 X-17.5094 Y45.4916 
G01 X-17.4543 Y45.5145 
G01 X-16.8430 Y45.5145 
G01 X-16.7712 Y45.5378 
G01 X-16.5978 Y45.5653 
G01 X-16.4222 Y45.5653 
G01 X-16.2488 Y45.5378 
G01 X-16.1770 Y45.5145 
G01 X-15.5657 Y45.5145 
G01 X-15.5106 Y45.4916 
G01 X-15.4684 Y45.4494 
G01 X-15.4455 Y45.3943 
G01 X-15.4455 Y44.7830 
G01 X-15.4222 Y44.7112 
G01 X-15.3947 Y44.5378 
G01 X-15.3947 Y41.8222 
G01 X-15.4222 Y41.6488 
G01 X-15.4764 Y41.4819 
G01 X-15.5561 Y41.3255 
G01 X-15.6593 Y41.1834 
G01 X-15.7834 Y41.0593 
G01 X-15.9255 Y40.9561 
G01 X-16.0819 Y40.8764 
G01 X-16.2488 Y40.8222 
G01 X-16.4222 Y40.7947 
G01 X-16.5978 Y40.7947 
G01 X-16.7712 Y40.8222 
G01 X-16.9381 Y40.8764 
G01 X-17.0945 Y40.9561 
G01 X-17.2366 Y41.0593 
G01 X-17.3607 Y41.1834 
G01 X-17.4639 Y41.3255 
G01 X-17.5436 Y41.4819 
G01 X-17.5978 Y41.6488 
G01 X-17.6253 Y41.8222 
G01 X-17.6253 Y44.5378 
G01 X-17.5978 Y44.7112 
G01 X-17.5745 Y44.7830 
G01 X-17.5745 Y45.3943 
G00 Z1.0000 
G00 X-22.6545 Y45.3943 
G01 Z-0.1700 F250.00 
G01 X-22.6316 Y45.4494 F250.00 
G01 X-22.5894 Y45.4916 
G01 X-22.5343 Y45.5145 
G01 X-21.9230 Y45.5145 
G01 X-21.8512 Y45.5378 
G01 X-21.6778 Y45.5653 
G01 X-21.5022 Y45.5653 
G01 X-21.3288 Y45.5378 
G01 X-21.2570 Y45.5145 
G01 X-20.6457 Y45.5145 
G01 X-20.5906 Y45.4916 
G01 X-20.5483 Y45.4494 
G01 X-20.5255 Y45.3943 
G01 X-20.5255 Y44.7830 
G01 X-20.5022 Y44.7112 
G01 X-20.4747 Y44.5378 
G01 X-20.4747 Y39.2822 
G01 X-20.5022 Y39.1088 
G01 X-20.5564 Y38.9419 
G01 X-20.6361 Y38.7855 
G01 X-20.7393 Y38.6434 
G01 X-20.8634 Y38.5193 
G01 X-21.0055 Y38.4161 
G01 X-21.1619 Y38.3364 
G01 X-21.3288 Y38.2822 
G01 X-21.5022 Y38.2547 
G01 X-34.3778 Y38.2547 
G01 X-34.5512 Y38.2822 
G01 X-34.7181 Y38.3364 
G01 X-34.8745 Y38.4161 
G01 X-35.0166 Y38.5193 
G01 X-35.1407 Y38.6434 
G01 X-35.2439 Y38.7855 
G01 X-35.3236 Y38.9419 
G01 X-35.3778 Y39.1088 
G01 X-35.4053 Y39.2822 
G01 X-35.4053 Y44.5378 
G01 X-35.3778 Y44.7112 
G01 X-35.3545 Y44.7830 
G01 X-35.3545 Y45.3943 
G01 X-35.3316 Y45.4494 
G01 X-35.2894 Y45.4916 
G01 X-35.2343 Y45.5145 
G01 X-34.6230 Y45.5145 
G01 X-34.5512 Y45.5378 
G01 X-34.3778 Y45.5653 
G01 X-34.2022 Y45.5653 
G01 X-34.0288 Y45.5378 
G01 X-33.9570 Y45.5145 
G01 X-33.3457 Y45.5145 
G01 X-33.2906 Y45.4916 
G01 X-33.2484 Y45.4494 
G01 X-33.2255 Y45.3943 
G01 X-33.2255 Y44.7830 
G01 X-33.2022 Y44.7112 
G01 X-33.1747 Y44.5378 
G01 X-33.1747 Y40.4853 
G01 X-22.7053 Y40.4853 
G01 X-22.7053 Y44.5378 
G01 X-22.6778 Y44.7112 
G01 X-22.6545 Y44.7830 
G01 X-22.6545 Y45.3943 
G00 Z1.0000 
G00 X-23.1857 Y43.3855 
G01 Z-0.1700 F250.00 
G01 X-23.7970 Y43.3855 F250.00 
G01 X-23.8688 Y43.3622 
G01 X-24.0422 Y43.3347 
G01 X-24.2178 Y43.3347 
G01 X-24.3912 Y43.3622 
G01 X-24.4630 Y43.3855 
G01 X-25.0743 Y43.3855 
G01 X-25.1294 Y43.4083 
G01 X-25.1716 Y43.4506 
G01 X-25.1945 Y43.5057 
G01 X-25.1945 Y44.1170 
G01 X-25.2178 Y44.1888 
G01 X-25.2453 Y44.3622 
G01 X-25.2453 Y47.1447 
G01 X-29.2978 Y47.1447 
G01 X-29.4712 Y47.1722 
G01 X-29.6381 Y47.2264 
G01 X-29.7945 Y47.3061 
G01 X-29.9366 Y47.4093 
G01 X-30.0607 Y47.5334 
G01 X-30.1639 Y47.6755 
G01 X-30.2436 Y47.8319 
G01 X-30.2978 Y47.9988 
G01 X-30.3253 Y48.1722 
G01 X-30.3253 Y54.6978 
G01 X-30.2978 Y54.8712 
G01 X-30.2745 Y54.9430 
G01 X-30.2745 Y55.5543 
G01 X-30.2516 Y55.6094 
G01 X-30.2094 Y55.6516 
G01 X-30.1543 Y55.6745 
G01 X-29.5430 Y55.6745 
G01 X-29.4712 Y55.6978 
G01 X-29.2978 Y55.7253 
G01 X-29.1222 Y55.7253 
G01 X-28.9488 Y55.6978 
G01 X-28.8770 Y55.6745 
G01 X-28.2657 Y55.6745 
G01 X-28.2106 Y55.6516 
G01 X-28.1684 Y55.6094 
G01 X-28.1455 Y55.5543 
G01 X-28.1455 Y54.9430 
G01 X-28.1222 Y54.8712 
G01 X-28.0947 Y54.6978 
G01 X-28.0947 Y49.3753 
G01 X-24.0422 Y49.3753 
G01 X-23.8688 Y49.3478 
G01 X-23.7019 Y49.2936 
G01 X-23.5455 Y49.2139 
G01 X-23.4034 Y49.1107 
G01 X-23.2793 Y48.9866 
G01 X-23.1761 Y48.8445 
G01 X-23.0964 Y48.6881 
G01 X-23.0422 Y48.5212 
G01 X-23.0147 Y48.3478 
G01 X-23.0147 Y44.3622 
G01 X-23.0422 Y44.1888 
G01 X-23.0655 Y44.1170 
G01 X-23.0655 Y43.5057 
G01 X-23.0884 Y43.4506 
G01 X-23.1306 Y43.4083 
G01 X-23.1857 Y43.3855 
G00 Z1.0000 
G00 X-31.9555 Y23.1857 
G01 Z-0.1700 F250.00 
G01 X-31.9784 Y23.1306 F250.00 
G01 X-32.0206 Y23.0884 
G01 X-32.0757 Y23.0655 
G01 X-32.6870 Y23.0655 
G01 X-32.7588 Y23.0422 
G01 X-32.9322 Y23.0147 
G01 X-35.6478 Y23.0147 
G01 X-35.8212 Y23.0422 
G01 X-35.8930 Y23.0655 
G01 X-36.5043 Y23.0655 
G01 X-36.5594 Y23.0884 
G01 X-36.6016 Y23.1306 
G01 X-36.6245 Y23.1857 
G01 X-36.6245 Y23.7970 
G01 X-36.6478 Y23.8688 
G01 X-36.6753 Y24.0422 
G01 X-36.6753 Y24.2178 
G01 X-36.6478 Y24.3912 
G01 X-36.6245 Y24.4630 
G01 X-36.6245 Y25.0743 
G01 X-36.6016 Y25.1294 
G01 X-36.5594 Y25.1716 
G01 X-36.5043 Y25.1945 
G01 X-35.8930 Y25.1945 
G01 X-35.8212 Y25.2178 
G01 X-35.6478 Y25.2453 
G01 X-34.1353 Y25.2453 
G01 X-34.1353 Y26.7578 
G01 X-34.1078 Y26.9312 
G01 X-34.0536 Y27.0981 
G01 X-33.9739 Y27.2545 
G01 X-33.8707 Y27.3966 
G01 X-33.7466 Y27.5207 
G01 X-33.6045 Y27.6239 
G01 X-33.4481 Y27.7036 
G01 X-33.2812 Y27.7578 
G01 X-33.1078 Y27.7853 
G01 X-31.6622 Y27.7853 
G01 X-31.4888 Y27.7578 
G01 X-31.3219 Y27.7036 
G01 X-31.1655 Y27.6239 
G01 X-31.0234 Y27.5207 
G01 X-30.8993 Y27.3966 
G01 X-30.7961 Y27.2545 
G01 X-30.7164 Y27.0981 
G01 X-30.6622 Y26.9312 
G01 X-30.6347 Y26.7578 
G01 X-30.6347 Y26.5822 
G01 X-30.6622 Y26.4088 
G01 X-30.7164 Y26.2419 
G01 X-30.7961 Y26.0855 
G01 X-30.8993 Y25.9434 
G01 X-31.0234 Y25.8193 
G01 X-31.1655 Y25.7161 
G01 X-31.3219 Y25.6364 
G01 X-31.4888 Y25.5822 
G01 X-31.6622 Y25.5547 
G01 X-31.9047 Y25.5547 
G01 X-31.9047 Y24.0422 
G01 X-31.9322 Y23.8688 
G01 X-31.9555 Y23.7970 
G01 X-31.9555 Y23.1857 
G00 Z1.0000 
G00 X-81.0745 Y44.1243 
G01 Z-0.1700 F250.00 
G01 X-81.0516 Y44.1794 F250.00 
G01 X-81.0094 Y44.2216 
G01 X-80.9543 Y44.2445 
G01 X-80.3430 Y44.2445 
G01 X-80.2712 Y44.2678 
G01 X-80.0978 Y44.2953 
G01 X-79.9222 Y44.2953 
G01 X-79.7488 Y44.2678 
G01 X-79.6770 Y44.2445 
G01 X-79.0657 Y44.2445 
G01 X-79.0106 Y44.2216 
G01 X-78.9684 Y44.1794 
G01 X-78.9455 Y44.1243 
G01 X-78.9455 Y43.5130 
G01 X-78.9222 Y43.4412 
G01 X-78.8947 Y43.2678 
G01 X-78.8947 Y43.0253 
G01 X-78.5853 Y43.0253 
G01 X-78.5853 Y44.5378 
G01 X-78.5578 Y44.7112 
G01 X-78.5345 Y44.7830 
G01 X-78.5345 Y45.3943 
G01 X-78.5116 Y45.4494 
G01 X-78.4694 Y45.4916 
G01 X-78.4143 Y45.5145 
G01 X-77.8030 Y45.5145 
G01 X-77.7312 Y45.5378 
G01 X-77.5578 Y45.5653 
G01 X-77.3822 Y45.5653 
G01 X-77.2088 Y45.5378 
G01 X-77.1370 Y45.5145 
G01 X-76.5257 Y45.5145 
G01 X-76.4706 Y45.4916 
G01 X-76.4284 Y45.4494 
G01 X-76.4055 Y45.3943 
G01 X-76.4055 Y44.7830 
G01 X-76.3822 Y44.7112 
G01 X-76.3547 Y44.5378 
G01 X-76.3547 Y41.8222 
G01 X-76.3822 Y41.6488 
G01 X-76.4364 Y41.4819 
G01 X-76.5161 Y41.3255 
G01 X-76.6193 Y41.1834 
G01 X-76.7434 Y41.0593 
G01 X-76.8855 Y40.9561 
G01 X-77.0419 Y40.8764 
G01 X-77.2088 Y40.8222 
G01 X-77.3822 Y40.7947 
G01 X-80.0978 Y40.7947 
G01 X-80.1647 Y40.8053 
G01 X-80.1647 Y36.7422 
G01 X-80.1922 Y36.5688 
G01 X-80.2464 Y36.4019 
G01 X-80.3261 Y36.2455 
G01 X-80.4293 Y36.1034 
G01 X-80.5534 Y35.9793 
G01 X-80.6955 Y35.8761 
G01 X-80.8519 Y35.7964 
G01 X-81.0188 Y35.7422 
G01 X-81.1922 Y35.7147 
G01 X-81.3678 Y35.7147 
G01 X-81.5412 Y35.7422 
G01 X-81.7081 Y35.7964 
G01 X-81.8645 Y35.8761 
G01 X-82.0066 Y35.9793 
G01 X-82.1307 Y36.1034 
G01 X-82.2339 Y36.2455 
G01 X-82.3136 Y36.4019 
G01 X-82.3678 Y36.5688 
G01 X-82.3953 Y36.7422 
G01 X-82.3953 Y41.9978 
G01 X-82.3678 Y42.1712 
G01 X-82.3136 Y42.3381 
G01 X-82.2339 Y42.4945 
G01 X-82.1307 Y42.6366 
G01 X-82.0066 Y42.7607 
G01 X-81.8645 Y42.8639 
G01 X-81.7081 Y42.9436 
G01 X-81.5412 Y42.9978 
G01 X-81.3678 Y43.0253 
G01 X-81.1922 Y43.0253 
G01 X-81.1253 Y43.0147 
G01 X-81.1253 Y43.2678 
G01 X-81.0978 Y43.4412 
G01 X-81.0745 Y43.5130 
G01 X-81.0745 Y44.1243 
G00 Z1.0000 
G00 X-30.1543 Y43.3855 
G01 Z-0.1700 F250.00 
G01 X-30.2094 Y43.4083 F250.00 
G01 X-30.2516 Y43.4506 
G01 X-30.2745 Y43.5057 
G01 X-30.2745 Y44.1170 
G01 X-30.2978 Y44.1888 
G01 X-30.3253 Y44.3622 
G01 X-30.3253 Y44.5378 
G01 X-30.2978 Y44.7112 
G01 X-30.2745 Y44.7830 
G01 X-30.2745 Y45.3943 
G01 X-30.2516 Y45.4494 
G01 X-30.2094 Y45.4916 
G01 X-30.1543 Y45.5145 
G01 X-29.5430 Y45.5145 
G01 X-29.4712 Y45.5378 
G01 X-29.2978 Y45.5653 
G01 X-26.5822 Y45.5653 
G01 X-26.4088 Y45.5378 
G01 X-26.3370 Y45.5145 
G01 X-25.7257 Y45.5145 
G01 X-25.6706 Y45.4916 
G01 X-25.6284 Y45.4494 
G01 X-25.6055 Y45.3943 
G01 X-25.6055 Y44.7830 
G01 X-25.5822 Y44.7112 
G01 X-25.5547 Y44.5378 
G01 X-25.5547 Y41.8222 
G01 X-25.5822 Y41.6488 
G01 X-25.6364 Y41.4819 
G01 X-25.7161 Y41.3255 
G01 X-25.8193 Y41.1834 
G01 X-25.9434 Y41.0593 
G01 X-26.0855 Y40.9561 
G01 X-26.2419 Y40.8764 
G01 X-26.4088 Y40.8222 
G01 X-26.5822 Y40.7947 
G01 X-26.7578 Y40.7947 
G01 X-26.9312 Y40.8222 
G01 X-27.0981 Y40.8764 
G01 X-27.2545 Y40.9561 
G01 X-27.3966 Y41.0593 
G01 X-27.5207 Y41.1834 
G01 X-27.6239 Y41.3255 
G01 X-27.7036 Y41.4819 
G01 X-27.7578 Y41.6488 
G01 X-27.7853 Y41.8222 
G01 X-27.7853 Y43.3347 
G01 X-29.2978 Y43.3347 
G01 X-29.4712 Y43.3622 
G01 X-29.5430 Y43.3855 
G01 X-30.1543 Y43.3855 
G00 Z1.0000 
G00 X-8.6845 Y12.3743 
G01 Z-0.1700 F250.00 
G01 X-8.6616 Y12.4294 F250.00 
G01 X-8.6194 Y12.4716 
G01 X-8.5643 Y12.4945 
G01 X-7.9530 Y12.4945 
G01 X-7.8812 Y12.5178 
G01 X-7.7078 Y12.5453 
G01 X-7.5322 Y12.5453 
G01 X-7.3588 Y12.5178 
G01 X-7.2870 Y12.4945 
G01 X-6.6757 Y12.4945 
G01 X-6.6206 Y12.4716 
G01 X-6.5784 Y12.4294 
G01 X-6.5555 Y12.3743 
G01 X-6.5555 Y11.7630 
G01 X-6.5322 Y11.6912 
G01 X-6.5047 Y11.5178 
G01 X-6.5047 Y8.8471 
G01 X-6.4555 Y8.8267 
G01 X-6.4133 Y8.7845 
G01 X-6.3904 Y8.7294 
G01 X-6.3904 Y6.5106 
G01 X-6.4133 Y6.4555 
G01 X-6.4555 Y6.4133 
G01 X-6.5106 Y6.3904 
G01 X-8.7294 Y6.3904 
G01 X-8.7845 Y6.4133 
G01 X-8.8267 Y6.4555 
G01 X-8.8496 Y6.5106 
G01 X-8.8496 Y8.7294 
G01 X-8.8267 Y8.7845 
G01 X-8.7845 Y8.8267 
G01 X-8.7353 Y8.8471 
G01 X-8.7353 Y11.5178 
G01 X-8.7078 Y11.6912 
G01 X-8.6845 Y11.7630 
G01 X-8.6845 Y12.3743 
G00 Z1.0000 
G00 X-9.2157 Y12.9055 
G01 Z-0.1700 F250.00 
G01 X-9.8270 Y12.9055 F250.00 
G01 X-9.8988 Y12.8822 
G01 X-10.0722 Y12.8547 
G01 X-10.2478 Y12.8547 
G01 X-10.4212 Y12.8822 
G01 X-10.4930 Y12.9055 
G01 X-11.1043 Y12.9055 
G01 X-11.1594 Y12.9284 
G01 X-11.2016 Y12.9706 
G01 X-11.2245 Y13.0257 
G01 X-11.2245 Y13.6370 
G01 X-11.2478 Y13.7088 
G01 X-11.2753 Y13.8822 
G01 X-11.2753 Y16.5978 
G01 X-11.2478 Y16.7712 
G01 X-11.2245 Y16.8430 
G01 X-11.2245 Y17.4543 
G01 X-11.2016 Y17.5094 
G01 X-11.1594 Y17.5516 
G01 X-11.1043 Y17.5745 
G01 X-10.4930 Y17.5745 
G01 X-10.4212 Y17.5978 
G01 X-10.2478 Y17.6253 
G01 X-10.0722 Y17.6253 
G01 X-9.8988 Y17.5978 
G01 X-9.8270 Y17.5745 
G01 X-9.2157 Y17.5745 
G01 X-9.1606 Y17.5516 
G01 X-9.1184 Y17.5094 
G01 X-9.0955 Y17.4543 
G01 X-9.0955 Y16.8430 
G01 X-9.0722 Y16.7712 
G01 X-9.0447 Y16.5978 
G01 X-9.0447 Y13.8822 
G01 X-9.0722 Y13.7088 
G01 X-9.0955 Y13.6370 
G01 X-9.0955 Y13.0257 
G01 X-9.1184 Y12.9706 
G01 X-9.1606 Y12.9284 
G01 X-9.2157 Y12.9055 
G00 Z1.0000 
G00 X-13.7645 Y12.3743 
G01 Z-0.1700 F250.00 
G01 X-13.7416 Y12.4294 F250.00 
G01 X-13.6994 Y12.4716 
G01 X-13.6443 Y12.4945 
G01 X-13.0330 Y12.4945 
G01 X-12.9612 Y12.5178 
G01 X-12.7878 Y12.5453 
G01 X-12.6122 Y12.5453 
G01 X-12.4388 Y12.5178 
G01 X-12.3670 Y12.4945 
G01 X-11.7557 Y12.4945 
G01 X-11.7006 Y12.4716 
G01 X-11.6584 Y12.4294 
G01 X-11.6355 Y12.3743 
G01 X-11.6355 Y11.7630 
G01 X-11.6122 Y11.6912 
G01 X-11.5847 Y11.5178 
G01 X-11.5847 Y8.8471 
G01 X-11.5355 Y8.8267 
G01 X-11.4932 Y8.7845 
G01 X-11.4704 Y8.7294 
G01 X-11.4704 Y6.5106 
G01 X-11.4932 Y6.4555 
G01 X-11.5355 Y6.4133 
G01 X-11.5906 Y6.3904 
G01 X-13.8094 Y6.3904 
G01 X-13.8645 Y6.4133 
G01 X-13.9067 Y6.4555 
G01 X-13.9296 Y6.5106 
G01 X-13.9296 Y8.7294 
G01 X-13.9067 Y8.7845 
G01 X-13.8645 Y8.8267 
G01 X-13.8153 Y8.8471 
G01 X-13.8153 Y11.5178 
G01 X-13.7878 Y11.6912 
G01 X-13.7645 Y11.7630 
G01 X-13.7645 Y12.3743 
G00 Z1.0000 
G00 X-14.2957 Y12.9055 
G01 Z-0.1700 F250.00 
G01 X-14.9070 Y12.9055 F250.00 
G01 X-14.9788 Y12.8822 
G01 X-15.1522 Y12.8547 
G01 X-15.3278 Y12.8547 
G01 X-15.5012 Y12.8822 
G01 X-15.5730 Y12.9055 
G01 X-16.1843 Y12.9055 
G01 X-16.2394 Y12.9284 
G01 X-16.2816 Y12.9706 
G01 X-16.3045 Y13.0257 
G01 X-16.3045 Y13.6370 
G01 X-16.3278 Y13.7088 
G01 X-16.3553 Y13.8822 
G01 X-16.3553 Y16.5978 
G01 X-16.3278 Y16.7712 
G01 X-16.3045 Y16.8430 
G01 X-16.3045 Y17.4543 
G01 X-16.2816 Y17.5094 
G01 X-16.2394 Y17.5516 
G01 X-16.1843 Y17.5745 
G01 X-15.5730 Y17.5745 
G01 X-15.5012 Y17.5978 
G01 X-15.3278 Y17.6253 
G01 X-15.1522 Y17.6253 
G01 X-14.9788 Y17.5978 
G01 X-14.9070 Y17.5745 
G01 X-14.2957 Y17.5745 
G01 X-14.2406 Y17.5516 
G01 X-14.1984 Y17.5094 
G01 X-14.1755 Y17.4543 
G01 X-14.1755 Y16.8430 
G01 X-14.1522 Y16.7712 
G01 X-14.1247 Y16.5978 
G01 X-14.1247 Y13.8822 
G01 X-14.1522 Y13.7088 
G01 X-14.1755 Y13.6370 
G01 X-14.1755 Y13.0257 
G01 X-14.1984 Y12.9706 
G01 X-14.2406 Y12.9284 
G01 X-14.2957 Y12.9055 
G00 Z1.0000 
G00 X-16.3045 Y12.3743 
G01 Z-0.1700 F250.00 
G01 X-16.2816 Y12.4294 F250.00 
G01 X-16.2394 Y12.4716 
G01 X-16.1843 Y12.4945 
G01 X-15.5730 Y12.4945 
G01 X-15.5012 Y12.5178 
G01 X-15.3278 Y12.5453 
G01 X-15.1522 Y12.5453 
G01 X-14.9788 Y12.5178 
G01 X-14.9070 Y12.4945 
G01 X-14.2957 Y12.4945 
G01 X-14.2406 Y12.4716 
G01 X-14.1984 Y12.4294 
G01 X-14.1755 Y12.3743 
G01 X-14.1755 Y11.7630 
G01 X-14.1522 Y11.6912 
G01 X-14.1247 Y11.5178 
G01 X-14.1247 Y8.8471 
G01 X-14.0755 Y8.8267 
G01 X-14.0333 Y8.7845 
G01 X-14.0104 Y8.7294 
G01 X-14.0104 Y6.5106 
G01 X-14.0333 Y6.4555 
G01 X-14.0755 Y6.4133 
G01 X-14.1306 Y6.3904 
G01 X-16.3494 Y6.3904 
G01 X-16.4045 Y6.4133 
G01 X-16.4467 Y6.4555 
G01 X-16.4696 Y6.5106 
G01 X-16.4696 Y8.7294 
G01 X-16.4467 Y8.7845 
G01 X-16.4045 Y8.8267 
G01 X-16.3553 Y8.8471 
G01 X-16.3553 Y11.5178 
G01 X-16.3278 Y11.6912 
G01 X-16.3045 Y11.7630 
G01 X-16.3045 Y12.3743 
G00 Z1.0000 
G00 X-19.3757 Y12.9055 
G01 Z-0.1700 F250.00 
G01 X-19.9870 Y12.9055 F250.00 
G01 X-20.0588 Y12.8822 
G01 X-20.2322 Y12.8547 
G01 X-20.4078 Y12.8547 
G01 X-20.5812 Y12.8822 
G01 X-20.6530 Y12.9055 
G01 X-21.2643 Y12.9055 
G01 X-21.3194 Y12.9284 
G01 X-21.3616 Y12.9706 
G01 X-21.3845 Y13.0257 
G01 X-21.3845 Y13.6370 
G01 X-21.4078 Y13.7088 
G01 X-21.4353 Y13.8822 
G01 X-21.4353 Y16.5978 
G01 X-21.4078 Y16.7712 
G01 X-21.3845 Y16.8430 
G01 X-21.3845 Y17.4543 
G01 X-21.3616 Y17.5094 
G01 X-21.3194 Y17.5516 
G01 X-21.2643 Y17.5745 
G01 X-20.6530 Y17.5745 
G01 X-20.5812 Y17.5978 
G01 X-20.4078 Y17.6253 
G01 X-20.2322 Y17.6253 
G01 X-20.0588 Y17.5978 
G01 X-19.9870 Y17.5745 
G01 X-19.3757 Y17.5745 
G01 X-19.3206 Y17.5516 
G01 X-19.2783 Y17.5094 
G01 X-19.2555 Y17.4543 
G01 X-19.2555 Y16.8430 
G01 X-19.2322 Y16.7712 
G01 X-19.2047 Y16.5978 
G01 X-19.2047 Y13.8822 
G01 X-19.2322 Y13.7088 
G01 X-19.2555 Y13.6370 
G01 X-19.2555 Y13.0257 
G01 X-19.2783 Y12.9706 
G01 X-19.3206 Y12.9284 
G01 X-19.3757 Y12.9055 
G00 Z1.0000 
G00 X-23.9245 Y12.3743 
G01 Z-0.1700 F250.00 
G01 X-23.9016 Y12.4294 F250.00 
G01 X-23.8594 Y12.4716 
G01 X-23.8043 Y12.4945 
G01 X-23.1930 Y12.4945 
G01 X-23.1212 Y12.5178 
G01 X-22.9478 Y12.5453 
G01 X-22.7722 Y12.5453 
G01 X-22.5988 Y12.5178 
G01 X-22.5270 Y12.4945 
G01 X-21.9157 Y12.4945 
G01 X-21.8606 Y12.4716 
G01 X-21.8184 Y12.4294 
G01 X-21.7955 Y12.3743 
G01 X-21.7955 Y11.7630 
G01 X-21.7722 Y11.6912 
G01 X-21.7447 Y11.5178 
G01 X-21.7447 Y8.8471 
G01 X-21.6955 Y8.8267 
G01 X-21.6532 Y8.7845 
G01 X-21.6304 Y8.7294 
G01 X-21.6304 Y6.5106 
G01 X-21.6532 Y6.4555 
G01 X-21.6955 Y6.4133 
G01 X-21.7506 Y6.3904 
G01 X-23.9694 Y6.3904 
G01 X-24.0245 Y6.4133 
G01 X-24.0667 Y6.4555 
G01 X-24.0896 Y6.5106 
G01 X-24.0896 Y8.7294 
G01 X-24.0667 Y8.7845 
G01 X-24.0245 Y8.8267 
G01 X-23.9753 Y8.8471 
G01 X-23.9753 Y11.5178 
G01 X-23.9478 Y11.6912 
G01 X-23.9245 Y11.7630 
G01 X-23.9245 Y12.3743 
G00 Z1.0000 
G00 X-24.4557 Y12.9055 
G01 Z-0.1700 F250.00 
G01 X-25.0670 Y12.9055 F250.00 
G01 X-25.1388 Y12.8822 
G01 X-25.3122 Y12.8547 
G01 X-25.4878 Y12.8547 
G01 X-25.6612 Y12.8822 
G01 X-25.7330 Y12.9055 
G01 X-26.3443 Y12.9055 
G01 X-26.3994 Y12.9284 
G01 X-26.4416 Y12.9706 
G01 X-26.4645 Y13.0257 
G01 X-26.4645 Y13.6370 
G01 X-26.4878 Y13.7088 
G01 X-26.5153 Y13.8822 
G01 X-26.5153 Y16.5978 
G01 X-26.4878 Y16.7712 
G01 X-26.4645 Y16.8430 
G01 X-26.4645 Y17.4543 
G01 X-26.4416 Y17.5094 
G01 X-26.3994 Y17.5516 
G01 X-26.3443 Y17.5745 
G01 X-25.7330 Y17.5745 
G01 X-25.6612 Y17.5978 
G01 X-25.4878 Y17.6253 
G01 X-25.3122 Y17.6253 
G01 X-25.1388 Y17.5978 
G01 X-25.0670 Y17.5745 
G01 X-24.4557 Y17.5745 
G01 X-24.4006 Y17.5516 
G01 X-24.3584 Y17.5094 
G01 X-24.3355 Y17.4543 
G01 X-24.3355 Y16.8430 
G01 X-24.3122 Y16.7712 
G01 X-24.2847 Y16.5978 
G01 X-24.2847 Y13.8822 
G01 X-24.3122 Y13.7088 
G01 X-24.3355 Y13.6370 
G01 X-24.3355 Y13.0257 
G01 X-24.3584 Y12.9706 
G01 X-24.4006 Y12.9284 
G01 X-24.4557 Y12.9055 
G00 Z1.0000 
G00 X-34.0845 Y12.3743 
G01 Z-0.1700 F250.00 
G01 X-34.0616 Y12.4294 F250.00 
G01 X-34.0194 Y12.4716 
G01 X-33.9643 Y12.4945 
G01 X-33.3530 Y12.4945 
G01 X-33.2812 Y12.5178 
G01 X-33.1078 Y12.5453 
G01 X-32.9322 Y12.5453 
G01 X-32.7588 Y12.5178 
G01 X-32.6870 Y12.4945 
G01 X-32.0757 Y12.4945 
G01 X-32.0206 Y12.4716 
G01 X-31.9784 Y12.4294 
G01 X-31.9555 Y12.3743 
G01 X-31.9555 Y11.7630 
G01 X-31.9322 Y11.6912 
G01 X-31.9047 Y11.5178 
G01 X-31.9047 Y8.8471 
G01 X-31.8555 Y8.8267 
G01 X-31.8133 Y8.7845 
G01 X-31.7904 Y8.7294 
G01 X-31.7904 Y6.5106 
G01 X-31.8133 Y6.4555 
G01 X-31.8555 Y6.4133 
G01 X-31.9106 Y6.3904 
G01 X-34.1294 Y6.3904 
G01 X-34.1845 Y6.4133 
G01 X-34.2267 Y6.4555 
G01 X-34.2496 Y6.5106 
G01 X-34.2496 Y8.7294 
G01 X-34.2267 Y8.7845 
G01 X-34.1845 Y8.8267 
G01 X-34.1353 Y8.8471 
G01 X-34.1353 Y11.5178 
G01 X-34.1078 Y11.6912 
G01 X-34.0845 Y11.7630 
G01 X-34.0845 Y12.3743 
G00 Z1.0000 
G00 X-34.6157 Y12.9055 
G01 Z-0.1700 F250.00 
G01 X-35.2270 Y12.9055 F250.00 
G01 X-35.2988 Y12.8822 
G01 X-35.4722 Y12.8547 
G01 X-35.6478 Y12.8547 
G01 X-35.8212 Y12.8822 
G01 X-35.8930 Y12.9055 
G01 X-36.5043 Y12.9055 
G01 X-36.5594 Y12.9284 
G01 X-36.6016 Y12.9706 
G01 X-36.6245 Y13.0257 
G01 X-36.6245 Y13.6370 
G01 X-36.6478 Y13.7088 
G01 X-36.6753 Y13.8822 
G01 X-36.6753 Y16.5978 
G01 X-36.6478 Y16.7712 
G01 X-36.6245 Y16.8430 
G01 X-36.6245 Y17.4543 
G01 X-36.6016 Y17.5094 
G01 X-36.5594 Y17.5516 
G01 X-36.5043 Y17.5745 
G01 X-35.8930 Y17.5745 
G01 X-35.8212 Y17.5978 
G01 X-35.6478 Y17.6253 
G01 X-35.4722 Y17.6253 
G01 X-35.2988 Y17.5978 
G01 X-35.2270 Y17.5745 
G01 X-34.6157 Y17.5745 
G01 X-34.5606 Y17.5516 
G01 X-34.5184 Y17.5094 
G01 X-34.4955 Y17.4543 
G01 X-34.4955 Y16.8430 
G01 X-34.4722 Y16.7712 
G01 X-34.4447 Y16.5978 
G01 X-34.4447 Y13.8822 
G01 X-34.4722 Y13.7088 
G01 X-34.4955 Y13.6370 
G01 X-34.4955 Y13.0257 
G01 X-34.5184 Y12.9706 
G01 X-34.5606 Y12.9284 
G01 X-34.6157 Y12.9055 
G00 Z1.0000 
G00 X-39.1645 Y12.3743 
G01 Z-0.1700 F250.00 
G01 X-39.1416 Y12.4294 F250.00 
G01 X-39.0994 Y12.4716 
G01 X-39.0443 Y12.4945 
G01 X-38.4330 Y12.4945 
G01 X-38.3612 Y12.5178 
G01 X-38.1878 Y12.5453 
G01 X-38.0122 Y12.5453 
G01 X-37.8388 Y12.5178 
G01 X-37.7670 Y12.4945 
G01 X-37.1557 Y12.4945 
G01 X-37.1006 Y12.4716 
G01 X-37.0584 Y12.4294 
G01 X-37.0355 Y12.3743 
G01 X-37.0355 Y11.7630 
G01 X-37.0122 Y11.6912 
G01 X-36.9847 Y11.5178 
G01 X-36.9847 Y8.8471 
G01 X-36.9355 Y8.8267 
G01 X-36.8933 Y8.7845 
G01 X-36.8704 Y8.7294 
G01 X-36.8704 Y6.5106 
G01 X-36.8933 Y6.4555 
G01 X-36.9355 Y6.4133 
G01 X-36.9906 Y6.3904 
G01 X-39.2094 Y6.3904 
G01 X-39.2645 Y6.4133 
G01 X-39.3067 Y6.4555 
G01 X-39.3296 Y6.5106 
G01 X-39.3296 Y8.7294 
G01 X-39.3067 Y8.7845 
G01 X-39.2645 Y8.8267 
G01 X-39.2153 Y8.8471 
G01 X-39.2153 Y11.5178 
G01 X-39.1878 Y11.6912 
G01 X-39.1645 Y11.7630 
G01 X-39.1645 Y12.3743 
G00 Z1.0000 
G00 X-39.6957 Y12.9055 
G01 Z-0.1700 F250.00 
G01 X-40.3070 Y12.9055 F250.00 
G01 X-40.3788 Y12.8822 
G01 X-40.5522 Y12.8547 
G01 X-40.7278 Y12.8547 
G01 X-40.9012 Y12.8822 
G01 X-40.9730 Y12.9055 
G01 X-41.5843 Y12.9055 
G01 X-41.6394 Y12.9284 
G01 X-41.6816 Y12.9706 
G01 X-41.7045 Y13.0257 
G01 X-41.7045 Y13.6370 
G01 X-41.7278 Y13.7088 
G01 X-41.7553 Y13.8822 
G01 X-41.7553 Y16.5978 
G01 X-41.7278 Y16.7712 
G01 X-41.7045 Y16.8430 
G01 X-41.7045 Y17.4543 
G01 X-41.6816 Y17.5094 
G01 X-41.6394 Y17.5516 
G01 X-41.5843 Y17.5745 
G01 X-40.9730 Y17.5745 
G01 X-40.9012 Y17.5978 
G01 X-40.7278 Y17.6253 
G01 X-40.5522 Y17.6253 
G01 X-40.3788 Y17.5978 
G01 X-40.3070 Y17.5745 
G01 X-39.6957 Y17.5745 
G01 X-39.6406 Y17.5516 
G01 X-39.5984 Y17.5094 
G01 X-39.5755 Y17.4543 
G01 X-39.5755 Y16.8430 
G01 X-39.5522 Y16.7712 
G01 X-39.5247 Y16.5978 
G01 X-39.5247 Y13.8822 
G01 X-39.5522 Y13.7088 
G01 X-39.5755 Y13.6370 
G01 X-39.5755 Y13.0257 
G01 X-39.5984 Y12.9706 
G01 X-39.6406 Y12.9284 
G01 X-39.6957 Y12.9055 
G00 Z1.0000 
G00 X-41.7045 Y12.3743 
G01 Z-0.1700 F250.00 
G01 X-41.6816 Y12.4294 F250.00 
G01 X-41.6394 Y12.4716 
G01 X-41.5843 Y12.4945 
G01 X-40.9730 Y12.4945 
G01 X-40.9012 Y12.5178 
G01 X-40.7278 Y12.5453 
G01 X-40.5522 Y12.5453 
G01 X-40.3788 Y12.5178 
G01 X-40.3070 Y12.4945 
G01 X-39.6957 Y12.4945 
G01 X-39.6406 Y12.4716 
G01 X-39.5984 Y12.4294 
G01 X-39.5755 Y12.3743 
G01 X-39.5755 Y11.7630 
G01 X-39.5522 Y11.6912 
G01 X-39.5247 Y11.5178 
G01 X-39.5247 Y8.8471 
G01 X-39.4755 Y8.8267 
G01 X-39.4333 Y8.7845 
G01 X-39.4104 Y8.7294 
G01 X-39.4104 Y6.5106 
G01 X-39.4333 Y6.4555 
G01 X-39.4755 Y6.4133 
G01 X-39.5306 Y6.3904 
G01 X-41.7494 Y6.3904 
G01 X-41.8045 Y6.4133 
G01 X-41.8467 Y6.4555 
G01 X-41.8696 Y6.5106 
G01 X-41.8696 Y8.7294 
G01 X-41.8467 Y8.7845 
G01 X-41.8045 Y8.8267 
G01 X-41.7553 Y8.8471 
G01 X-41.7553 Y11.5178 
G01 X-41.7278 Y11.6912 
G01 X-41.7045 Y11.7630 
G01 X-41.7045 Y12.3743 
G00 Z1.0000 
G00 X-44.7757 Y12.9055 
G01 Z-0.1700 F250.00 
G01 X-45.3870 Y12.9055 F250.00 
G01 X-45.4588 Y12.8822 
G01 X-45.6322 Y12.8547 
G01 X-45.8078 Y12.8547 
G01 X-45.9812 Y12.8822 
G01 X-46.0530 Y12.9055 
G01 X-46.6643 Y12.9055 
G01 X-46.7194 Y12.9284 
G01 X-46.7616 Y12.9706 
G01 X-46.7845 Y13.0257 
G01 X-46.7845 Y13.6370 
G01 X-46.8078 Y13.7088 
G01 X-46.8353 Y13.8822 
G01 X-46.8353 Y16.5978 
G01 X-46.8078 Y16.7712 
G01 X-46.7845 Y16.8430 
G01 X-46.7845 Y17.4543 
G01 X-46.7616 Y17.5094 
G01 X-46.7194 Y17.5516 
G01 X-46.6643 Y17.5745 
G01 X-46.0530 Y17.5745 
G01 X-45.9812 Y17.5978 
G01 X-45.8078 Y17.6253 
G01 X-45.6322 Y17.6253 
G01 X-45.4588 Y17.5978 
G01 X-45.3870 Y17.5745 
G01 X-44.7757 Y17.5745 
G01 X-44.7206 Y17.5516 
G01 X-44.6784 Y17.5094 
G01 X-44.6555 Y17.4543 
G01 X-44.6555 Y16.8430 
G01 X-44.6322 Y16.7712 
G01 X-44.6047 Y16.5978 
G01 X-44.6047 Y13.8822 
G01 X-44.6322 Y13.7088 
G01 X-44.6555 Y13.6370 
G01 X-44.6555 Y13.0257 
G01 X-44.6784 Y12.9706 
G01 X-44.7206 Y12.9284 
G01 X-44.7757 Y12.9055 
G00 Z1.0000 
G00 X-46.7845 Y12.3743 
G01 Z-0.1700 F250.00 
G01 X-46.7616 Y12.4294 F250.00 
G01 X-46.7194 Y12.4716 
G01 X-46.6643 Y12.4945 
G01 X-46.0530 Y12.4945 
G01 X-45.9812 Y12.5178 
G01 X-45.8078 Y12.5453 
G01 X-45.6322 Y12.5453 
G01 X-45.4588 Y12.5178 
G01 X-45.3870 Y12.4945 
G01 X-44.7757 Y12.4945 
G01 X-44.7206 Y12.4716 
G01 X-44.6784 Y12.4294 
G01 X-44.6555 Y12.3743 
G01 X-44.6555 Y11.7630 
G01 X-44.6322 Y11.6912 
G01 X-44.6047 Y11.5178 
G01 X-44.6047 Y8.8471 
G01 X-44.5555 Y8.8267 
G01 X-44.5132 Y8.7845 
G01 X-44.4904 Y8.7294 
G01 X-44.4904 Y6.5106 
G01 X-44.5132 Y6.4555 
G01 X-44.5555 Y6.4133 
G01 X-44.6106 Y6.3904 
G01 X-46.8294 Y6.3904 
G01 X-46.8845 Y6.4133 
G01 X-46.9267 Y6.4555 
G01 X-46.9496 Y6.5106 
G01 X-46.9496 Y8.7294 
G01 X-46.9267 Y8.7845 
G01 X-46.8845 Y8.8267 
G01 X-46.8353 Y8.8471 
G01 X-46.8353 Y11.5178 
G01 X-46.8078 Y11.6912 
G01 X-46.7845 Y11.7630 
G01 X-46.7845 Y12.3743 
G00 Z1.0000 
G00 X-49.8557 Y12.9055 
G01 Z-0.1700 F250.00 
G01 X-50.4670 Y12.9055 F250.00 
G01 X-50.5388 Y12.8822 
G01 X-50.7122 Y12.8547 
G01 X-50.8878 Y12.8547 
G01 X-51.0612 Y12.8822 
G01 X-51.1330 Y12.9055 
G01 X-51.7443 Y12.9055 
G01 X-51.7994 Y12.9284 
G01 X-51.8416 Y12.9706 
G01 X-51.8645 Y13.0257 
G01 X-51.8645 Y13.6370 
G01 X-51.8878 Y13.7088 
G01 X-51.9153 Y13.8822 
G01 X-51.9153 Y16.5978 
G01 X-51.8878 Y16.7712 
G01 X-51.8645 Y16.8430 
G01 X-51.8645 Y17.4543 
G01 X-51.8416 Y17.5094 
G01 X-51.7994 Y17.5516 
G01 X-51.7443 Y17.5745 
G01 X-51.1330 Y17.5745 
G01 X-51.0612 Y17.5978 
G01 X-50.8878 Y17.6253 
G01 X-50.7122 Y17.6253 
G01 X-50.5388 Y17.5978 
G01 X-50.4670 Y17.5745 
G01 X-49.8557 Y17.5745 
G01 X-49.8006 Y17.5516 
G01 X-49.7584 Y17.5094 
G01 X-49.7355 Y17.4543 
G01 X-49.7355 Y16.8430 
G01 X-49.7122 Y16.7712 
G01 X-49.6847 Y16.5978 
G01 X-49.6847 Y13.8822 
G01 X-49.7122 Y13.7088 
G01 X-49.7355 Y13.6370 
G01 X-49.7355 Y13.0257 
G01 X-49.7584 Y12.9706 
G01 X-49.8006 Y12.9284 
G01 X-49.8557 Y12.9055 
G00 Z1.0000 
G00 X-59.4845 Y12.3743 
G01 Z-0.1700 F250.00 
G01 X-59.4616 Y12.4294 F250.00 
G01 X-59.4194 Y12.4716 
G01 X-59.3643 Y12.4945 
G01 X-58.7530 Y12.4945 
G01 X-58.6812 Y12.5178 
G01 X-58.5078 Y12.5453 
G01 X-58.3322 Y12.5453 
G01 X-58.1588 Y12.5178 
G01 X-58.0870 Y12.4945 
G01 X-57.4757 Y12.4945 
G01 X-57.4206 Y12.4716 
G01 X-57.3784 Y12.4294 
G01 X-57.3555 Y12.3743 
G01 X-57.3555 Y11.7630 
G01 X-57.3322 Y11.6912 
G01 X-57.3047 Y11.5178 
G01 X-57.3047 Y8.8471 
G01 X-57.2555 Y8.8267 
G01 X-57.2133 Y8.7845 
G01 X-57.1904 Y8.7294 
G01 X-57.1904 Y6.5106 
G01 X-57.2133 Y6.4555 
G01 X-57.2555 Y6.4133 
G01 X-57.3106 Y6.3904 
G01 X-59.5294 Y6.3904 
G01 X-59.5845 Y6.4133 
G01 X-59.6267 Y6.4555 
G01 X-59.6496 Y6.5106 
G01 X-59.6496 Y8.7294 
G01 X-59.6267 Y8.7845 
G01 X-59.5845 Y8.8267 
G01 X-59.5353 Y8.8471 
G01 X-59.5353 Y11.5178 
G01 X-59.5078 Y11.6912 
G01 X-59.4845 Y11.7630 
G01 X-59.4845 Y12.3743 
G00 Z1.0000 
G00 X-60.0157 Y12.9055 
G01 Z-0.1700 F250.00 
G01 X-60.6270 Y12.9055 F250.00 
G01 X-60.6988 Y12.8822 
G01 X-60.8722 Y12.8547 
G01 X-61.0478 Y12.8547 
G01 X-61.2212 Y12.8822 
G01 X-61.2930 Y12.9055 
G01 X-61.9043 Y12.9055 
G01 X-61.9594 Y12.9284 
G01 X-62.0016 Y12.9706 
G01 X-62.0245 Y13.0257 
G01 X-62.0245 Y13.6370 
G01 X-62.0478 Y13.7088 
G01 X-62.0753 Y13.8822 
G01 X-62.0753 Y16.5978 
G01 X-62.0478 Y16.7712 
G01 X-62.0245 Y16.8430 
G01 X-62.0245 Y17.4543 
G01 X-62.0016 Y17.5094 
G01 X-61.9594 Y17.5516 
G01 X-61.9043 Y17.5745 
G01 X-61.2930 Y17.5745 
G01 X-61.2212 Y17.5978 
G01 X-61.0478 Y17.6253 
G01 X-60.8722 Y17.6253 
G01 X-60.6988 Y17.5978 
G01 X-60.6270 Y17.5745 
G01 X-60.0157 Y17.5745 
G01 X-59.9606 Y17.5516 
G01 X-59.9184 Y17.5094 
G01 X-59.8955 Y17.4543 
G01 X-59.8955 Y16.8430 
G01 X-59.8722 Y16.7712 
G01 X-59.8447 Y16.5978 
G01 X-59.8447 Y13.8822 
