(.../pcb-gcode-3.6.0.4/pcb-gcode.ulp)
(Copyright 2005 - 2012 by John Johnson)
(See readme.txt for licensing terms.)
(This file generated from the board:)
(/home/mst/NC/eagle/shifter.brd)
(Current profile is .../pcb-gcode-3.6.0.4/profiles/emc.pp  )
(This file generated 08.06.13 00:49)
(Settings from pcb-machine.h)
(  Tool Size)
(0.3000 )
(Z Axis Settings)
(  High     Up        Down     Drill)
(1.0000 	1.0000 	-0.1500 	-0.2000 )
(spindle on time = 0.0000)
(milling depth = -0.1500)
(text depth = -0.1270)
(tool change at 12.7000 15.2400 25.4000 )
(feed rate xy = F250.00 )
(feed rate z  = F250.00 )
(Settings from pcb-defaults.h)
(isolate min = 0.0010)
(isolate max = 0.5080)
(isolate step = 0.1270)
(Generated bottom outlines, bottom drill, )
(Unit of measure: mm)
( Tool|       Size       |  Min Sub |  Max Sub |   Count )
( T01 | 0.600mm 0.0236in | 0.0000in | 0.0000in |       0 )
( T02 | 0.813mm 0.0320in | 0.0000in | 0.0000in |       0 )
( T03 | 1.016mm 0.0400in | 0.0000in | 0.0000in |       0 )
(Metric Mode)
G21
(Absolute Coordinates)
G90
M05
G00 Z25.4000 
G00 X12.7000 Y15.2400 
M06 T01 (0.6000 )
G01 Z0.0000 F250.00 
M06 T01 (0.6000 )
G00 Z1.0000 
M03
G04 P0.000000
G82 X-34.2900 Y17.7800 Z-0.2000 F250.00 R1.0000 P0.000000
G82 X-34.2900 Y30.4800 
G82 X-38.1000 Y41.9100 
G82 X-38.1000 Y30.4800 
G82 X-45.7200 Y34.2900 
G82 X-45.7200 Y27.9400 
G82 X-48.2600 Y34.2900 
G82 X-48.2600 Y29.2100 
G82 X-50.8000 Y24.1300 
G82 X-50.8000 Y29.2100 
G82 X-55.8800 Y24.1300 
G82 X-55.8800 Y30.4800 
G82 X-60.9600 Y17.7800 
G82 X-60.9600 Y30.4800 
G82 X-64.7700 Y41.9100 
G82 X-64.7700 Y30.4800 
G82 X-72.3900 Y34.2900 
G82 X-72.3900 Y27.9400 
G82 X-74.9300 Y34.2900 
G82 X-74.9300 Y29.2100 
G82 X-77.4700 Y24.1300 
G82 X-77.4700 Y29.2100 
G82 X-87.6300 Y16.5100 
G82 X-87.6300 Y30.4800 
G82 X-11.4300 Y35.5600 
G82 X-11.4300 Y41.9100 
G82 X-19.0500 Y34.2900 
G82 X-19.0500 Y27.9400 
G82 X-21.5900 Y34.2900 
G82 X-21.5900 Y29.2100 
G82 X-24.1300 Y24.1300 
G82 X-24.1300 Y29.2100 
G82 X-29.2100 Y24.1300 
G82 X-29.2100 Y30.4800 
M05
G00 Z25.4000 
M06 T02 (0.8128 )
G01 Z0.0000 F250.00 
M06 T02 (0.8128 )
G00 Z1.0000 
M03
G04 P0.000000
G82 X-31.7500 Y36.8300 Z-0.2000 F250.00 R1.0000 P0.000000
G82 X-31.7500 Y44.4500 
G82 X-31.7500 Y46.9900 
G82 X-31.7500 Y49.5300 
G82 X-31.7500 Y10.1600 
G82 X-31.7500 Y13.9700 
G82 X-31.7500 Y21.5900 
G82 X-34.2900 Y46.9900 
G82 X-34.2900 Y49.5300 
G82 X-34.2900 Y10.1600 
G82 X-38.1000 Y48.2600 
G82 X-38.1000 Y8.8900 
G82 X-38.1000 Y11.4300 
G82 X-40.6400 Y36.8300 
G82 X-40.6400 Y44.4500 
G82 X-40.6400 Y48.2600 
G82 X-40.6400 Y8.8900 
G82 X-40.6400 Y11.4300 
G82 X-40.6400 Y13.9700 
G82 X-40.6400 Y21.5900 
G82 X-43.1800 Y36.8300 
G82 X-43.1800 Y44.4500 
G82 X-43.1800 Y46.9900 
G82 X-43.1800 Y49.5300 
G82 X-43.1800 Y8.8900 
G82 X-43.1800 Y11.4300 
G82 X-43.1800 Y13.9700 
G82 X-43.1800 Y21.5900 
G82 X-45.7200 Y36.8300 
G82 X-45.7200 Y44.4500 
G82 X-45.7200 Y46.9900 
G82 X-45.7200 Y49.5300 
G82 X-45.7200 Y8.8900 
G82 X-45.7200 Y11.4300 
G82 X-45.7200 Y13.9700 
G82 X-45.7200 Y21.5900 
G82 X-48.2600 Y36.8300 
G82 X-48.2600 Y44.4500 
G82 X-48.2600 Y46.9900 
G82 X-48.2600 Y49.5300 
G82 X-48.2600 Y8.8900 
G82 X-48.2600 Y11.4300 
G82 X-48.2600 Y13.9700 
G82 X-48.2600 Y21.5900 
G82 X-50.8000 Y36.8300 
G82 X-50.8000 Y44.4500 
G82 X-50.8000 Y46.9900 
G82 X-50.8000 Y49.5300 
G82 X-50.8000 Y8.8900 
G82 X-50.8000 Y11.4300 
G82 X-50.8000 Y13.9700 
G82 X-50.8000 Y21.5900 
G82 X-53.3400 Y36.8300 
G82 X-53.3400 Y44.4500 
G82 X-53.3400 Y46.9900 
G82 X-53.3400 Y49.5300 
G82 X-53.3400 Y8.8900 
G82 X-53.3400 Y11.4300 
G82 X-53.3400 Y13.9700 
G82 X-53.3400 Y21.5900 
G82 X-55.8800 Y36.8300 
G82 X-55.8800 Y44.4500 
G82 X-55.8800 Y46.9900 
G82 X-55.8800 Y49.5300 
G82 X-55.8800 Y8.8900 
G82 X-55.8800 Y11.4300 
G82 X-55.8800 Y13.9700 
G82 X-55.8800 Y21.5900 
G82 X-58.4200 Y36.8300 
G82 X-58.4200 Y44.4500 
G82 X-58.4200 Y46.9900 
G82 X-58.4200 Y49.5300 
G82 X-58.4200 Y10.1600 
G82 X-58.4200 Y13.9700 
G82 X-58.4200 Y21.5900 
G82 X-60.9600 Y46.9900 
G82 X-60.9600 Y49.5300 
G82 X-60.9600 Y10.1600 
G82 X-64.7700 Y48.2600 
G82 X-64.7700 Y8.8900 
G82 X-64.7700 Y11.4300 
G82 X-67.3100 Y36.8300 
G82 X-67.3100 Y44.4500 
G82 X-67.3100 Y48.2600 
G82 X-67.3100 Y8.8900 
G82 X-67.3100 Y11.4300 
G82 X-67.3100 Y13.9700 
G82 X-67.3100 Y21.5900 
G82 X-69.8500 Y36.8300 
G82 X-69.8500 Y44.4500 
G82 X-69.8500 Y46.9900 
G82 X-69.8500 Y49.5300 
G82 X-69.8500 Y8.8900 
G82 X-69.8500 Y11.4300 
G82 X-69.8500 Y13.9700 
G82 X-69.8500 Y21.5900 
G82 X-72.3900 Y36.8300 
G82 X-72.3900 Y44.4500 
G82 X-72.3900 Y46.9900 
G82 X-72.3900 Y49.5300 
G82 X-72.3900 Y8.8900 
G82 X-72.3900 Y11.4300 
G82 X-72.3900 Y13.9700 
G82 X-72.3900 Y21.5900 
G82 X-74.9300 Y36.8300 
G82 X-74.9300 Y44.4500 
G82 X-74.9300 Y46.9900 
G82 X-74.9300 Y49.5300 
G82 X-74.9300 Y8.8900 
G82 X-74.9300 Y11.4300 
G82 X-74.9300 Y13.9700 
G82 X-74.9300 Y21.5900 
G82 X-77.4700 Y36.8300 
G82 X-77.4700 Y44.4500 
G82 X-77.4700 Y46.9900 
G82 X-77.4700 Y49.5300 
G82 X-77.4700 Y8.8900 
G82 X-77.4700 Y11.4300 
G82 X-77.4700 Y13.9700 
G82 X-77.4700 Y21.5900 
G82 X-80.0100 Y36.8300 
G82 X-80.0100 Y44.4500 
G82 X-80.0100 Y46.9900 
G82 X-80.0100 Y49.5300 
G82 X-80.0100 Y8.8900 
G82 X-80.0100 Y11.4300 
G82 X-80.0100 Y13.9700 
G82 X-80.0100 Y21.5900 
G82 X-82.5500 Y36.8300 
G82 X-82.5500 Y44.4500 
G82 X-82.5500 Y46.9900 
G82 X-82.5500 Y49.5300 
G82 X-82.5500 Y8.8900 
G82 X-82.5500 Y11.4300 
G82 X-82.5500 Y13.9700 
G82 X-82.5500 Y21.5900 
G82 X-85.0900 Y36.8300 
G82 X-85.0900 Y44.4500 
G82 X-85.0900 Y46.9900 
G82 X-85.0900 Y49.5300 
G82 X-85.0900 Y10.1600 
G82 X-85.0900 Y13.9700 
G82 X-85.0900 Y21.5900 
G82 X-87.6300 Y46.9900 
G82 X-87.6300 Y49.5300 
G82 X-87.6300 Y10.1600 
G82 X-11.4300 Y48.2600 
G82 X-11.4300 Y8.8900 
G82 X-11.4300 Y11.4300 
G82 X-13.9700 Y36.8300 
G82 X-13.9700 Y44.4500 
G82 X-13.9700 Y48.2600 
G82 X-13.9700 Y8.8900 
G82 X-13.9700 Y11.4300 
G82 X-13.9700 Y13.9700 
G82 X-13.9700 Y21.5900 
G82 X-16.5100 Y36.8300 
G82 X-16.5100 Y44.4500 
G82 X-16.5100 Y46.9900 
G82 X-16.5100 Y49.5300 
G82 X-16.5100 Y8.8900 
G82 X-16.5100 Y11.4300 
G82 X-16.5100 Y13.9700 
G82 X-16.5100 Y21.5900 
G82 X-19.0500 Y36.8300 
G82 X-19.0500 Y44.4500 
G82 X-19.0500 Y46.9900 
G82 X-19.0500 Y49.5300 
G82 X-19.0500 Y8.8900 
G82 X-19.0500 Y11.4300 
G82 X-19.0500 Y13.9700 
G82 X-19.0500 Y21.5900 
G82 X-21.5900 Y36.8300 
G82 X-21.5900 Y44.4500 
G82 X-21.5900 Y46.9900 
G82 X-21.5900 Y49.5300 
G82 X-21.5900 Y8.8900 
G82 X-21.5900 Y11.4300 
G82 X-21.5900 Y13.9700 
G82 X-21.5900 Y21.5900 
G82 X-24.1300 Y36.8300 
G82 X-24.1300 Y44.4500 
G82 X-24.1300 Y46.9900 
G82 X-24.1300 Y49.5300 
G82 X-24.1300 Y8.8900 
G82 X-24.1300 Y11.4300 
G82 X-24.1300 Y13.9700 
G82 X-24.1300 Y21.5900 
G82 X-26.6700 Y36.8300 
G82 X-26.6700 Y44.4500 
G82 X-26.6700 Y46.9900 
G82 X-26.6700 Y49.5300 
G82 X-26.6700 Y8.8900 
G82 X-26.6700 Y11.4300 
G82 X-26.6700 Y13.9700 
G82 X-26.6700 Y21.5900 
G82 X-29.2100 Y36.8300 
G82 X-29.2100 Y44.4500 
G82 X-29.2100 Y46.9900 
G82 X-29.2100 Y49.5300 
G82 X-29.2100 Y8.8900 
G82 X-29.2100 Y11.4300 
G82 X-29.2100 Y13.9700 
G82 X-29.2100 Y21.5900 
M05
G00 Z25.4000 
M06 T03 (1.0160 )
G01 Z0.0000 F250.00 
M06 T03 (1.0160 )
G00 Z1.0000 
M03
G04 P0.000000
G82 X-31.7500 Y53.3400 Z-0.2000 F250.00 R1.0000 P0.000000
G82 X-34.2900 Y53.3400 
G82 X-38.1000 Y5.0800 
G82 X-40.6400 Y5.0800 
G82 X-43.1800 Y5.0800 
G82 X-43.1800 Y53.3400 
G82 X-45.7200 Y5.0800 
G82 X-45.7200 Y53.3400 
G82 X-48.2600 Y5.0800 
G82 X-48.2600 Y53.3400 
G82 X-50.8000 Y5.0800 
G82 X-50.8000 Y53.3400 
G82 X-53.3400 Y5.0800 
G82 X-53.3400 Y53.3400 
G82 X-55.8800 Y5.0800 
G82 X-55.8800 Y53.3400 
G82 X-58.4200 Y53.3400 
G82 X-60.9600 Y53.3400 
G82 X-64.7700 Y5.0800 
G82 X-67.3100 Y5.0800 
G82 X-69.8500 Y5.0800 
G82 X-69.8500 Y53.3400 
G82 X-72.3900 Y5.0800 
G82 X-72.3900 Y53.3400 
G82 X-74.9300 Y5.0800 
G82 X-74.9300 Y53.3400 
G82 X-77.4700 Y5.0800 
G82 X-77.4700 Y53.3400 
G82 X-80.0100 Y5.0800 
G82 X-80.0100 Y53.3400 
G82 X-82.5500 Y5.0800 
G82 X-82.5500 Y53.3400 
G82 X-85.0900 Y53.3400 
G82 X-87.6300 Y53.3400 
G82 X-8.8900 Y35.5600 
G82 X-8.8900 Y39.3700 
G82 X-8.8900 Y25.4000 
G82 X-8.8900 Y27.9400 
G82 X-8.8900 Y30.4800 
G82 X-11.4300 Y5.0800 
G82 X-13.9700 Y5.0800 
G82 X-15.2400 Y33.0200 
G82 X-16.5100 Y5.0800 
G82 X-16.5100 Y53.3400 
G82 X-19.0500 Y5.0800 
G82 X-19.0500 Y53.3400 
G82 X-21.5900 Y5.0800 
G82 X-21.5900 Y53.3400 
G82 X-24.1300 Y5.0800 
G82 X-24.1300 Y53.3400 
G82 X-26.6700 Y5.0800 
G82 X-26.6700 Y53.3400 
G82 X-29.2100 Y5.0800 
G82 X-29.2100 Y53.3400 
T01 
M05
M02
